%
(Header)
(Generated by gcodetools from Inkscape.)
(Using default header. To add your own header create file "header" in the output dir.)
M3
(Header end.)
G21 (All units in mm)

(Start cutting path id: path281758)
(Change tool to Default tool)

G00 Z5.000000
G00 X138.110530 Y41.200970

G01 Z-0.125000 F100.0(Penetrate)
G01 X137.839530 Y40.431320 Z-0.125000 F400.000000
G01 X137.140340 Y39.824280 Z-0.125000
G01 X136.256870 Y39.585790 Z-0.125000
G01 X135.802945 Y39.649477 Z-0.125000
G01 X135.449290 Y39.840540 Z-0.125000
G01 X135.221643 Y40.139995 Z-0.125000
G01 X135.145760 Y40.528880 Z-0.125000
G01 X135.292100 Y41.097990 Z-0.125000
G01 X135.655250 Y41.537010 Z-0.125000
G01 X135.389670 Y41.509910 Z-0.125000
G01 X134.966900 Y41.683350 Z-0.125000
G01 X134.788040 Y42.133220 Z-0.125000
G01 X135.037360 Y43.000430 Z-0.125000
G01 X135.671510 Y43.607470 Z-0.125000
G01 X135.855790 Y43.699670 Z-0.125000
G01 X135.985870 Y43.721370 Z-0.125000
G01 X136.050870 Y43.699670 Z-0.125000
G01 X136.083370 Y43.645470 Z-0.125000
G01 X136.142970 Y43.667170 Z-0.125000
G01 X136.251370 Y43.688870 Z-0.125000
G01 X136.386880 Y43.693870 Z-0.125000
G01 X136.885520 Y43.509580 Z-0.125000
G01 X137.091480 Y42.989260 Z-0.125000
G01 X136.993880 Y42.604430 Z-0.125000
G01 X136.771660 Y42.295490 Z-0.125000
G01 X136.652420 Y42.176250 Z-0.125000
G01 X136.739120 Y42.187050 Z-0.125000
G01 X136.972180 Y42.197850 Z-0.125000
G01 X137.535870 Y42.078610 Z-0.125000
G01 X137.953210 Y41.731730 Z-0.125000
G01 X138.110390 Y41.200560 Z-0.125000
G01 X138.110530 Y41.200970 Z-0.125000
G00 Z5.000000

(End cutting path id: path281758)


(Start cutting path id: path281758)
(Change tool to Default tool)

G00 Z5.000000
G00 X137.850370 Y41.184710

G01 Z-0.125000 F100.0(Penetrate)
G01 X137.782620 Y41.508557 Z-0.125000 F400.000000
G01 X137.579370 Y41.753820 Z-0.125000
G01 X136.896440 Y41.965200 Z-0.125000
G01 X136.359860 Y41.873100 Z-0.125000
G01 X135.666090 Y41.276890 Z-0.125000
G01 X135.411350 Y40.561440 Z-0.125000
G01 X135.633570 Y40.019440 Z-0.125000
G01 X136.262290 Y39.840580 Z-0.125000
G01 X136.999420 Y40.030280 Z-0.125000
G01 X137.611890 Y40.523500 Z-0.125000
G01 X137.850370 Y41.184750 Z-0.125000
G01 X137.850370 Y41.184710 Z-0.125000
G00 Z5.000000

(End cutting path id: path281758)


(Start cutting path id: path281758)
(Change tool to Default tool)

G00 Z5.000000
G00 X136.815140 Y43.000430

G01 Z-0.125000 F100.0(Penetrate)
G01 X136.674220 Y43.331050 Z-0.125000 F400.000000
G01 X136.321920 Y43.450290 Z-0.125000
G01 X136.083430 Y43.406890 Z-0.125000
G01 X136.045530 Y43.347290 Z-0.125000
G01 X135.975030 Y43.320190 Z-0.125000
G01 X135.736550 Y43.293090 Z-0.125000
G01 X135.395090 Y43.049190 Z-0.125000
G01 X135.140340 Y42.631840 Z-0.125000
G01 X135.048240 Y42.154880 Z-0.125000
G01 X135.151220 Y41.867620 Z-0.125000
G01 X135.465590 Y41.770020 Z-0.125000
G01 X136.072630 Y41.954300 Z-0.125000
G01 X136.603800 Y42.431260 Z-0.125000
G01 X136.815180 Y43.000370 Z-0.125000
G01 X136.815140 Y43.000430 Z-0.125000
G00 Z5.000000

(End cutting path id: path281758)


(Start cutting path id: path281756)
(Change tool to Default tool)

G00 Z5.000000
G00 X133.847910 Y40.360860

G01 Z-0.125000 F100.0(Penetrate)
G01 X133.940010 Y39.948940 Z-0.125000 F400.000000
G01 X133.972510 Y39.797170 Z-0.125000
G01 X133.994210 Y39.683350 Z-0.125000
G01 X133.923710 Y39.574950 Z-0.125000
G01 X133.777370 Y39.520750 Z-0.125000
G01 X133.679770 Y39.618350 Z-0.125000
G01 X133.609270 Y39.856840 Z-0.125000
G01 X133.435830 Y41.618350 Z-0.125000
G01 X133.359930 Y42.772830 Z-0.125000
G01 X132.487300 Y42.057380 Z-0.125000
G01 X132.319280 Y41.981480 Z-0.125000
G01 X132.232580 Y42.013980 Z-0.125000
G01 X132.200080 Y42.084480 Z-0.125000
G01 X132.324750 Y42.236240 Z-0.125000
G01 X132.817970 Y42.615640 Z-0.125000
G01 X133.262420 Y43.043830 Z-0.125000
G01 X133.338320 Y43.119730 Z-0.125000
G01 X133.338320 Y43.124730 Z-0.125000
G01 X133.338320 Y43.206030 Z-0.125000
G01 X133.338320 Y43.260230 Z-0.125000
G01 X133.354620 Y43.309030 Z-0.125000
G01 X133.376320 Y43.319830 Z-0.125000
G01 X133.452220 Y43.336130 Z-0.125000
G01 X133.625660 Y43.303630 Z-0.125000
G01 X133.690660 Y43.206030 Z-0.125000
G01 X133.625660 Y43.054270 Z-0.125000
G01 X133.658160 Y42.794110 Z-0.125000
G01 X133.739460 Y41.558330 Z-0.125000
G01 X133.847860 Y40.360500 Z-0.125000
G01 X133.847910 Y40.360860 Z-0.125000
G00 Z5.000000

(End cutting path id: path281756)


(Start cutting path id: path281754)
(Change tool to Default tool)

G00 Z5.000000
G00 X132.070220 Y41.602050

G01 Z-0.125000 F100.0(Penetrate)
G01 X131.907610 Y41.065470 Z-0.125000 F400.000000
G01 X131.419810 Y40.566820 Z-0.125000
G01 X130.623060 Y40.182000 Z-0.125000
G01 X130.698960 Y39.943520 Z-0.125000
G01 X130.774860 Y39.851420 Z-0.125000
G01 X130.834460 Y39.786420 Z-0.125000
G01 X130.769460 Y39.688820 Z-0.125000
G01 X130.644800 Y39.640020 Z-0.125000
G01 X130.471360 Y39.764680 Z-0.125000
G01 X130.400860 Y39.943550 Z-0.125000
G01 X130.368360 Y40.116990 Z-0.125000
G01 X130.330460 Y40.116990 Z-0.125000
G01 X130.249160 Y40.111990 Z-0.125000
G01 X129.886012 Y40.198710 Z-0.125000
G01 X129.609590 Y40.458870 Z-0.125000
G01 X129.381950 Y41.353180 Z-0.125000
G01 X129.474090 Y42.040175 Z-0.125000
G01 X129.750510 Y42.691940 Z-0.125000
G01 X130.186827 Y43.261042 Z-0.125000
G01 X130.747800 Y43.689230 Z-0.125000
G01 X130.845400 Y43.738030 Z-0.125000
G01 X130.937500 Y43.754330 Z-0.125000
G01 X131.040490 Y43.716430 Z-0.125000
G01 X131.089290 Y43.624230 Z-0.125000
G01 X130.948360 Y43.439950 Z-0.125000
G01 X130.344028 Y43.007702 Z-0.125000
G01 X129.940230 Y42.523960 Z-0.125000
G01 X129.716655 Y41.972473 Z-0.125000
G01 X129.642130 Y41.336970 Z-0.125000
G01 X129.810150 Y40.659460 Z-0.125000
G01 X130.033727 Y40.452145 Z-0.125000
G01 X130.368420 Y40.383040 Z-0.125000
G01 X130.590640 Y41.309870 Z-0.125000
G01 X131.024250 Y41.900660 Z-0.125000
G01 X131.571670 Y42.101200 Z-0.125000
G01 X131.940230 Y41.960280 Z-0.125000
G01 X132.070320 Y41.602550 Z-0.125000
G01 X132.070220 Y41.602050 Z-0.125000
G00 Z5.000000

(End cutting path id: path281754)


(Start cutting path id: path281754)
(Change tool to Default tool)

G00 Z5.000000
G00 X131.826310 Y41.553250

G01 Z-0.125000 F100.0(Penetrate)
G01 X131.758560 Y41.772767 Z-0.125000 F400.000000
G01 X131.555310 Y41.845940 Z-0.125000
G01 X131.231462 Y41.752442 Z-0.125000
G01 X130.953680 Y41.471950 Z-0.125000
G01 X130.617640 Y40.420460 Z-0.125000
G01 X131.219270 Y40.691460 Z-0.125000
G01 X131.658290 Y41.119650 Z-0.125000
G01 X131.826310 Y41.553250 Z-0.125000
G01 X131.826310 Y41.553250 Z-0.125000
G00 Z5.000000

(End cutting path id: path281754)


(Start cutting path id: path281752)
(Change tool to Default tool)

G00 Z5.000000
G00 X128.804890 Y41.710450

G01 Z-0.125000 F100.0(Penetrate)
G01 X128.555570 Y40.756520 Z-0.125000 F400.000000
G01 X127.905160 Y39.976040 Z-0.125000
G01 X127.495942 Y39.744327 Z-0.125000
G01 X127.070470 Y39.667090 Z-0.125000
G01 X126.724942 Y39.740262 Z-0.125000
G01 X126.468840 Y39.959780 Z-0.125000
G01 X126.257460 Y40.718580 Z-0.125000
G01 X126.392960 Y41.845960 Z-0.125000
G01 X126.766950 Y42.881190 Z-0.125000
G01 X126.685650 Y42.913690 Z-0.125000
G01 X126.647750 Y42.994990 Z-0.125000
G01 X126.729050 Y43.125070 Z-0.125000
G01 X126.929590 Y43.211770 Z-0.125000
G01 X126.967490 Y43.255170 Z-0.125000
G01 X127.043390 Y43.293070 Z-0.125000
G01 X127.146370 Y43.271370 Z-0.125000
G01 X127.205970 Y43.233470 Z-0.125000
G01 X127.514910 Y43.260570 Z-0.125000
G01 X128.176160 Y43.060030 Z-0.125000
G01 X128.636870 Y42.501760 Z-0.125000
G01 X128.804890 Y41.710430 Z-0.125000
G01 X128.804890 Y41.710450 Z-0.125000
G00 Z5.000000

(End cutting path id: path281752)


(Start cutting path id: path281752)
(Change tool to Default tool)

G00 Z5.000000
G00 X128.555570 Y41.699650

G01 Z-0.125000 F100.0(Penetrate)
G01 X128.409220 Y42.312120 Z-0.125000 F400.000000
G01 X128.029820 Y42.761990 Z-0.125000
G01 X127.536590 Y42.930010 Z-0.125000
G01 X127.205970 Y42.897510 Z-0.125000
G01 X127.092150 Y42.881210 Z-0.125000
G01 X126.701910 Y41.835140 Z-0.125000
G01 X126.566400 Y40.724020 Z-0.125000
G01 X126.696490 Y40.160340 Z-0.125000
G01 X127.119250 Y39.943540 Z-0.125000
G01 X127.785920 Y40.219960 Z-0.125000
G01 X128.338760 Y40.913730 Z-0.125000
G01 X128.555570 Y41.699630 Z-0.125000
G01 X128.555570 Y41.699650 Z-0.125000
G00 Z5.000000

(End cutting path id: path281752)


(Start cutting path id: path281750)
(Change tool to Default tool)

G00 Z5.000000
G00 X125.845620 Y41.602050

G01 Z-0.125000 F100.0(Penetrate)
G01 X125.683020 Y41.065470 Z-0.125000 F400.000000
G01 X125.195220 Y40.566820 Z-0.125000
G01 X124.398470 Y40.182000 Z-0.125000
G01 X124.474370 Y39.943520 Z-0.125000
G01 X124.550270 Y39.851420 Z-0.125000
G01 X124.609870 Y39.786420 Z-0.125000
G01 X124.544870 Y39.688820 Z-0.125000
G01 X124.420210 Y39.640020 Z-0.125000
G01 X124.246770 Y39.764680 Z-0.125000
G01 X124.176270 Y39.943550 Z-0.125000
G01 X124.143770 Y40.116990 Z-0.125000
G01 X124.105870 Y40.116990 Z-0.125000
G01 X124.024570 Y40.111990 Z-0.125000
G01 X123.661430 Y40.198710 Z-0.125000
G01 X123.385010 Y40.458870 Z-0.125000
G01 X123.157360 Y41.353180 Z-0.125000
G01 X123.249503 Y42.040175 Z-0.125000
G01 X123.525930 Y42.691940 Z-0.125000
G01 X123.962243 Y43.261042 Z-0.125000
G01 X124.523220 Y43.689230 Z-0.125000
G01 X124.620820 Y43.738030 Z-0.125000
G01 X124.712920 Y43.754330 Z-0.125000
G01 X124.815900 Y43.716430 Z-0.125000
G01 X124.864700 Y43.624230 Z-0.125000
G01 X124.723780 Y43.439950 Z-0.125000
G01 X124.119443 Y43.007702 Z-0.125000
G01 X123.715650 Y42.523960 Z-0.125000
G01 X123.492075 Y41.972473 Z-0.125000
G01 X123.417550 Y41.336970 Z-0.125000
G01 X123.585570 Y40.659460 Z-0.125000
G01 X123.809145 Y40.452145 Z-0.125000
G01 X124.143830 Y40.383040 Z-0.125000
G01 X124.366060 Y41.309870 Z-0.125000
G01 X124.799660 Y41.900660 Z-0.125000
G01 X125.347090 Y42.101200 Z-0.125000
G01 X125.715650 Y41.960280 Z-0.125000
G01 X125.845730 Y41.602550 Z-0.125000
G01 X125.845620 Y41.602050 Z-0.125000
G00 Z5.000000

(End cutting path id: path281750)


(Start cutting path id: path281750)
(Change tool to Default tool)

G00 Z5.000000
G00 X125.601720 Y41.553250

G01 Z-0.125000 F100.0(Penetrate)
G01 X125.533970 Y41.772767 Z-0.125000 F400.000000
G01 X125.330720 Y41.845940 Z-0.125000
G01 X125.006867 Y41.752442 Z-0.125000
G01 X124.729090 Y41.471950 Z-0.125000
G01 X124.393050 Y40.420460 Z-0.125000
G01 X124.994670 Y40.691460 Z-0.125000
G01 X125.433700 Y41.119650 Z-0.125000
G01 X125.601720 Y41.553250 Z-0.125000
G01 X125.601720 Y41.553250 Z-0.125000
G00 Z5.000000

(End cutting path id: path281750)


(Start cutting path id: path281748)
(Change tool to Default tool)

G00 Z5.000000
G00 X121.068770 Y40.518040

G01 Z-0.125000 F100.0(Penetrate)
G01 X121.003770 Y40.404220 Z-0.125000 F400.000000
G01 X120.857430 Y40.355420 Z-0.125000
G01 X119.925180 Y40.284920 Z-0.125000
G01 X119.280190 Y40.230720 Z-0.125000
G01 X118.944150 Y40.203620 Z-0.125000
G01 X118.862850 Y40.257820 Z-0.125000
G01 X118.830350 Y40.360800 Z-0.125000
G01 X118.852050 Y40.415000 Z-0.125000
G01 X118.906250 Y40.442100 Z-0.125000
G01 X118.949650 Y40.458400 Z-0.125000
G01 X118.954650 Y41.824260 Z-0.125000
G01 X118.889650 Y43.049190 Z-0.125000
G01 X118.830050 Y43.520730 Z-0.125000
G01 X118.884250 Y43.639970 Z-0.125000
G01 X119.003490 Y43.683370 Z-0.125000
G01 X119.063090 Y43.650870 Z-0.125000
G01 X119.095590 Y43.558770 Z-0.125000
G01 X119.176890 Y42.881270 Z-0.125000
G01 X119.209390 Y41.851460 Z-0.125000
G01 X119.204390 Y41.005930 Z-0.125000
G01 X119.199390 Y40.480180 Z-0.125000
G01 X119.470400 Y40.496480 Z-0.125000
G01 X119.882320 Y40.528980 Z-0.125000
G01 X120.592350 Y40.642800 Z-0.125000
G01 X120.977170 Y40.702400 Z-0.125000
G01 X121.053070 Y40.648200 Z-0.125000
G01 X121.069370 Y40.518120 Z-0.125000
G01 X121.068770 Y40.518040 Z-0.125000
G00 Z5.000000

(End cutting path id: path281748)


(Start cutting path id: path281746)
(Change tool to Default tool)

G00 Z5.000000
G00 X117.886610 Y43.574950

G01 Z-0.125000 F100.0(Penetrate)
G01 X117.783630 Y43.428610 Z-0.125000 F400.000000
G01 X117.480100 Y43.347310 Z-0.125000
G01 X116.916420 Y43.260610 Z-0.125000
G01 X116.363570 Y43.211810 Z-0.125000
G01 X116.320170 Y41.867640 Z-0.125000
G01 X116.287670 Y40.225360 Z-0.125000
G01 X117.057320 Y40.263260 Z-0.125000
G01 X117.507180 Y40.284960 Z-0.125000
G01 X117.680630 Y40.241560 Z-0.125000
G01 X117.761930 Y40.106060 Z-0.125000
G01 X117.734830 Y39.997660 Z-0.125000
G01 X117.631850 Y39.965160 Z-0.125000
G01 X117.452980 Y39.981460 Z-0.125000
G01 X117.268700 Y40.003160 Z-0.125000
G01 X116.249730 Y39.970660 Z-0.125000
G01 X116.184730 Y39.916460 Z-0.125000
G01 X116.125130 Y39.894760 Z-0.125000
G01 X116.060130 Y39.911060 Z-0.125000
G01 X116.022230 Y39.959860 Z-0.125000
G01 X115.778330 Y39.932760 Z-0.125000
G01 X115.149600 Y39.878560 Z-0.125000
G01 X114.878600 Y39.954460 Z-0.125000
G01 X114.829800 Y40.111640 Z-0.125000
G01 X114.862300 Y40.192940 Z-0.125000
G01 X114.938200 Y40.241740 Z-0.125000
G01 X115.019500 Y40.209240 Z-0.125000
G01 X115.160420 Y40.182140 Z-0.125000
G01 X115.751210 Y40.203840 Z-0.125000
G01 X116.000530 Y40.220140 Z-0.125000
G01 X116.033030 Y41.016890 Z-0.125000
G01 X116.043830 Y41.239110 Z-0.125000
G01 X116.048830 Y41.412550 Z-0.125000
G01 X116.103030 Y43.184910 Z-0.125000
G01 X115.566440 Y43.147010 Z-0.125000
G01 X114.916040 Y43.103610 Z-0.125000
G01 X114.742600 Y43.163210 Z-0.125000
G01 X114.661300 Y43.314970 Z-0.125000
G01 X114.693800 Y43.417950 Z-0.125000
G01 X114.791400 Y43.455850 Z-0.125000
G01 X114.878100 Y43.450850 Z-0.125000
G01 X114.964800 Y43.440050 Z-0.125000
G01 X115.224960 Y43.412950 Z-0.125000
G01 X115.680250 Y43.429250 Z-0.125000
G01 X116.130110 Y43.456350 Z-0.125000
G01 X116.178910 Y43.570170 Z-0.125000
G01 X116.292730 Y43.618970 Z-0.125000
G01 X116.346930 Y43.575570 Z-0.125000
G01 X116.368630 Y43.477970 Z-0.125000
G01 X117.501420 Y43.618890 Z-0.125000
G01 X117.642350 Y43.678490 Z-0.125000
G01 X117.734450 Y43.727290 Z-0.125000
G01 X117.837430 Y43.683890 Z-0.125000
G01 X117.886230 Y43.575480 Z-0.125000
G01 X117.886610 Y43.574950 Z-0.125000
G00 Z5.000000

(End cutting path id: path281746)


(Start cutting path id: path281708)
(Change tool to Default tool)

G00 Z5.000000
G00 X121.028800 Y46.971460

G01 Z-0.125000 F100.0(Penetrate)
G01 X120.980000 Y46.890160 Z-0.125000 F400.000000
G01 X120.877020 Y46.863060 Z-0.125000
G01 X120.763200 Y47.106960 Z-0.125000
G01 X120.692700 Y48.012110 Z-0.125000
G01 X120.654800 Y48.868480 Z-0.125000
G01 X120.633100 Y49.518880 Z-0.125000
G01 X120.649400 Y49.605580 Z-0.125000
G01 X120.725300 Y49.638080 Z-0.125000
G01 X120.882480 Y49.535100 Z-0.125000
G01 X120.914980 Y49.139440 Z-0.125000
G01 X120.909980 Y48.499870 Z-0.125000
G01 X120.942480 Y47.621820 Z-0.125000
G01 X120.991280 Y47.274940 Z-0.125000
G01 X121.029180 Y46.971420 Z-0.125000
G01 X121.028800 Y46.971460 Z-0.125000
G00 Z5.000000

(End cutting path id: path281708)


(Start cutting path id: path281710)
(Change tool to Default tool)

G00 Z5.000000
G00 X122.246960 Y47.134060

G01 Z-0.125000 F100.0(Penetrate)
G01 X122.176460 Y47.047360 Z-0.125000 F400.000000
G01 X122.019280 Y47.014860 Z-0.125000
G01 X121.894610 Y47.166620 Z-0.125000
G01 X121.840410 Y47.638160 Z-0.125000
G01 X121.856710 Y49.117840 Z-0.125000
G01 X121.883810 Y50.424070 Z-0.125000
G01 X121.938010 Y50.716760 Z-0.125000
G01 X122.122290 Y50.852260 Z-0.125000
G01 X122.176490 Y50.803460 Z-0.125000
G01 X122.192790 Y50.630010 Z-0.125000
G01 X122.187790 Y50.592110 Z-0.125000
G01 X122.187790 Y50.489130 Z-0.125000
G01 X122.090190 Y47.708640 Z-0.125000
G01 X122.166090 Y47.340080 Z-0.125000
G01 X122.247390 Y47.134120 Z-0.125000
G01 X122.246960 Y47.134060 Z-0.125000
G00 Z5.000000

(End cutting path id: path281710)


(Start cutting path id: path281712)
(Change tool to Default tool)

G00 Z5.000000
G00 X123.326730 Y47.134060

G01 Z-0.125000 F100.0(Penetrate)
G01 X123.256230 Y47.047360 Z-0.125000 F400.000000
G01 X123.099050 Y47.014860 Z-0.125000
G01 X122.974390 Y47.166620 Z-0.125000
G01 X122.920190 Y47.638160 Z-0.125000
G01 X122.936490 Y49.117840 Z-0.125000
G01 X122.963590 Y50.424070 Z-0.125000
G01 X123.017790 Y50.716760 Z-0.125000
G01 X123.202070 Y50.852260 Z-0.125000
G01 X123.256270 Y50.803460 Z-0.125000
G01 X123.272570 Y50.630010 Z-0.125000
G01 X123.267570 Y50.592110 Z-0.125000
G01 X123.267570 Y50.489130 Z-0.125000
G01 X123.169970 Y47.708640 Z-0.125000
G01 X123.245870 Y47.340080 Z-0.125000
G01 X123.327170 Y47.134120 Z-0.125000
G01 X123.326730 Y47.134060 Z-0.125000
G00 Z5.000000

(End cutting path id: path281712)


(Start cutting path id: path281714)
(Change tool to Default tool)

G00 Z5.000000
G00 X124.211390 Y47.237000

G01 Z-0.125000 F100.0(Penetrate)
G01 X124.775080 Y47.453800 Z-0.125000 F400.000000
G01 X125.257460 Y47.968710 Z-0.125000
G01 X125.734430 Y48.711250 Z-0.125000
G01 X125.799430 Y49.063560 Z-0.125000
G01 X125.728930 Y49.258680 Z-0.125000
G01 X125.550060 Y49.345380 Z-0.125000
G01 X125.203180 Y49.161100 Z-0.125000
G01 X124.688270 Y48.608250 Z-0.125000
G01 X124.238410 Y47.930750 Z-0.125000
G01 X124.059550 Y47.399580 Z-0.125000
G01 X124.211310 Y47.236980 Z-0.125000
G01 X124.211390 Y47.237000 Z-0.125000
G00 Z5.000000

(End cutting path id: path281714)


(Start cutting path id: path281714)
(Change tool to Default tool)

G00 Z5.000000
G00 X126.124670 Y47.334600

G01 Z-0.125000 F100.0(Penetrate)
G01 X126.168070 Y47.253300 Z-0.125000 F400.000000
G01 X126.205970 Y47.188300 Z-0.125000
G01 X126.151770 Y47.036540 Z-0.125000
G01 X126.043370 Y46.955240 Z-0.125000
G01 X125.902450 Y47.069060 Z-0.125000
G01 X125.853650 Y47.334640 Z-0.125000
G01 X125.869950 Y48.115130 Z-0.125000
G01 X125.874950 Y48.321090 Z-0.125000
G01 X125.809950 Y48.499950 Z-0.125000
G01 X125.354660 Y47.784500 Z-0.125000
G01 X124.818080 Y47.209980 Z-0.125000
G01 X124.135150 Y46.944400 Z-0.125000
G01 X123.864150 Y47.052800 Z-0.125000
G01 X123.772050 Y47.334640 Z-0.125000
G01 X123.967170 Y47.925430 Z-0.125000
G01 X124.465810 Y48.689650 Z-0.125000
G01 X125.072860 Y49.329220 Z-0.125000
G01 X125.392640 Y49.546020 Z-0.125000
G01 X125.604020 Y49.605620 Z-0.125000
G01 X125.782890 Y49.551420 Z-0.125000
G01 X125.940070 Y49.399660 Z-0.125000
G01 X126.005070 Y49.177440 Z-0.125000
G01 X125.912970 Y48.857660 Z-0.125000
G01 X126.005070 Y48.884760 Z-0.125000
G01 X126.075570 Y48.738410 Z-0.125000
G01 X126.086370 Y48.386110 Z-0.125000
G01 X126.102670 Y47.947090 Z-0.125000
G01 X126.113470 Y47.600200 Z-0.125000
G01 X126.124270 Y47.334620 Z-0.125000
G01 X126.124670 Y47.334600 Z-0.125000
G00 Z5.000000

(End cutting path id: path281714)


(Start cutting path id: path281716)
(Change tool to Default tool)

G00 Z5.000000
G00 X130.169640 Y47.041920

G01 Z-0.125000 F100.0(Penetrate)
G01 X130.126240 Y46.933520 Z-0.125000 F400.000000
G01 X130.012420 Y46.884720 Z-0.125000
G01 X129.914820 Y46.982320 Z-0.125000
G01 X129.844320 Y48.657110 Z-0.125000
G01 X129.748095 Y49.096137 Z-0.125000
G01 X129.600420 Y49.242480 Z-0.125000
G01 X129.239982 Y48.731640 Z-0.125000
G01 X128.744050 Y47.199120 Z-0.125000
G01 X128.744050 Y47.194120 Z-0.125000
G01 X128.700650 Y47.080300 Z-0.125000
G01 X128.586830 Y47.036900 Z-0.125000
G01 X128.489230 Y47.134500 Z-0.125000
G01 X128.510930 Y47.806590 Z-0.125000
G01 X128.532630 Y48.608750 Z-0.125000
G01 X128.505530 Y49.183280 Z-0.125000
G01 X128.402550 Y49.356720 Z-0.125000
G01 X128.193880 Y49.187342 Z-0.125000
G01 X127.936430 Y48.679210 Z-0.125000
G01 X127.345640 Y47.091140 Z-0.125000
G01 X127.296840 Y46.950220 Z-0.125000
G01 X127.231840 Y46.858120 Z-0.125000
G01 X127.145140 Y46.820220 Z-0.125000
G01 X127.058440 Y46.831020 Z-0.125000
G01 X127.031340 Y46.896020 Z-0.125000
G01 X126.987940 Y47.606040 Z-0.125000
G01 X126.966240 Y47.980030 Z-0.125000
G01 X126.868640 Y49.215800 Z-0.125000
G01 X126.825240 Y49.578940 Z-0.125000
G01 X126.868640 Y49.681920 Z-0.125000
G01 X126.949940 Y49.741520 Z-0.125000
G01 X127.090860 Y49.616850 Z-0.125000
G01 X127.150460 Y49.139890 Z-0.125000
G01 X127.204660 Y48.104660 Z-0.125000
G01 X127.231760 Y47.275390 Z-0.125000
G01 X127.849650 Y48.944770 Z-0.125000
G01 X128.155880 Y49.509805 Z-0.125000
G01 X128.435010 Y49.698150 Z-0.125000
G01 X128.678920 Y49.437990 Z-0.125000
G01 X128.743920 Y48.684600 Z-0.125000
G01 X128.733120 Y47.936640 Z-0.125000
G01 X128.728120 Y47.687310 Z-0.125000
G01 X129.167140 Y48.988130 Z-0.125000
G01 X129.389363 Y49.382435 Z-0.125000
G01 X129.611590 Y49.513870 Z-0.125000
G01 X129.855829 Y49.359399 Z-0.125000
G01 X130.030285 Y48.895985 Z-0.125000
G01 X130.169850 Y47.042330 Z-0.125000
G01 X130.169640 Y47.041920 Z-0.125000
G00 Z5.000000

(End cutting path id: path281716)


(Start cutting path id: path281718)
(Change tool to Default tool)

G00 Z5.000000
G00 X132.852820 Y48.369830

G01 Z-0.125000 F100.0(Penetrate)
G01 X132.890720 Y48.288530 Z-0.125000 F400.000000
G01 X132.744380 Y47.860350 Z-0.125000
G01 X132.310780 Y47.247880 Z-0.125000
G01 X131.989637 Y47.036500 Z-0.125000
G01 X131.600750 Y46.966040 Z-0.125000
G01 X131.020800 Y47.182840 Z-0.125000
G01 X130.787740 Y47.849510 Z-0.125000
G01 X130.982860 Y48.684190 Z-0.125000
G01 X131.492350 Y49.361700 Z-0.125000
G01 X132.142760 Y49.627280 Z-0.125000
G01 X132.478800 Y49.535180 Z-0.125000
G01 X132.619720 Y49.280440 Z-0.125000
G01 X132.402920 Y48.911880 Z-0.125000
G01 X131.850070 Y48.597510 Z-0.125000
G01 X131.145460 Y48.402390 Z-0.125000
G01 X131.080460 Y47.914590 Z-0.125000
G01 X131.226810 Y47.426780 Z-0.125000
G01 X131.654990 Y47.253340 Z-0.125000
G01 X132.033038 Y47.327865 Z-0.125000
G01 X132.332500 Y47.551440 Z-0.125000
G01 X132.766100 Y48.223530 Z-0.125000
G01 X132.804000 Y48.304830 Z-0.125000
G01 X132.852800 Y48.369830 Z-0.125000
G01 X132.852820 Y48.369830 Z-0.125000
G00 Z5.000000

(End cutting path id: path281718)


(Start cutting path id: path281718)
(Change tool to Default tool)

G00 Z5.000000
G00 X132.375860 Y49.220780

G01 Z-0.125000 F100.0(Penetrate)
G01 X132.283760 Y49.356280 Z-0.125000 F400.000000
G01 X132.077790 Y49.405080 Z-0.125000
G01 X131.682130 Y49.269580 Z-0.125000
G01 X131.362350 Y48.944380 Z-0.125000
G01 X131.199750 Y48.608330 Z-0.125000
G01 X131.725490 Y48.749250 Z-0.125000
G01 X132.186200 Y48.998580 Z-0.125000
G01 X132.375900 Y49.220800 Z-0.125000
G01 X132.375860 Y49.220780 Z-0.125000
G00 Z5.000000

(End cutting path id: path281718)


(Start cutting path id: path281720)
(Change tool to Default tool)

G00 Z5.000000
G00 X135.724610 Y49.231620

G01 Z-0.125000 F100.0(Penetrate)
G01 X135.643310 Y49.090700 Z-0.125000 F400.000000
G01 X135.361460 Y49.014800 Z-0.125000
G01 X134.803200 Y48.917200 Z-0.125000
G01 X134.450890 Y48.857600 Z-0.125000
G01 X134.455890 Y48.266810 Z-0.125000
G01 X134.482990 Y47.724800 Z-0.125000
G01 X134.558890 Y47.242420 Z-0.125000
G01 X134.618490 Y47.052720 Z-0.125000
G01 X134.547990 Y46.955120 Z-0.125000
G01 X134.423320 Y46.906320 Z-0.125000
G01 X134.369120 Y46.928020 Z-0.125000
G01 X134.331220 Y46.987620 Z-0.125000
G01 X134.266220 Y47.269460 Z-0.125000
G01 X134.222820 Y47.724740 Z-0.125000
G01 X134.195720 Y48.239650 Z-0.125000
G01 X134.190720 Y48.814180 Z-0.125000
G01 X133.567420 Y48.694930 Z-0.125000
G01 X133.225950 Y48.635330 Z-0.125000
G01 X133.101290 Y48.673230 Z-0.125000
G01 X133.047090 Y48.776220 Z-0.125000
G01 X133.095890 Y48.868320 Z-0.125000
G01 X133.258490 Y48.890020 Z-0.125000
G01 X133.496970 Y48.917120 Z-0.125000
G01 X133.697520 Y48.960520 Z-0.125000
G01 X134.190740 Y49.052620 Z-0.125000
G01 X134.179940 Y49.350720 Z-0.125000
G01 X134.169140 Y49.730130 Z-0.125000
G01 X134.179940 Y50.055330 Z-0.125000
G01 X134.234140 Y50.266710 Z-0.125000
G01 X134.396740 Y50.375110 Z-0.125000
G01 X134.461740 Y50.358810 Z-0.125000
G01 X134.478040 Y50.299210 Z-0.125000
G01 X134.450940 Y50.109510 Z-0.125000
G01 X134.423840 Y49.692160 Z-0.125000
G01 X134.434640 Y49.242300 Z-0.125000
G01 X134.439640 Y49.095960 Z-0.125000
G01 X135.404410 Y49.296500 Z-0.125000
G01 X135.474910 Y49.372400 Z-0.125000
G01 X135.539910 Y49.437400 Z-0.125000
G01 X135.659150 Y49.366900 Z-0.125000
G01 X135.724150 Y49.231400 Z-0.125000
G01 X135.724610 Y49.231620 Z-0.125000
G00 Z5.000000

(End cutting path id: path281720)


(Start cutting path id: path281722)
(Change tool to Default tool)

G00 Z5.000000
G00 X137.573610 Y49.220780

G01 Z-0.125000 F100.0(Penetrate)
G01 X137.481510 Y49.356280 Z-0.125000 F400.000000
G01 X137.275540 Y49.405080 Z-0.125000
G01 X136.879880 Y49.269580 Z-0.125000
G01 X136.560100 Y48.944380 Z-0.125000
G01 X136.397500 Y48.608330 Z-0.125000
G01 X136.923240 Y48.749250 Z-0.125000
G01 X137.383950 Y48.998580 Z-0.125000
G01 X137.573650 Y49.220800 Z-0.125000
G01 X137.573610 Y49.220780 Z-0.125000
G00 Z5.000000

(End cutting path id: path281722)


(Start cutting path id: path281722)
(Change tool to Default tool)

G00 Z5.000000
G00 X138.050570 Y48.369830

G01 Z-0.125000 F100.0(Penetrate)
G01 X138.088470 Y48.288530 Z-0.125000 F400.000000
G01 X137.942130 Y47.860350 Z-0.125000
G01 X137.508530 Y47.247880 Z-0.125000
G01 X137.187387 Y47.036500 Z-0.125000
G01 X136.798500 Y46.966040 Z-0.125000
G01 X136.218550 Y47.182840 Z-0.125000
G01 X135.985490 Y47.849510 Z-0.125000
G01 X136.180610 Y48.684190 Z-0.125000
G01 X136.690100 Y49.361700 Z-0.125000
G01 X137.340510 Y49.627280 Z-0.125000
G01 X137.676550 Y49.535180 Z-0.125000
G01 X137.817470 Y49.280440 Z-0.125000
G01 X137.600670 Y48.911880 Z-0.125000
G01 X137.047820 Y48.597510 Z-0.125000
G01 X136.343210 Y48.402390 Z-0.125000
G01 X136.278210 Y47.914590 Z-0.125000
G01 X136.424560 Y47.426780 Z-0.125000
G01 X136.852740 Y47.253340 Z-0.125000
G01 X137.230787 Y47.327865 Z-0.125000
G01 X137.530250 Y47.551440 Z-0.125000
G01 X137.963850 Y48.223530 Z-0.125000
G01 X138.001750 Y48.304830 Z-0.125000
G01 X138.050550 Y48.369830 Z-0.125000
G01 X138.050570 Y48.369830 Z-0.125000
G00 Z5.000000

(End cutting path id: path281722)


(Start cutting path id: path281724)
(Change tool to Default tool)

G00 Z5.000000
G00 X142.570650 Y47.936230

G01 Z-0.125000 F100.0(Penetrate)
G01 X142.386370 Y47.399640 Z-0.125000 F400.000000
G01 X141.876880 Y46.976880 Z-0.125000
G01 X141.134330 Y46.808850 Z-0.125000
G01 X140.576070 Y46.868450 Z-0.125000
G01 X140.370100 Y47.025630 Z-0.125000
G01 X140.446000 Y47.204490 Z-0.125000
G01 X140.570660 Y47.334570 Z-0.125000
G01 X140.635660 Y47.307470 Z-0.125000
G01 X140.613960 Y47.269570 Z-0.125000
G01 X140.597660 Y47.226170 Z-0.125000
G01 X140.662660 Y47.177370 Z-0.125000
G01 X140.874040 Y47.117770 Z-0.125000
G01 X141.215500 Y47.090670 Z-0.125000
G01 X141.773770 Y47.215330 Z-0.125000
G01 X142.147750 Y47.529690 Z-0.125000
G01 X142.277830 Y47.898260 Z-0.125000
G01 X142.050190 Y48.299340 Z-0.125000
G01 X141.329320 Y48.619120 Z-0.125000
G01 X140.581360 Y48.879290 Z-0.125000
G01 X140.158590 Y49.139450 Z-0.125000
G01 X139.995990 Y49.518850 Z-0.125000
G01 X140.332030 Y50.104220 Z-0.125000
G01 X141.161300 Y50.575760 Z-0.125000
G01 X142.077290 Y50.760050 Z-0.125000
G01 X142.310350 Y50.673350 Z-0.125000
G01 X142.326650 Y50.478230 Z-0.125000
G01 X142.267050 Y50.396930 Z-0.125000
G01 X142.202050 Y50.413230 Z-0.125000
G01 X142.142450 Y50.445730 Z-0.125000
G01 X142.066550 Y50.467430 Z-0.125000
G01 X141.941890 Y50.478230 Z-0.125000
G01 X141.264380 Y50.331890 Z-0.125000
G01 X140.576040 Y49.968750 Z-0.125000
G01 X140.288770 Y49.551400 Z-0.125000
G01 X140.418860 Y49.269560 Z-0.125000
G01 X140.776580 Y49.063600 Z-0.125000
G01 X141.405310 Y48.857640 Z-0.125000
G01 X142.283350 Y48.467390 Z-0.125000
G01 X142.570620 Y47.936230 Z-0.125000
G01 X142.570650 Y47.936230 Z-0.125000
G00 Z5.000000

(End cutting path id: path281724)


(Start cutting path id: path281726)
(Change tool to Default tool)

G00 Z5.000000
G00 X145.463770 Y49.231620

G01 Z-0.125000 F100.0(Penetrate)
G01 X145.382470 Y49.090700 Z-0.125000 F400.000000
G01 X145.100630 Y49.014800 Z-0.125000
G01 X144.542360 Y48.917200 Z-0.125000
G01 X144.190060 Y48.857600 Z-0.125000
G01 X144.195060 Y48.266810 Z-0.125000
G01 X144.222160 Y47.724800 Z-0.125000
G01 X144.298060 Y47.242420 Z-0.125000
G01 X144.357660 Y47.052720 Z-0.125000
G01 X144.287160 Y46.955120 Z-0.125000
G01 X144.162500 Y46.906320 Z-0.125000
G01 X144.108300 Y46.928020 Z-0.125000
G01 X144.070400 Y46.987620 Z-0.125000
G01 X144.005400 Y47.269460 Z-0.125000
G01 X143.962000 Y47.724740 Z-0.125000
G01 X143.934900 Y48.239650 Z-0.125000
G01 X143.929900 Y48.814180 Z-0.125000
G01 X143.306600 Y48.694930 Z-0.125000
G01 X142.965130 Y48.635330 Z-0.125000
G01 X142.840470 Y48.673230 Z-0.125000
G01 X142.786270 Y48.776220 Z-0.125000
G01 X142.835070 Y48.868320 Z-0.125000
G01 X142.997670 Y48.890020 Z-0.125000
G01 X143.236160 Y48.917120 Z-0.125000
G01 X143.436700 Y48.960520 Z-0.125000
G01 X143.929920 Y49.052620 Z-0.125000
G01 X143.919120 Y49.350720 Z-0.125000
G01 X143.908320 Y49.730130 Z-0.125000
G01 X143.919120 Y50.055330 Z-0.125000
G01 X143.973320 Y50.266710 Z-0.125000
G01 X144.135930 Y50.375110 Z-0.125000
G01 X144.200930 Y50.358810 Z-0.125000
G01 X144.217230 Y50.299210 Z-0.125000
G01 X144.190130 Y50.109510 Z-0.125000
G01 X144.163030 Y49.692160 Z-0.125000
G01 X144.173830 Y49.242300 Z-0.125000
G01 X144.178830 Y49.095960 Z-0.125000
G01 X145.143600 Y49.296500 Z-0.125000
G01 X145.214100 Y49.372400 Z-0.125000
G01 X145.279100 Y49.437400 Z-0.125000
G01 X145.398340 Y49.366900 Z-0.125000
G01 X145.463340 Y49.231400 Z-0.125000
G01 X145.463770 Y49.231620 Z-0.125000
G00 Z5.000000

(End cutting path id: path281726)


(Start cutting path id: path281728)
(Change tool to Default tool)

G00 Z5.000000
G00 X146.396780 Y46.933520

G01 Z-0.125000 F100.0(Penetrate)
G01 X146.217920 Y46.852220 Z-0.125000 F400.000000
G01 X146.028220 Y46.971460 Z-0.125000
G01 X145.892720 Y47.226200 Z-0.125000
G01 X145.843920 Y47.415900 Z-0.125000
G01 X145.898120 Y47.529720 Z-0.125000
G01 X146.017360 Y47.583920 Z-0.125000
G01 X146.076960 Y47.551420 Z-0.125000
G01 X146.141960 Y47.453820 Z-0.125000
G01 X146.234060 Y47.329160 Z-0.125000
G01 X146.347880 Y47.128620 Z-0.125000
G01 X146.396680 Y46.933500 Z-0.125000
G01 X146.396780 Y46.933520 Z-0.125000
G00 Z5.000000

(End cutting path id: path281728)


(Start cutting path id: path281692)
(Change tool to Default tool)

G00 Z5.000000
G00 X139.533470 Y53.820530

G01 Z-0.125000 F100.0(Penetrate)
G01 X139.479270 Y53.712130 Z-0.125000 F400.000000
G01 X139.349180 Y53.663330 Z-0.125000
G01 X139.257080 Y53.690430 Z-0.125000
G01 X139.219180 Y53.755430 Z-0.125000
G01 X139.251680 Y54.443780 Z-0.125000
G01 X139.284180 Y55.273050 Z-0.125000
G01 X139.262480 Y55.793370 Z-0.125000
G01 X139.175780 Y55.999340 Z-0.125000
G01 X138.769280 Y55.538630 Z-0.125000
G01 X138.270630 Y54.335380 Z-0.125000
G01 X138.189330 Y54.118580 Z-0.125000
G01 X138.113430 Y54.031880 Z-0.125000
G01 X138.010450 Y53.999380 Z-0.125000
G01 X137.923750 Y54.010180 Z-0.125000
G01 X137.896650 Y54.075180 Z-0.125000
G01 X137.853250 Y54.519620 Z-0.125000
G01 X137.771950 Y55.300110 Z-0.125000
G01 X137.679850 Y56.113120 Z-0.125000
G01 X137.663550 Y56.237780 Z-0.125000
G01 X137.734050 Y56.367860 Z-0.125000
G01 X137.896650 Y56.422060 Z-0.125000
G01 X137.972550 Y56.161900 Z-0.125000
G01 X138.026750 Y55.321790 Z-0.125000
G01 X138.048450 Y55.034530 Z-0.125000
G01 X138.097250 Y54.340760 Z-0.125000
G01 X138.124350 Y54.411260 Z-0.125000
G01 X138.162250 Y54.503360 Z-0.125000
G01 X138.709680 Y55.766230 Z-0.125000
G01 X138.964420 Y56.148347 Z-0.125000
G01 X139.208320 Y56.275720 Z-0.125000
G01 X139.435970 Y55.988460 Z-0.125000
G01 X139.517270 Y55.262170 Z-0.125000
G01 X139.533570 Y53.820430 Z-0.125000
G01 X139.533470 Y53.820530 Z-0.125000
G00 Z5.000000

(End cutting path id: path281692)


(Start cutting path id: path281690)
(Change tool to Default tool)

G00 Z5.000000
G00 X137.236800 Y54.980430

G01 Z-0.125000 F100.0(Penetrate)
G01 X137.079620 Y54.492620 Z-0.125000 F400.000000
G01 X136.635180 Y54.015660 Z-0.125000
G01 X135.979350 Y53.820530 Z-0.125000
G01 X135.442760 Y54.021080 Z-0.125000
G01 X135.269320 Y54.519720 Z-0.125000
G01 X135.361420 Y55.164710 Z-0.125000
G01 X135.632430 Y55.853060 Z-0.125000
G01 X135.719130 Y56.010240 Z-0.125000
G01 X135.897990 Y56.221620 Z-0.125000
G01 X136.103950 Y56.297520 Z-0.125000
G01 X136.190650 Y56.270420 Z-0.125000
G01 X136.234050 Y56.210820 Z-0.125000
G01 X136.201550 Y56.156620 Z-0.125000
G01 X136.158150 Y56.097020 Z-0.125000
G01 X135.860050 Y55.657990 Z-0.125000
G01 X135.621570 Y55.110570 Z-0.125000
G01 X135.540270 Y54.519780 Z-0.125000
G01 X135.670350 Y54.198645 Z-0.125000
G01 X136.060590 Y54.091600 Z-0.125000
G01 X136.510460 Y54.232520 Z-0.125000
G01 X136.846500 Y54.573980 Z-0.125000
G01 X136.971160 Y54.947970 Z-0.125000
G01 X136.846500 Y55.278590 Z-0.125000
G01 X136.505040 Y55.576690 Z-0.125000
G01 X136.299070 Y55.744710 Z-0.125000
G01 X136.234070 Y55.853120 Z-0.125000
G01 X136.326170 Y55.956100 Z-0.125000
G01 X136.542980 Y55.999500 Z-0.125000
G01 X136.635080 Y55.988700 Z-0.125000
G01 X136.656780 Y55.961600 Z-0.125000
G01 X136.635080 Y55.923700 Z-0.125000
G01 X136.618780 Y55.885800 Z-0.125000
G01 X136.727180 Y55.777390 Z-0.125000
G01 X137.090320 Y55.414250 Z-0.125000
G01 X137.236660 Y54.980650 Z-0.125000
G01 X137.236800 Y54.980430 Z-0.125000
G00 Z5.000000

(End cutting path id: path281690)


(Start cutting path id: path281688)
(Change tool to Default tool)

G00 Z5.000000
G00 X135.078860 Y56.102380

G01 Z-0.125000 F100.0(Penetrate)
G01 X134.997560 Y55.961460 Z-0.125000 F400.000000
G01 X134.715710 Y55.885560 Z-0.125000
G01 X134.157450 Y55.787960 Z-0.125000
G01 X133.805140 Y55.728360 Z-0.125000
G01 X133.810140 Y55.137580 Z-0.125000
G01 X133.837240 Y54.595570 Z-0.125000
G01 X133.913140 Y54.113190 Z-0.125000
G01 X133.972740 Y53.923490 Z-0.125000
G01 X133.902240 Y53.825890 Z-0.125000
G01 X133.777580 Y53.777090 Z-0.125000
G01 X133.723380 Y53.798790 Z-0.125000
G01 X133.685480 Y53.858390 Z-0.125000
G01 X133.620480 Y54.140240 Z-0.125000
G01 X133.577080 Y54.595520 Z-0.125000
G01 X133.549980 Y55.110430 Z-0.125000
G01 X133.544980 Y55.684950 Z-0.125000
G01 X132.921670 Y55.565710 Z-0.125000
G01 X132.580210 Y55.506110 Z-0.125000
G01 X132.455550 Y55.544010 Z-0.125000
G01 X132.401350 Y55.646990 Z-0.125000
G01 X132.450150 Y55.739090 Z-0.125000
G01 X132.612750 Y55.760790 Z-0.125000
G01 X132.851230 Y55.787890 Z-0.125000
G01 X133.051770 Y55.831290 Z-0.125000
G01 X133.545000 Y55.923390 Z-0.125000
G01 X133.534200 Y56.221490 Z-0.125000
G01 X133.523400 Y56.600890 Z-0.125000
G01 X133.534200 Y56.926100 Z-0.125000
G01 X133.588400 Y57.137480 Z-0.125000
G01 X133.751000 Y57.245880 Z-0.125000
G01 X133.816000 Y57.229580 Z-0.125000
G01 X133.832300 Y57.169980 Z-0.125000
G01 X133.805200 Y56.980280 Z-0.125000
G01 X133.778100 Y56.562930 Z-0.125000
G01 X133.788900 Y56.113070 Z-0.125000
G01 X133.793900 Y55.966730 Z-0.125000
G01 X134.758670 Y56.167270 Z-0.125000
G01 X134.829170 Y56.243170 Z-0.125000
G01 X134.894170 Y56.308170 Z-0.125000
G01 X135.013420 Y56.237670 Z-0.125000
G01 X135.078420 Y56.102170 Z-0.125000
G01 X135.078860 Y56.102380 Z-0.125000
G00 Z5.000000

(End cutting path id: path281688)


(Start cutting path id: path281686)
(Change tool to Default tool)

G00 Z5.000000
G00 X132.292610 Y56.140320

G01 Z-0.125000 F100.0(Penetrate)
G01 X132.222110 Y56.026500 Z-0.125000 F400.000000
G01 X132.108290 Y55.966900 Z-0.125000
G01 X132.032390 Y55.999400 Z-0.125000
G01 X131.956490 Y56.091500 Z-0.125000
G01 X131.853510 Y56.183600 Z-0.125000
G01 X131.728840 Y56.221500 Z-0.125000
G01 X131.306080 Y55.804150 Z-0.125000
G01 X130.785750 Y54.763500 Z-0.125000
G01 X130.802050 Y54.449140 Z-0.125000
G01 X130.823750 Y54.167300 Z-0.125000
G01 X130.840050 Y53.950500 Z-0.125000
G01 X130.807550 Y53.820410 Z-0.125000
G01 X130.688300 Y53.760810 Z-0.125000
G01 X130.569060 Y54.004720 Z-0.125000
G01 X130.536560 Y54.725580 Z-0.125000
G01 X130.525760 Y55.067050 Z-0.125000
G01 X130.514960 Y55.598210 Z-0.125000
G01 X130.498660 Y56.264880 Z-0.125000
G01 X130.650420 Y56.389540 Z-0.125000
G01 X130.758820 Y56.308240 Z-0.125000
G01 X130.780520 Y56.010140 Z-0.125000
G01 X130.780520 Y55.148350 Z-0.125000
G01 X131.132830 Y55.869220 Z-0.125000
G01 X131.501390 Y56.329920 Z-0.125000
G01 X131.826600 Y56.492520 Z-0.125000
G01 X132.054240 Y56.438320 Z-0.125000
G01 X132.227680 Y56.297400 Z-0.125000
G01 X132.292680 Y56.140220 Z-0.125000
G01 X132.292610 Y56.140320 Z-0.125000
G00 Z5.000000

(End cutting path id: path281686)


(Start cutting path id: path281684)
(Change tool to Default tool)

G00 Z5.000000
G00 X129.962830 Y55.240590

G01 Z-0.125000 F100.0(Penetrate)
G01 X130.000730 Y55.159290 Z-0.125000 F400.000000
G01 X129.854390 Y54.731100 Z-0.125000
G01 X129.420790 Y54.118640 Z-0.125000
G01 X129.099648 Y53.907252 Z-0.125000
G01 X128.710760 Y53.836790 Z-0.125000
G01 X128.130810 Y54.053600 Z-0.125000
G01 X127.897750 Y54.720260 Z-0.125000
G01 X128.092870 Y55.554950 Z-0.125000
G01 X128.602360 Y56.232460 Z-0.125000
G01 X129.252760 Y56.498040 Z-0.125000
G01 X129.588810 Y56.405940 Z-0.125000
G01 X129.729730 Y56.151200 Z-0.125000
G01 X129.512930 Y55.782630 Z-0.125000
G01 X128.960080 Y55.468270 Z-0.125000
G01 X128.255470 Y55.273150 Z-0.125000
G01 X128.190470 Y54.785340 Z-0.125000
G01 X128.336810 Y54.297540 Z-0.125000
G01 X128.765000 Y54.124100 Z-0.125000
G01 X129.143047 Y54.198625 Z-0.125000
G01 X129.442510 Y54.422200 Z-0.125000
G01 X129.876110 Y55.094290 Z-0.125000
G01 X129.914010 Y55.175590 Z-0.125000
G01 X129.962810 Y55.240590 Z-0.125000
G01 X129.962830 Y55.240590 Z-0.125000
G00 Z5.000000

(End cutting path id: path281684)


(Start cutting path id: path281684)
(Change tool to Default tool)

G00 Z5.000000
G00 X129.485870 Y56.091540

G01 Z-0.125000 F100.0(Penetrate)
G01 X129.393670 Y56.227040 Z-0.125000 F400.000000
G01 X129.187710 Y56.275840 Z-0.125000
G01 X128.792050 Y56.140340 Z-0.125000
G01 X128.472270 Y55.815140 Z-0.125000
G01 X128.309660 Y55.479090 Z-0.125000
G01 X128.835410 Y55.620010 Z-0.125000
G01 X129.296110 Y55.869340 Z-0.125000
G01 X129.485820 Y56.091560 Z-0.125000
G01 X129.485870 Y56.091540 Z-0.125000
G00 Z5.000000

(End cutting path id: path281684)


(Start cutting path id: path281682)
(Change tool to Default tool)

G00 Z5.000000
G00 X127.636870 Y56.102380

G01 Z-0.125000 F100.0(Penetrate)
G01 X127.555570 Y55.961460 Z-0.125000 F400.000000
G01 X127.273720 Y55.885560 Z-0.125000
G01 X126.715460 Y55.787960 Z-0.125000
G01 X126.363150 Y55.728360 Z-0.125000
G01 X126.368150 Y55.137580 Z-0.125000
G01 X126.395250 Y54.595570 Z-0.125000
G01 X126.471150 Y54.113190 Z-0.125000
G01 X126.530750 Y53.923490 Z-0.125000
G01 X126.460250 Y53.825890 Z-0.125000
G01 X126.335590 Y53.777090 Z-0.125000
G01 X126.281390 Y53.798790 Z-0.125000
G01 X126.243490 Y53.858390 Z-0.125000
G01 X126.178490 Y54.140240 Z-0.125000
G01 X126.135090 Y54.595520 Z-0.125000
G01 X126.107990 Y55.110430 Z-0.125000
G01 X126.102990 Y55.684950 Z-0.125000
G01 X125.479680 Y55.565710 Z-0.125000
G01 X125.138220 Y55.506110 Z-0.125000
G01 X125.013560 Y55.544010 Z-0.125000
G01 X124.959360 Y55.646990 Z-0.125000
G01 X125.008160 Y55.739090 Z-0.125000
G01 X125.170760 Y55.760790 Z-0.125000
G01 X125.409240 Y55.787890 Z-0.125000
G01 X125.609780 Y55.831290 Z-0.125000
G01 X126.103010 Y55.923390 Z-0.125000
G01 X126.092210 Y56.221490 Z-0.125000
G01 X126.081410 Y56.600890 Z-0.125000
G01 X126.092210 Y56.926100 Z-0.125000
G01 X126.146410 Y57.137480 Z-0.125000
G01 X126.309010 Y57.245880 Z-0.125000
G01 X126.374010 Y57.229580 Z-0.125000
G01 X126.390310 Y57.169980 Z-0.125000
G01 X126.363210 Y56.980280 Z-0.125000
G01 X126.336110 Y56.562930 Z-0.125000
G01 X126.346910 Y56.113070 Z-0.125000
G01 X126.351910 Y55.966730 Z-0.125000
G01 X127.316680 Y56.167270 Z-0.125000
G01 X127.387180 Y56.243170 Z-0.125000
G01 X127.452180 Y56.308170 Z-0.125000
G01 X127.571430 Y56.237670 Z-0.125000
G01 X127.636430 Y56.102170 Z-0.125000
G01 X127.636870 Y56.102380 Z-0.125000
G00 Z5.000000

(End cutting path id: path281682)


(Start cutting path id: path281680)
(Change tool to Default tool)

G00 Z5.000000
G00 X124.773380 Y54.617280

G01 Z-0.125000 F100.0(Penetrate)
G01 X124.578260 Y54.156580 Z-0.125000 F400.000000
G01 X124.074200 Y53.809690 Z-0.125000
G01 X123.418370 Y53.674190 Z-0.125000
G01 X123.104010 Y53.717590 Z-0.125000
G01 X123.022710 Y53.836830 Z-0.125000
G01 X123.147370 Y54.004860 Z-0.125000
G01 X123.315390 Y54.129520 Z-0.125000
G01 X123.380390 Y54.102420 Z-0.125000
G01 X123.353290 Y54.059020 Z-0.125000
G01 X123.326190 Y54.021120 Z-0.125000
G01 X123.391190 Y53.977720 Z-0.125000
G01 X123.559210 Y53.956020 Z-0.125000
G01 X124.014500 Y54.037320 Z-0.125000
G01 X124.393900 Y54.259540 Z-0.125000
G01 X124.540240 Y54.546800 Z-0.125000
G01 X124.448140 Y54.779860 Z-0.125000
G01 X124.215080 Y54.904530 Z-0.125000
G01 X123.754370 Y55.023770 Z-0.125000
G01 X123.196110 Y55.164690 Z-0.125000
G01 X122.881740 Y55.321870 Z-0.125000
G01 X122.762500 Y55.565770 Z-0.125000
G01 X123.017250 Y56.042740 Z-0.125000
G01 X123.602610 Y56.384200 Z-0.125000
G01 X124.112100 Y56.508860 Z-0.125000
G01 X124.296380 Y56.400460 Z-0.125000
G01 X124.252980 Y56.254120 Z-0.125000
G01 X124.122900 Y56.178220 Z-0.125000
G01 X124.052400 Y56.199920 Z-0.125000
G01 X123.976500 Y56.227020 Z-0.125000
G01 X123.635030 Y56.156520 Z-0.125000
G01 X123.212270 Y55.945140 Z-0.125000
G01 X123.022570 Y55.603670 Z-0.125000
G01 X123.168910 Y55.408550 Z-0.125000
G01 X123.727170 Y55.256790 Z-0.125000
G01 X123.824770 Y55.229690 Z-0.125000
G01 X123.911470 Y55.213390 Z-0.125000
G01 X124.551040 Y54.991170 Z-0.125000
G01 X124.773260 Y54.617180 Z-0.125000
G01 X124.773380 Y54.617280 Z-0.125000
G00 Z5.000000

(End cutting path id: path281680)


(Start cutting path id: path281678)
(Change tool to Default tool)

G00 Z5.000000
G00 X122.351460 Y55.240590

G01 Z-0.125000 F100.0(Penetrate)
G01 X122.389360 Y55.159290 Z-0.125000 F400.000000
G01 X122.243020 Y54.731100 Z-0.125000
G01 X121.809420 Y54.118640 Z-0.125000
G01 X121.488282 Y53.907252 Z-0.125000
G01 X121.099390 Y53.836790 Z-0.125000
G01 X120.519450 Y54.053600 Z-0.125000
G01 X120.286380 Y54.720260 Z-0.125000
G01 X120.481510 Y55.554950 Z-0.125000
G01 X120.990990 Y56.232460 Z-0.125000
G01 X121.641400 Y56.498040 Z-0.125000
G01 X121.977440 Y56.405940 Z-0.125000
G01 X122.118360 Y56.151200 Z-0.125000
G01 X121.901560 Y55.782630 Z-0.125000
G01 X121.348710 Y55.468270 Z-0.125000
G01 X120.644110 Y55.273150 Z-0.125000
G01 X120.579110 Y54.785340 Z-0.125000
G01 X120.725450 Y54.297540 Z-0.125000
G01 X121.153630 Y54.124100 Z-0.125000
G01 X121.531683 Y54.198625 Z-0.125000
G01 X121.831140 Y54.422200 Z-0.125000
G01 X122.264740 Y55.094290 Z-0.125000
G01 X122.302640 Y55.175590 Z-0.125000
G01 X122.351440 Y55.240590 Z-0.125000
G01 X122.351460 Y55.240590 Z-0.125000
G00 Z5.000000

(End cutting path id: path281678)


(Start cutting path id: path281678)
(Change tool to Default tool)

G00 Z5.000000
G00 X121.874500 Y56.091540

G01 Z-0.125000 F100.0(Penetrate)
G01 X121.782400 Y56.227040 Z-0.125000 F400.000000
G01 X121.576440 Y56.275840 Z-0.125000
G01 X121.180770 Y56.140340 Z-0.125000
G01 X120.860990 Y55.815140 Z-0.125000
G01 X120.698390 Y55.479090 Z-0.125000
G01 X121.224130 Y55.620010 Z-0.125000
G01 X121.684840 Y55.869340 Z-0.125000
G01 X121.874540 Y56.091560 Z-0.125000
G01 X121.874500 Y56.091540 Z-0.125000
G00 Z5.000000

(End cutting path id: path281678)


(Start cutting path id: path281676)
(Change tool to Default tool)

G00 Z5.000000
G00 X119.917440 Y57.170130

G01 Z-0.125000 F100.0(Penetrate)
G01 X119.879540 Y57.078030 Z-0.125000 F400.000000
G01 X119.781940 Y57.034630 Z-0.125000
G01 X119.668120 Y57.061730 Z-0.125000
G01 X119.494680 Y57.094230 Z-0.125000
G01 X118.903890 Y57.067130 Z-0.125000
G01 X118.356470 Y56.991230 Z-0.125000
G01 X118.383570 Y56.167380 Z-0.125000
G01 X118.399870 Y54.991230 Z-0.125000
G01 X118.389070 Y54.411280 Z-0.125000
G01 X118.367370 Y54.015620 Z-0.125000
G01 X118.291470 Y53.918020 Z-0.125000
G01 X118.166810 Y53.880020 Z-0.125000
G01 X118.101810 Y53.912520 Z-0.125000
G01 X118.074710 Y53.988420 Z-0.125000
G01 X118.079710 Y54.178120 Z-0.125000
G01 X118.112210 Y55.218770 Z-0.125000
G01 X118.101410 Y56.232320 Z-0.125000
G01 X118.079710 Y56.942350 Z-0.125000
G01 X116.632550 Y56.720120 Z-0.125000
G01 X116.486210 Y56.698420 Z-0.125000
G01 X116.296510 Y56.768920 Z-0.125000
G01 X116.204410 Y56.920690 Z-0.125000
G01 X116.236910 Y56.996590 Z-0.125000
G01 X116.318210 Y57.023690 Z-0.125000
G01 X116.838530 Y57.056190 Z-0.125000
G01 X118.052630 Y57.191690 Z-0.125000
G01 X118.057630 Y57.430170 Z-0.125000
G01 X118.095530 Y57.500670 Z-0.125000
G01 X118.279810 Y57.419370 Z-0.125000
G01 X118.306910 Y57.332670 Z-0.125000
G01 X118.317710 Y57.245970 Z-0.125000
G01 X118.707950 Y57.300170 Z-0.125000
G01 X119.510120 Y57.392270 Z-0.125000
G01 X119.857000 Y57.327270 Z-0.125000
G01 X119.916600 Y57.170090 Z-0.125000
G01 X119.917440 Y57.170130 Z-0.125000
G00 Z5.000000

(End cutting path id: path281676)


(Start cutting path id: path281674)
(Change tool to Default tool)

G00 Z5.000000
G00 X116.112050 Y55.050890

G01 Z-0.125000 F100.0(Penetrate)
G01 X115.998230 Y54.850350 Z-0.125000 F400.000000
G01 X115.776000 Y54.546820 Z-0.125000
G01 X115.266520 Y54.021080 Z-0.125000
G01 X114.800390 Y53.836790 Z-0.125000
G01 X114.458930 Y54.015660 Z-0.125000
G01 X114.328850 Y54.427580 Z-0.125000
G01 X114.513130 Y55.305630 Z-0.125000
G01 X114.979260 Y56.227040 Z-0.125000
G01 X115.261100 Y56.519720 Z-0.125000
G01 X115.542940 Y56.617280 Z-0.125000
G01 X115.748900 Y56.530580 Z-0.125000
G01 X115.841000 Y56.400500 Z-0.125000
G01 X115.884400 Y56.254160 Z-0.125000
G01 X115.857300 Y56.037360 Z-0.125000
G01 X115.808500 Y55.918120 Z-0.125000
G01 X115.738000 Y55.977720 Z-0.125000
G01 X115.716300 Y56.129480 Z-0.125000
G01 X115.683800 Y56.313760 Z-0.125000
G01 X115.635000 Y56.362560 Z-0.125000
G01 X115.141780 Y56.004840 Z-0.125000
G01 X114.751530 Y55.180990 Z-0.125000
G01 X114.599770 Y54.460120 Z-0.125000
G01 X114.659390 Y54.191830 Z-0.125000
G01 X114.838250 Y54.102400 Z-0.125000
G01 X115.152620 Y54.189100 Z-0.125000
G01 X115.456140 Y54.433000 Z-0.125000
G01 X115.911430 Y54.947910 Z-0.125000
G01 X115.971030 Y55.029210 Z-0.125000
G01 X116.046930 Y55.099710 Z-0.125000
G01 X116.111930 Y55.050910 Z-0.125000
G01 X116.112050 Y55.050890 Z-0.125000
G00 Z5.000000

(End cutting path id: path281674)


(Start cutting path id: path281672)
(Change tool to Default tool)

G00 Z5.000000
G00 X114.016690 Y54.145740

G01 Z-0.125000 F100.0(Penetrate)
G01 X113.951690 Y54.059040 Z-0.125000 F400.000000
G01 X113.816190 Y54.015640 Z-0.125000
G01 X113.713200 Y54.020640 Z-0.125000
G01 X113.659000 Y54.069440 Z-0.125000
G01 X113.545180 Y54.551820 Z-0.125000
G01 X113.420520 Y55.473230 Z-0.125000
G01 X113.219980 Y57.093830 Z-0.125000
G01 X113.035700 Y56.600600 Z-0.125000
G01 X112.748430 Y55.662930 Z-0.125000
G01 X112.477430 Y54.801140 Z-0.125000
G01 X112.314830 Y54.513880 Z-0.125000
G01 X112.206430 Y54.437980 Z-0.125000
G01 X112.103450 Y54.405480 Z-0.125000
G01 X112.032950 Y54.416280 Z-0.125000
G01 X111.995050 Y54.502980 Z-0.125000
G01 X111.892070 Y55.007050 Z-0.125000
G01 X111.767400 Y55.776690 Z-0.125000
G01 X111.734900 Y56.004340 Z-0.125000
G01 X111.610240 Y56.790250 Z-0.125000
G01 X111.415120 Y56.378320 Z-0.125000
G01 X111.203740 Y55.484010 Z-0.125000
G01 X110.927320 Y54.020600 Z-0.125000
G01 X110.846020 Y53.912200 Z-0.125000
G01 X110.710510 Y53.863400 Z-0.125000
G01 X110.612910 Y54.031430 Z-0.125000
G01 X110.537010 Y54.757710 Z-0.125000
G01 X110.417770 Y55.738740 Z-0.125000
G01 X110.211810 Y56.855280 Z-0.125000
G01 X110.173910 Y57.039560 Z-0.125000
G01 X110.249810 Y57.169640 Z-0.125000
G01 X110.423250 Y57.223840 Z-0.125000
G01 X110.515350 Y56.887800 Z-0.125000
G01 X110.618330 Y56.042270 Z-0.125000
G01 X110.634630 Y55.863410 Z-0.125000
G01 X110.683430 Y55.489420 Z-0.125000
G01 X110.797250 Y54.448770 Z-0.125000
G01 X111.041160 Y55.711640 Z-0.125000
G01 X111.089960 Y55.950130 Z-0.125000
G01 X111.350120 Y56.817340 Z-0.125000
G01 X111.713260 Y57.115440 Z-0.125000
G01 X111.870450 Y56.746870 Z-0.125000
G01 X112.005950 Y55.895930 Z-0.125000
G01 X112.103550 Y55.218420 Z-0.125000
G01 X112.211950 Y54.757710 Z-0.125000
G01 X112.342030 Y55.164220 Z-0.125000
G01 X112.531730 Y55.760420 Z-0.125000
G01 X113.095420 Y57.381020 Z-0.125000
G01 X113.198400 Y57.543620 Z-0.125000
G01 X113.382680 Y57.597820 Z-0.125000
G01 X113.534440 Y56.979940 Z-0.125000
G01 X113.669940 Y55.549040 Z-0.125000
G01 X113.935530 Y54.297010 Z-0.125000
G01 X114.016830 Y54.145250 Z-0.125000
G01 X114.016690 Y54.145740 Z-0.125000
G00 Z5.000000

(End cutting path id: path281672)


(Start cutting path id: path281670)
(Change tool to Default tool)

G00 Z5.000000
G00 X108.017280 Y56.254140

G01 Z-0.125000 F100.0(Penetrate)
G01 X107.957680 Y55.712130 Z-0.125000 F400.000000
G01 X107.887180 Y55.175550 Z-0.125000
G01 X107.784200 Y54.156580 Z-0.125000
G01 X107.757100 Y53.527850 Z-0.125000
G01 X107.789600 Y53.159290 Z-0.125000
G01 X107.865500 Y52.947910 Z-0.125000
G01 X107.908900 Y52.850310 Z-0.125000
G01 X107.822200 Y52.763610 Z-0.125000
G01 X107.643340 Y52.725710 Z-0.125000
G01 X107.529510 Y52.915410 Z-0.125000
G01 X107.491610 Y53.506200 Z-0.125000
G01 X107.551210 Y54.324630 Z-0.125000
G01 X107.632510 Y55.072600 Z-0.125000
G01 X107.269370 Y54.530590 Z-0.125000
G01 X106.830350 Y54.275850 Z-0.125000
G01 X106.450940 Y54.644410 Z-0.125000
G01 X106.185360 Y55.479100 Z-0.125000
G01 X106.093260 Y56.162030 Z-0.125000
G01 X106.174560 Y56.297530 Z-0.125000
G01 X106.326320 Y56.075310 Z-0.125000
G01 X106.572932 Y54.945225 Z-0.125000
G01 X106.900850 Y54.568530 Z-0.125000
G01 X107.155590 Y54.682350 Z-0.125000
G01 X107.421170 Y55.045500 Z-0.125000
G01 X107.572930 Y55.349020 Z-0.125000
G01 X107.697600 Y55.663380 Z-0.125000
G01 X107.735500 Y56.210810 Z-0.125000
G01 X107.768000 Y56.384250 Z-0.125000
G01 X107.854700 Y56.438450 Z-0.125000
G01 X107.963100 Y56.373450 Z-0.125000
G01 X108.017300 Y56.254210 Z-0.125000
G01 X108.017280 Y56.254140 Z-0.125000
G00 Z5.000000

(End cutting path id: path281670)


(Start cutting path id: path281668)
(Change tool to Default tool)

G00 Z5.000000
G00 X105.946050 Y56.102380

G01 Z-0.125000 F100.0(Penetrate)
G01 X105.864750 Y55.961460 Z-0.125000 F400.000000
G01 X105.582910 Y55.885560 Z-0.125000
G01 X105.024650 Y55.787960 Z-0.125000
G01 X104.672340 Y55.728360 Z-0.125000
G01 X104.677340 Y55.137580 Z-0.125000
G01 X104.704440 Y54.595570 Z-0.125000
G01 X104.780340 Y54.113190 Z-0.125000
G01 X104.839940 Y53.923490 Z-0.125000
G01 X104.769440 Y53.825890 Z-0.125000
G01 X104.644780 Y53.777090 Z-0.125000
G01 X104.590580 Y53.798790 Z-0.125000
G01 X104.552680 Y53.858390 Z-0.125000
G01 X104.487680 Y54.140240 Z-0.125000
G01 X104.444280 Y54.595520 Z-0.125000
G01 X104.417180 Y55.110430 Z-0.125000
G01 X104.412180 Y55.684950 Z-0.125000
G01 X103.788870 Y55.565710 Z-0.125000
G01 X103.447410 Y55.506110 Z-0.125000
G01 X103.322750 Y55.544010 Z-0.125000
G01 X103.268550 Y55.646990 Z-0.125000
G01 X103.317350 Y55.739090 Z-0.125000
G01 X103.479950 Y55.760790 Z-0.125000
G01 X103.718430 Y55.787890 Z-0.125000
G01 X103.918970 Y55.831290 Z-0.125000
G01 X104.412200 Y55.923390 Z-0.125000
G01 X104.401400 Y56.221490 Z-0.125000
G01 X104.390600 Y56.600890 Z-0.125000
G01 X104.401400 Y56.926100 Z-0.125000
G01 X104.455600 Y57.137480 Z-0.125000
G01 X104.618200 Y57.245880 Z-0.125000
G01 X104.683200 Y57.229580 Z-0.125000
G01 X104.699500 Y57.169980 Z-0.125000
G01 X104.672400 Y56.980280 Z-0.125000
G01 X104.645300 Y56.562930 Z-0.125000
G01 X104.656100 Y56.113070 Z-0.125000
G01 X104.661100 Y55.966730 Z-0.125000
G01 X105.625870 Y56.167270 Z-0.125000
G01 X105.696370 Y56.243170 Z-0.125000
G01 X105.761370 Y56.308170 Z-0.125000
G01 X105.880610 Y56.237670 Z-0.125000
G01 X105.945610 Y56.102170 Z-0.125000
G01 X105.946050 Y56.102380 Z-0.125000
G00 Z5.000000

(End cutting path id: path281668)


(Start cutting path id: path281666)
(Change tool to Default tool)

G00 Z5.000000
G00 X103.082570 Y54.617280

G01 Z-0.125000 F100.0(Penetrate)
G01 X102.887450 Y54.156580 Z-0.125000 F400.000000
G01 X102.383380 Y53.809690 Z-0.125000
G01 X101.727560 Y53.674190 Z-0.125000
G01 X101.413190 Y53.717590 Z-0.125000
G01 X101.331890 Y53.836830 Z-0.125000
G01 X101.456550 Y54.004860 Z-0.125000
G01 X101.624580 Y54.129520 Z-0.125000
G01 X101.689580 Y54.102420 Z-0.125000
G01 X101.662480 Y54.059020 Z-0.125000
G01 X101.635380 Y54.021120 Z-0.125000
G01 X101.700380 Y53.977720 Z-0.125000
G01 X101.868400 Y53.956020 Z-0.125000
G01 X102.323680 Y54.037320 Z-0.125000
G01 X102.703090 Y54.259540 Z-0.125000
G01 X102.849430 Y54.546800 Z-0.125000
G01 X102.757330 Y54.779860 Z-0.125000
G01 X102.524270 Y54.904530 Z-0.125000
G01 X102.063560 Y55.023770 Z-0.125000
G01 X101.505290 Y55.164690 Z-0.125000
G01 X101.190930 Y55.321870 Z-0.125000
G01 X101.071690 Y55.565770 Z-0.125000
G01 X101.326430 Y56.042740 Z-0.125000
G01 X101.911800 Y56.384200 Z-0.125000
G01 X102.421280 Y56.508860 Z-0.125000
G01 X102.605570 Y56.400460 Z-0.125000
G01 X102.562170 Y56.254120 Z-0.125000
G01 X102.432080 Y56.178220 Z-0.125000
G01 X102.361580 Y56.199920 Z-0.125000
G01 X102.285680 Y56.227020 Z-0.125000
G01 X101.944220 Y56.156520 Z-0.125000
G01 X101.521450 Y55.945140 Z-0.125000
G01 X101.331750 Y55.603670 Z-0.125000
G01 X101.478090 Y55.408550 Z-0.125000
G01 X102.036360 Y55.256790 Z-0.125000
G01 X102.133960 Y55.229690 Z-0.125000
G01 X102.220660 Y55.213390 Z-0.125000
G01 X102.860230 Y54.991170 Z-0.125000
G01 X103.082450 Y54.617180 Z-0.125000
G01 X103.082570 Y54.617280 Z-0.125000
G00 Z5.000000

(End cutting path id: path281666)


(Start cutting path id: path281664)
(Change tool to Default tool)

G00 Z5.000000
G00 X100.660650 Y55.240590

G01 Z-0.125000 F100.0(Penetrate)
G01 X100.698550 Y55.159290 Z-0.125000 F400.000000
G01 X100.552210 Y54.731100 Z-0.125000
G01 X100.118610 Y54.118640 Z-0.125000
G01 X99.797470 Y53.907252 Z-0.125000
G01 X99.408580 Y53.836790 Z-0.125000
G01 X98.828634 Y54.053600 Z-0.125000
G01 X98.595571 Y54.720260 Z-0.125000
G01 X98.790693 Y55.554950 Z-0.125000
G01 X99.300179 Y56.232460 Z-0.125000
G01 X99.950586 Y56.498040 Z-0.125000
G01 X100.286630 Y56.405940 Z-0.125000
G01 X100.427550 Y56.151200 Z-0.125000
G01 X100.210750 Y55.782630 Z-0.125000
G01 X99.657902 Y55.468270 Z-0.125000
G01 X98.953295 Y55.273150 Z-0.125000
G01 X98.888255 Y54.785340 Z-0.125000
G01 X99.034597 Y54.297540 Z-0.125000
G01 X99.462781 Y54.124100 Z-0.125000
G01 X99.840831 Y54.198625 Z-0.125000
G01 X100.140290 Y54.422200 Z-0.125000
G01 X100.573890 Y55.094290 Z-0.125000
G01 X100.611790 Y55.175590 Z-0.125000
G01 X100.660590 Y55.240590 Z-0.125000
G01 X100.660650 Y55.240590 Z-0.125000
G00 Z5.000000

(End cutting path id: path281664)


(Start cutting path id: path281664)
(Change tool to Default tool)

G00 Z5.000000
G00 X100.183690 Y56.091540

G01 Z-0.125000 F100.0(Penetrate)
G01 X100.091590 Y56.227040 Z-0.125000 F400.000000
G01 X99.885625 Y56.275840 Z-0.125000
G01 X99.489961 Y56.140340 Z-0.125000
G01 X99.170177 Y55.815140 Z-0.125000
G01 X99.007576 Y55.479090 Z-0.125000
G01 X99.533321 Y55.620010 Z-0.125000
G01 X99.994026 Y55.869340 Z-0.125000
G01 X100.183730 Y56.091560 Z-0.125000
G01 X100.183690 Y56.091540 Z-0.125000
G00 Z5.000000

(End cutting path id: path281664)


(Start cutting path id: path281662)
(Change tool to Default tool)

G00 Z5.000000
G00 X98.226624 Y57.170130

G01 Z-0.125000 F100.0(Penetrate)
G01 X98.188684 Y57.078030 Z-0.125000 F400.000000
G01 X98.091124 Y57.034630 Z-0.125000
G01 X97.977303 Y57.061730 Z-0.125000
G01 X97.803861 Y57.094230 Z-0.125000
G01 X97.213075 Y57.067130 Z-0.125000
G01 X96.665649 Y56.991230 Z-0.125000
G01 X96.692749 Y56.167380 Z-0.125000
G01 X96.709009 Y54.991230 Z-0.125000
G01 X96.698169 Y54.411280 Z-0.125000
G01 X96.676489 Y54.015620 Z-0.125000
G01 X96.600609 Y53.918020 Z-0.125000
G01 X96.475948 Y53.880020 Z-0.125000
G01 X96.410908 Y53.912520 Z-0.125000
G01 X96.383808 Y53.988420 Z-0.125000
G01 X96.389208 Y54.178120 Z-0.125000
G01 X96.421728 Y55.218770 Z-0.125000
G01 X96.410888 Y56.232320 Z-0.125000
G01 X96.389208 Y56.942350 Z-0.125000
G01 X94.942053 Y56.720120 Z-0.125000
G01 X94.795711 Y56.698420 Z-0.125000
G01 X94.606009 Y56.768920 Z-0.125000
G01 X94.513869 Y56.920690 Z-0.125000
G01 X94.546389 Y56.996590 Z-0.125000
G01 X94.627689 Y57.023690 Z-0.125000
G01 X95.148014 Y57.056190 Z-0.125000
G01 X96.362107 Y57.191690 Z-0.125000
G01 X96.367507 Y57.430170 Z-0.125000
G01 X96.405447 Y57.500670 Z-0.125000
G01 X96.589729 Y57.419370 Z-0.125000
G01 X96.616829 Y57.332670 Z-0.125000
G01 X96.627669 Y57.245970 Z-0.125000
G01 X97.017914 Y57.300170 Z-0.125000
G01 X97.820082 Y57.392270 Z-0.125000
G01 X98.166965 Y57.327270 Z-0.125000
G01 X98.226585 Y57.170090 Z-0.125000
G01 X98.226624 Y57.170130 Z-0.125000
G00 Z5.000000

(End cutting path id: path281662)


(Start cutting path id: path281694)
(Change tool to Default tool)

G00 Z5.000000
G00 X96.969171 Y49.963330

G01 Z-0.125000 F100.0(Penetrate)
G01 X96.584347 Y49.535140 Z-0.125000 F400.000000
G01 X95.971881 Y48.863060 Z-0.125000
G01 X95.088411 Y47.892870 Z-0.125000
G01 X95.456975 Y47.974170 Z-0.125000
G01 X95.863480 Y48.055470 Z-0.125000
G01 X96.622287 Y48.212650 Z-0.125000
G01 X96.963751 Y48.283150 Z-0.125000
G01 X96.947491 Y48.613770 Z-0.125000
G01 X96.952891 Y49.410520 Z-0.125000
G01 X96.969151 Y49.963370 Z-0.125000
G01 X96.969171 Y49.963330 Z-0.125000
G00 Z5.000000

(End cutting path id: path281694)


(Start cutting path id: path281694)
(Change tool to Default tool)

G00 Z5.000000
G00 X97.456976 Y46.776330

G01 Z-0.125000 F100.0(Penetrate)
G01 X97.391936 Y46.667930 Z-0.125000 F400.000000
G01 X97.251015 Y46.613730 Z-0.125000
G01 X97.077573 Y46.998560 Z-0.125000
G01 X96.980013 Y48.044630 Z-0.125000
G01 X96.519308 Y47.947030 Z-0.125000
G01 X95.917682 Y47.806110 Z-0.125000
G01 X94.817411 Y47.562200 Z-0.125000
G01 X94.709010 Y47.621800 Z-0.125000
G01 X94.643970 Y47.735620 Z-0.125000
G01 X94.714430 Y47.860290 Z-0.125000
G01 X95.185974 Y48.353510 Z-0.125000
G01 X95.793021 Y48.998500 Z-0.125000
G01 X96.660230 Y50.012050 Z-0.125000
G01 X96.909552 Y50.315570 Z-0.125000
G01 X97.017954 Y50.461910 Z-0.125000
G01 X97.066734 Y50.548610 Z-0.125000
G01 X97.120934 Y50.570310 Z-0.125000
G01 X97.261855 Y50.505310 Z-0.125000
G01 X97.337735 Y50.369810 Z-0.125000
G01 X97.305215 Y50.299310 Z-0.125000
G01 X97.261855 Y50.120450 Z-0.125000
G01 X97.251015 Y48.635350 Z-0.125000
G01 X97.256415 Y48.315570 Z-0.125000
G01 X97.364816 Y48.337270 Z-0.125000
G01 X97.901402 Y48.429370 Z-0.125000
G01 X97.971862 Y48.499870 Z-0.125000
G01 X98.036902 Y48.564870 Z-0.125000
G01 X98.156143 Y48.494370 Z-0.125000
G01 X98.221183 Y48.358870 Z-0.125000
G01 X98.145303 Y48.228790 Z-0.125000
G01 X97.858040 Y48.174590 Z-0.125000
G01 X97.435276 Y48.125790 Z-0.125000
G01 X97.272674 Y48.104090 Z-0.125000
G01 X97.419016 Y47.036340 Z-0.125000
G01 X97.456956 Y46.776170 Z-0.125000
G01 X97.456976 Y46.776330 Z-0.125000
G00 Z5.000000

(End cutting path id: path281694)


(Start cutting path id: path281696)
(Change tool to Default tool)

G00 Z5.000000
G00 X99.740259 Y46.358990

G01 Z-0.125000 F100.0(Penetrate)
G01 X99.518037 Y46.331890 Z-0.125000 F400.000000
G01 X99.377116 Y46.380690 Z-0.125000
G01 X99.339176 Y46.494510 Z-0.125000
G01 X99.566819 Y46.635430 Z-0.125000
G01 X100.802590 Y47.063620 Z-0.125000
G01 X101.176577 Y47.444377 Z-0.125000
G01 X101.301240 Y47.936250 Z-0.125000
G01 X101.118313 Y48.399660 Z-0.125000
G01 X100.569530 Y48.554130 Z-0.125000
G01 X100.125080 Y48.516230 Z-0.125000
G01 X99.621019 Y48.413250 Z-0.125000
G01 X99.225355 Y48.201870 Z-0.125000
G01 X99.046493 Y48.158470 Z-0.125000
G01 X98.959773 Y48.207270 Z-0.125000
G01 X98.921833 Y48.326510 Z-0.125000
G01 X99.013973 Y48.467430 Z-0.125000
G01 X99.295816 Y48.581250 Z-0.125000
G01 X99.653540 Y48.733010 Z-0.125000
G01 X100.401510 Y49.237080 Z-0.125000
G01 X100.683350 Y49.779090 Z-0.125000
G01 X100.520750 Y50.104290 Z-0.125000
G01 X100.076300 Y50.196390 Z-0.125000
G01 X99.236195 Y49.947070 Z-0.125000
G01 X99.041073 Y49.789890 Z-0.125000
G01 X98.932672 Y49.654380 Z-0.125000
G01 X98.802591 Y49.583880 Z-0.125000
G01 X98.634569 Y49.730230 Z-0.125000
G01 X98.851371 Y50.012070 Z-0.125000
G01 X99.415057 Y50.342690 Z-0.125000
G01 X100.163020 Y50.483610 Z-0.125000
G01 X100.759230 Y50.315590 Z-0.125000
G01 X100.976030 Y49.833210 Z-0.125000
G01 X100.694190 Y49.253260 Z-0.125000
G01 X100.070880 Y48.732930 Z-0.125000
G01 X100.092580 Y48.727930 Z-0.125000
G01 X100.369010 Y48.787530 Z-0.125000
G01 X100.661690 Y48.803830 Z-0.125000
G01 X101.322940 Y48.581600 Z-0.125000
G01 X101.522125 Y48.316020 Z-0.125000
G01 X101.588520 Y47.963720 Z-0.125000
G01 X101.465213 Y47.406808 Z-0.125000
G01 X101.095290 Y46.961010 Z-0.125000
G01 X100.512637 Y46.612767 Z-0.125000
G01 X99.740280 Y46.359380 Z-0.125000
G01 X99.740259 Y46.358990 Z-0.125000
G00 Z5.000000

(End cutting path id: path281696)


(Start cutting path id: path281734)
(Change tool to Default tool)

G00 Z5.000000
G00 X101.150320 Y43.509910

G01 Z-0.125000 F100.0(Penetrate)
G01 X100.971460 Y43.428610 Z-0.125000 F400.000000
G01 X100.781760 Y43.504510 Z-0.125000
G01 X100.689660 Y43.629170 Z-0.125000
G01 X100.743860 Y43.743000 Z-0.125000
G01 X100.863100 Y43.797200 Z-0.125000
G01 X100.901000 Y43.780900 Z-0.125000
G01 X100.998600 Y43.710400 Z-0.125000
G01 X101.096200 Y43.596570 Z-0.125000
G01 X101.150400 Y43.509870 Z-0.125000
G01 X101.150320 Y43.509910 Z-0.125000
G00 Z5.000000

(End cutting path id: path281734)


(Start cutting path id: path281736)
(Change tool to Default tool)

G00 Z5.000000
G00 X103.620510 Y41.309370

G01 Z-0.125000 F100.0(Penetrate)
G01 X103.506690 Y41.108830 Z-0.125000 F400.000000
G01 X103.284470 Y40.805310 Z-0.125000
G01 X102.774980 Y40.279560 Z-0.125000
G01 X102.308860 Y40.095280 Z-0.125000
G01 X101.967390 Y40.274140 Z-0.125000
G01 X101.837310 Y40.686060 Z-0.125000
G01 X102.021600 Y41.564110 Z-0.125000
G01 X102.487720 Y42.485520 Z-0.125000
G01 X102.769563 Y42.778208 Z-0.125000
G01 X103.051410 Y42.875770 Z-0.125000
G01 X103.257370 Y42.789070 Z-0.125000
G01 X103.349470 Y42.658980 Z-0.125000
G01 X103.392870 Y42.512640 Z-0.125000
G01 X103.365770 Y42.295840 Z-0.125000
G01 X103.316970 Y42.176600 Z-0.125000
G01 X103.246470 Y42.236200 Z-0.125000
G01 X103.224770 Y42.387960 Z-0.125000
G01 X103.192270 Y42.572240 Z-0.125000
G01 X103.143470 Y42.621040 Z-0.125000
G01 X102.650240 Y42.263320 Z-0.125000
G01 X102.260000 Y41.439470 Z-0.125000
G01 X102.108240 Y40.718600 Z-0.125000
G01 X102.167860 Y40.450310 Z-0.125000
G01 X102.346720 Y40.360880 Z-0.125000
G01 X102.661080 Y40.447580 Z-0.125000
G01 X102.964600 Y40.691480 Z-0.125000
G01 X103.419890 Y41.206390 Z-0.125000
G01 X103.479490 Y41.287690 Z-0.125000
G01 X103.555390 Y41.358190 Z-0.125000
G01 X103.620390 Y41.309390 Z-0.125000
G01 X103.620510 Y41.309370 Z-0.125000
G00 Z5.000000

(End cutting path id: path281736)


(Start cutting path id: path281738)
(Change tool to Default tool)

G00 Z5.000000
G00 X104.320210 Y40.366240

G01 Z-0.125000 F100.0(Penetrate)
G01 X104.883890 Y40.583040 Z-0.125000 F400.000000
G01 X105.366280 Y41.097950 Z-0.125000
G01 X105.843240 Y41.840500 Z-0.125000
G01 X105.908240 Y42.192800 Z-0.125000
G01 X105.837740 Y42.387920 Z-0.125000
G01 X105.658880 Y42.474620 Z-0.125000
G01 X105.312000 Y42.290340 Z-0.125000
G01 X104.797090 Y41.737500 Z-0.125000
G01 X104.347230 Y41.059990 Z-0.125000
G01 X104.168370 Y40.528820 Z-0.125000
G01 X104.320130 Y40.366220 Z-0.125000
G01 X104.320210 Y40.366240 Z-0.125000
G00 Z5.000000

(End cutting path id: path281738)


(Start cutting path id: path281738)
(Change tool to Default tool)

G00 Z5.000000
G00 X106.233490 Y40.463840

G01 Z-0.125000 F100.0(Penetrate)
G01 X106.276890 Y40.382540 Z-0.125000 F400.000000
G01 X106.314790 Y40.317540 Z-0.125000
G01 X106.260590 Y40.165780 Z-0.125000
G01 X106.152190 Y40.084480 Z-0.125000
G01 X106.011260 Y40.198300 Z-0.125000
G01 X105.962460 Y40.463880 Z-0.125000
G01 X105.978760 Y41.244370 Z-0.125000
G01 X105.983760 Y41.450330 Z-0.125000
G01 X105.918760 Y41.629190 Z-0.125000
G01 X105.463480 Y40.913750 Z-0.125000
G01 X104.926890 Y40.339220 Z-0.125000
G01 X104.243970 Y40.073640 Z-0.125000
G01 X103.972960 Y40.182040 Z-0.125000
G01 X103.880860 Y40.463880 Z-0.125000
G01 X104.075980 Y41.054670 Z-0.125000
G01 X104.574630 Y41.818900 Z-0.125000
G01 X105.181680 Y42.458460 Z-0.125000
G01 X105.501460 Y42.675260 Z-0.125000
G01 X105.712840 Y42.734860 Z-0.125000
G01 X105.891700 Y42.680660 Z-0.125000
G01 X106.048880 Y42.528900 Z-0.125000
G01 X106.113880 Y42.306680 Z-0.125000
G01 X106.021680 Y41.986900 Z-0.125000
G01 X106.113880 Y42.014000 Z-0.125000
G01 X106.184380 Y41.867660 Z-0.125000
G01 X106.195180 Y41.515350 Z-0.125000
G01 X106.211480 Y41.076330 Z-0.125000
G01 X106.222280 Y40.729440 Z-0.125000
G01 X106.233080 Y40.463860 Z-0.125000
G01 X106.233490 Y40.463840 Z-0.125000
G00 Z5.000000

(End cutting path id: path281738)


(Start cutting path id: path281740)
(Change tool to Default tool)

G00 Z5.000000
G00 X109.270330 Y40.171160

G01 Z-0.125000 F100.0(Penetrate)
G01 X109.102310 Y39.401510 Z-0.125000 F400.000000
G01 X108.706640 Y38.837820 Z-0.125000
G01 X108.218840 Y38.480100 Z-0.125000
G01 X107.785230 Y38.339180 Z-0.125000
G01 X107.638890 Y38.393380 Z-0.125000
G01 X107.595490 Y38.512620 Z-0.125000
G01 X107.839390 Y38.664380 Z-0.125000
G01 X108.522320 Y39.065470 Z-0.125000
G01 X108.880040 Y39.558690 Z-0.125000
G01 X108.993860 Y40.122380 Z-0.125000
G01 X108.950460 Y40.718580 Z-0.125000
G01 X108.825800 Y41.385250 Z-0.125000
G01 X108.690300 Y42.095280 Z-0.125000
G01 X108.403040 Y41.493650 Z-0.125000
G01 X107.947750 Y40.816150 Z-0.125000
G01 X107.492470 Y40.355440 Z-0.125000
G01 X107.102230 Y40.203680 Z-0.125000
G01 X106.858320 Y40.328340 Z-0.125000
G01 X106.782420 Y40.680640 Z-0.125000
G01 X107.010060 Y41.547850 Z-0.125000
G01 X107.579170 Y42.404220 Z-0.125000
G01 X107.917923 Y42.672517 Z-0.125000
G01 X108.251260 Y42.761950 Z-0.125000
G01 X108.424700 Y42.680650 Z-0.125000
G01 X108.489700 Y42.485530 Z-0.125000
G01 X108.430100 Y42.339190 Z-0.125000
G01 X108.386700 Y42.377090 Z-0.125000
G01 X108.332500 Y42.452990 Z-0.125000
G01 X108.262000 Y42.485490 Z-0.125000
G01 X107.698310 Y42.176550 Z-0.125000
G01 X107.226770 Y41.450260 Z-0.125000
G01 X107.042480 Y40.772760 Z-0.125000
G01 X107.080380 Y40.561370 Z-0.125000
G01 X107.210470 Y40.496370 Z-0.125000
G01 X107.524830 Y40.648130 Z-0.125000
G01 X107.963850 Y41.125100 Z-0.125000
G01 X108.375780 Y41.791770 Z-0.125000
G01 X108.663040 Y42.523470 Z-0.125000
G01 X108.695540 Y42.577670 Z-0.125000
G01 X108.755140 Y42.599370 Z-0.125000
G01 X108.852740 Y42.566870 Z-0.125000
G01 X108.906940 Y42.507270 Z-0.125000
G01 X108.896140 Y42.458470 Z-0.125000
G01 X108.885340 Y42.431370 Z-0.125000
G01 X109.064210 Y41.504540 Z-0.125000
G01 X109.215970 Y40.756570 Z-0.125000
G01 X109.270170 Y40.171210 Z-0.125000
G01 X109.270330 Y40.171160 Z-0.125000
G00 Z5.000000

(End cutting path id: path281740)


(Start cutting path id: path281742)
(Change tool to Default tool)

G00 Z5.000000
G00 X111.682080 Y41.238910

G01 Z-0.125000 F100.0(Penetrate)
G01 X111.524900 Y40.751100 Z-0.125000 F400.000000
G01 X111.080460 Y40.274140 Z-0.125000
G01 X110.424630 Y40.079020 Z-0.125000
G01 X109.888050 Y40.279560 Z-0.125000
G01 X109.714600 Y40.778210 Z-0.125000
G01 X109.806700 Y41.423190 Z-0.125000
G01 X110.077710 Y42.111540 Z-0.125000
G01 X110.164410 Y42.268720 Z-0.125000
G01 X110.343270 Y42.480100 Z-0.125000
G01 X110.549230 Y42.556000 Z-0.125000
G01 X110.635930 Y42.528900 Z-0.125000
G01 X110.679330 Y42.469300 Z-0.125000
G01 X110.646830 Y42.415100 Z-0.125000
G01 X110.603430 Y42.355500 Z-0.125000
G01 X110.305330 Y41.916480 Z-0.125000
G01 X110.066850 Y41.369050 Z-0.125000
G01 X109.985550 Y40.778270 Z-0.125000
G01 X110.115630 Y40.457128 Z-0.125000
G01 X110.505870 Y40.350080 Z-0.125000
G01 X110.955740 Y40.491000 Z-0.125000
G01 X111.291780 Y40.832470 Z-0.125000
G01 X111.416440 Y41.206450 Z-0.125000
G01 X111.291780 Y41.537070 Z-0.125000
G01 X110.950320 Y41.835180 Z-0.125000
G01 X110.744350 Y42.003200 Z-0.125000
G01 X110.679350 Y42.111600 Z-0.125000
G01 X110.771450 Y42.214580 Z-0.125000
G01 X110.988260 Y42.257980 Z-0.125000
G01 X111.080360 Y42.247180 Z-0.125000
G01 X111.102060 Y42.220080 Z-0.125000
G01 X111.080360 Y42.182180 Z-0.125000
G01 X111.064060 Y42.144280 Z-0.125000
G01 X111.172460 Y42.035880 Z-0.125000
G01 X111.535600 Y41.672730 Z-0.125000
G01 X111.681940 Y41.239130 Z-0.125000
G01 X111.682080 Y41.238910 Z-0.125000
G00 Z5.000000

(End cutting path id: path281742)


(Start cutting path id: path281744)
(Change tool to Default tool)

G00 Z5.000000
G00 X112.840530 Y40.518040

G01 Z-0.125000 F100.0(Penetrate)
G01 X112.710450 Y40.165740 Z-0.125000 F400.000000
G01 X112.434030 Y39.667090 Z-0.125000
G01 X112.206390 Y39.439450 Z-0.125000
G01 X112.114290 Y39.471950 Z-0.125000
G01 X112.081790 Y39.547850 Z-0.125000
G01 X112.141390 Y39.705030 Z-0.125000
G01 X112.222690 Y39.851380 Z-0.125000
G01 X112.374450 Y40.144060 Z-0.125000
G01 X112.472050 Y40.393380 Z-0.125000
G01 X112.569650 Y40.631860 Z-0.125000
G01 X112.645550 Y40.713160 Z-0.125000
G01 X112.770210 Y40.642660 Z-0.125000
G01 X112.840710 Y40.518000 Z-0.125000
G01 X112.840530 Y40.518040 Z-0.125000
G00 Z5.000000

(End cutting path id: path281744)


(Start cutting path id: path281702)
(Change tool to Default tool)

G00 Z5.000000
G00 X113.134830 Y47.025660

G01 Z-0.125000 F100.0(Penetrate)
G01 X112.923450 Y46.960660 Z-0.125000 F400.000000
G01 X112.413960 Y47.540600 Z-0.125000
G01 X111.644310 Y48.537890 Z-0.125000
G01 X111.367890 Y48.933560 Z-0.125000
G01 X110.945120 Y49.535180 Z-0.125000
G01 X110.934320 Y49.117840 Z-0.125000
G01 X110.929320 Y48.711330 Z-0.125000
G01 X110.918520 Y47.876650 Z-0.125000
G01 X110.902220 Y47.161200 Z-0.125000
G01 X110.842620 Y47.041960 Z-0.125000
G01 X110.739640 Y46.987760 Z-0.125000
G01 X110.652940 Y47.020260 Z-0.125000
G01 X110.631240 Y47.161180 Z-0.125000
G01 X110.652940 Y47.562260 Z-0.125000
G01 X110.701740 Y48.608330 Z-0.125000
G01 X110.712540 Y49.242480 Z-0.125000
G01 X110.723340 Y49.616460 Z-0.125000
G01 X110.728340 Y49.773650 Z-0.125000
G01 X110.728340 Y49.789950 Z-0.125000
G01 X110.744640 Y49.882050 Z-0.125000
G01 X110.825940 Y49.919950 Z-0.125000
G01 X110.853040 Y49.919950 Z-0.125000
G01 X111.086110 Y49.703140 Z-0.125000
G01 X111.535970 Y49.123200 Z-0.125000
G01 X111.649790 Y48.971440 Z-0.125000
G01 X111.752770 Y48.835940 Z-0.125000
G01 X112.077980 Y48.418590 Z-0.125000
G01 X112.918090 Y47.302060 Z-0.125000
G01 X112.880190 Y47.502600 Z-0.125000
G01 X112.825990 Y47.914530 Z-0.125000
G01 X112.804290 Y48.440270 Z-0.125000
G01 X112.712190 Y49.713980 Z-0.125000
G01 X112.685090 Y50.033770 Z-0.125000
G01 X112.743358 Y50.188240 Z-0.125000
G01 X112.918160 Y50.239730 Z-0.125000
G01 X112.999460 Y50.125910 Z-0.125000
G01 X113.037360 Y49.659780 Z-0.125000
G01 X113.048160 Y48.516150 Z-0.125000
G01 X113.064460 Y48.028350 Z-0.125000
G01 X113.102360 Y47.605580 Z-0.125000
G01 X113.129460 Y47.220760 Z-0.125000
G01 X113.134830 Y47.025660 Z-0.125000
G00 Z5.000000

(End cutting path id: path281702)


(Start cutting path id: path281704)
(Change tool to Default tool)

G00 Z5.000000
G00 X114.638640 Y46.933520

G01 Z-0.125000 F100.0(Penetrate)
G01 X114.459780 Y46.852220 Z-0.125000 F400.000000
G01 X114.270080 Y46.971460 Z-0.125000
G01 X114.134570 Y47.226200 Z-0.125000
G01 X114.085770 Y47.415900 Z-0.125000
G01 X114.139970 Y47.529720 Z-0.125000
G01 X114.259220 Y47.583920 Z-0.125000
G01 X114.318820 Y47.551420 Z-0.125000
G01 X114.383820 Y47.453820 Z-0.125000
G01 X114.475920 Y47.329160 Z-0.125000
G01 X114.589740 Y47.128620 Z-0.125000
G01 X114.638540 Y46.933500 Z-0.125000
G01 X114.638640 Y46.933520 Z-0.125000
G00 Z5.000000

(End cutting path id: path281704)


(Start cutting path id: path281706)
(Change tool to Default tool)

G00 Z5.000000
G00 X119.901510 Y50.115090

G01 Z-0.125000 F100.0(Penetrate)
G01 X119.869010 Y49.280400 Z-0.125000 F400.000000
G01 X119.798510 Y48.494490 Z-0.125000
G01 X119.695530 Y47.849510 Z-0.125000
G01 X119.511250 Y47.242460 Z-0.125000
G01 X119.289030 Y46.993140 Z-0.125000
G01 X119.126430 Y47.237040 Z-0.125000
G01 X118.887940 Y47.952490 Z-0.125000
G01 X118.795840 Y48.256010 Z-0.125000
G01 X118.579040 Y48.890160 Z-0.125000
G01 X118.394760 Y49.350860 Z-0.125000
G01 X118.161700 Y48.554110 Z-0.125000
G01 X117.695570 Y47.052760 Z-0.125000
G01 X117.663070 Y46.976860 Z-0.125000
G01 X117.581770 Y46.873880 Z-0.125000
G01 X117.424590 Y46.835980 Z-0.125000
G01 X117.332490 Y47.117830 Z-0.125000
G01 X117.196990 Y47.741130 Z-0.125000
G01 X117.007280 Y48.559560 Z-0.125000
G01 X116.790480 Y49.356310 Z-0.125000
G01 X116.644140 Y49.676090 Z-0.125000
G01 X116.552040 Y49.827860 Z-0.125000
G01 X116.606240 Y49.909160 Z-0.125000
G01 X116.741740 Y49.957960 Z-0.125000
G01 X116.844720 Y49.947160 Z-0.125000
G01 X116.904320 Y49.903760 Z-0.125000
G01 X117.197010 Y48.852270 Z-0.125000
G01 X117.251210 Y48.640880 Z-0.125000
G01 X117.440910 Y47.827880 Z-0.125000
G01 X117.511410 Y47.513510 Z-0.125000
G01 X117.565610 Y47.307550 Z-0.125000
G01 X117.674010 Y47.686950 Z-0.125000
G01 X117.950430 Y48.624620 Z-0.125000
G01 X118.140140 Y49.269610 Z-0.125000
G01 X118.275640 Y49.594810 Z-0.125000
G01 X118.362340 Y49.659810 Z-0.125000
G01 X118.476160 Y49.692310 Z-0.125000
G01 X118.535760 Y49.665210 Z-0.125000
G01 X118.573660 Y49.605610 Z-0.125000
G01 X118.606160 Y49.540610 Z-0.125000
G01 X118.779600 Y49.085330 Z-0.125000
G01 X119.001820 Y48.402400 Z-0.125000
G01 X119.077720 Y48.153080 Z-0.125000
G01 X119.332460 Y47.350910 Z-0.125000
G01 X119.592620 Y48.619200 Z-0.125000
G01 X119.630520 Y49.567710 Z-0.125000
G01 X119.625520 Y50.115140 Z-0.125000
G01 X119.641820 Y50.212740 Z-0.125000
G01 X119.717720 Y50.245240 Z-0.125000
G01 X119.842380 Y50.201840 Z-0.125000
G01 X119.901980 Y50.115140 Z-0.125000
G01 X119.901510 Y50.115090 Z-0.125000
G00 Z5.000000

(End cutting path id: path281706)


(Start cutting path id: path281708)
(Change tool to Default tool)

G00 Z5.000000
G00 X120.893300 Y50.380670

G01 Z-0.125000 F100.0(Penetrate)
G01 X120.714440 Y50.299370 Z-0.125000 F400.000000
G01 X120.524740 Y50.375270 Z-0.125000
G01 X120.432640 Y50.499930 Z-0.125000
G01 X120.486840 Y50.613750 Z-0.125000
G01 X120.606080 Y50.667950 Z-0.125000
G01 X120.643980 Y50.651650 Z-0.125000
G01 X120.741580 Y50.581150 Z-0.125000
G01 X120.839180 Y50.467330 Z-0.125000
G01 X120.893380 Y50.380630 Z-0.125000
G01 X120.893300 Y50.380670 Z-0.125000
G00 Z5.000000

(End cutting path id: path281708)


(Start cutting path id: path281700)
(Change tool to Default tool)

G00 Z5.000000
G00 X108.023710 Y48.570370

G01 Z-0.125000 F100.0(Penetrate)
G01 X107.991210 Y48.467390 Z-0.125000 F400.000000
G01 X107.920710 Y48.380690 Z-0.125000
G01 X107.741850 Y48.321090 Z-0.125000
G01 X107.454590 Y48.272290 Z-0.125000
G01 X107.308250 Y48.245190 Z-0.125000
G01 X107.134800 Y46.738410 Z-0.125000
G01 X107.069800 Y46.510770 Z-0.125000
G01 X106.934300 Y46.413170 Z-0.125000
G01 X106.853000 Y46.478170 Z-0.125000
G01 X106.788000 Y46.619090 Z-0.125000
G01 X106.744600 Y46.727490 Z-0.125000
G01 X106.657900 Y47.003920 Z-0.125000
G01 X106.717500 Y47.079820 Z-0.125000
G01 X106.793400 Y47.047320 Z-0.125000
G01 X106.869300 Y46.998520 Z-0.125000
G01 X107.037320 Y48.223450 Z-0.125000
G01 X106.441120 Y48.147550 Z-0.125000
G01 X106.332720 Y48.185450 Z-0.125000
G01 X106.294820 Y48.283050 Z-0.125000
G01 X106.343620 Y48.342650 Z-0.125000
G01 X106.511640 Y48.380550 Z-0.125000
G01 X107.091580 Y48.461850 Z-0.125000
G01 X107.351750 Y49.291120 Z-0.125000
G01 X107.666110 Y50.017410 Z-0.125000
G01 X107.270450 Y49.968610 Z-0.125000
G01 X106.603780 Y49.860210 Z-0.125000
G01 X106.126810 Y49.762610 Z-0.125000
G01 X105.942530 Y49.724710 Z-0.125000
G01 X105.676950 Y49.697610 Z-0.125000
G01 X105.508930 Y49.735510 Z-0.125000
G01 X105.438430 Y49.843910 Z-0.125000
G01 X105.541410 Y49.979410 Z-0.125000
G01 X105.991270 Y50.011910 Z-0.125000
G01 X106.647100 Y50.136570 Z-0.125000
G01 X107.292090 Y50.239550 Z-0.125000
G01 X107.763630 Y50.272050 Z-0.125000
G01 X107.958750 Y50.244950 Z-0.125000
G01 X108.023750 Y50.131130 Z-0.125000
G01 X108.007450 Y50.060630 Z-0.125000
G01 X107.947850 Y50.006430 Z-0.125000
G01 X107.628070 Y49.301820 Z-0.125000
G01 X107.362490 Y48.494230 Z-0.125000
G01 X107.861130 Y48.591830 Z-0.125000
G01 X107.974950 Y48.618930 Z-0.125000
G01 X108.007450 Y48.602630 Z-0.125000
G01 X108.023750 Y48.570130 Z-0.125000
G01 X108.023710 Y48.570370 Z-0.125000
G00 Z5.000000

(End cutting path id: path281700)


(Start cutting path id: path281698)
(Change tool to Default tool)

G00 Z5.000000
G00 X105.096970 Y48.472810

G01 Z-0.125000 F100.0(Penetrate)
G01 X104.934370 Y47.936230 Z-0.125000 F400.000000
G01 X104.446560 Y47.437580 Z-0.125000
G01 X103.649810 Y47.052760 Z-0.125000
G01 X103.725710 Y46.814270 Z-0.125000
G01 X103.801610 Y46.722170 Z-0.125000
G01 X103.861210 Y46.657170 Z-0.125000
G01 X103.796210 Y46.559570 Z-0.125000
G01 X103.671540 Y46.510770 Z-0.125000
G01 X103.498100 Y46.635430 Z-0.125000
G01 X103.427600 Y46.814290 Z-0.125000
G01 X103.395100 Y46.987740 Z-0.125000
G01 X103.357200 Y46.987740 Z-0.125000
G01 X103.275900 Y46.982740 Z-0.125000
G01 X102.912757 Y47.069460 Z-0.125000
G01 X102.636330 Y47.329620 Z-0.125000
G01 X102.408690 Y48.223930 Z-0.125000
G01 X102.500830 Y48.910922 Z-0.125000
G01 X102.777250 Y49.562680 Z-0.125000
G01 X103.213567 Y50.131787 Z-0.125000
G01 X103.774540 Y50.559970 Z-0.125000
G01 X103.872140 Y50.608770 Z-0.125000
G01 X103.964240 Y50.625070 Z-0.125000
G01 X104.067220 Y50.587170 Z-0.125000
G01 X104.116020 Y50.495070 Z-0.125000
G01 X103.975100 Y50.310790 Z-0.125000
G01 X103.370762 Y49.878543 Z-0.125000
G01 X102.966970 Y49.394800 Z-0.125000
G01 X102.743387 Y48.843312 Z-0.125000
G01 X102.668860 Y48.207810 Z-0.125000
G01 X102.836890 Y47.530300 Z-0.125000
G01 X103.060465 Y47.322985 Z-0.125000
G01 X103.395150 Y47.253880 Z-0.125000
G01 X103.617370 Y48.180710 Z-0.125000
G01 X104.050980 Y48.771500 Z-0.125000
G01 X104.598400 Y48.972040 Z-0.125000
G01 X104.966970 Y48.831120 Z-0.125000
G01 X105.097050 Y48.473390 Z-0.125000
G01 X105.096970 Y48.472810 Z-0.125000
G00 Z5.000000

(End cutting path id: path281698)


(Start cutting path id: path281698)
(Change tool to Default tool)

G00 Z5.000000
G00 X104.853070 Y48.424010

G01 Z-0.125000 F100.0(Penetrate)
G01 X104.785318 Y48.643520 Z-0.125000 F400.000000
G01 X104.582060 Y48.716690 Z-0.125000
G01 X104.258215 Y48.623195 Z-0.125000
G01 X103.980440 Y48.342710 Z-0.125000
G01 X103.644390 Y47.291220 Z-0.125000
G01 X104.246020 Y47.562220 Z-0.125000
G01 X104.685040 Y47.990410 Z-0.125000
G01 X104.853070 Y48.424010 Z-0.125000
G01 X104.853070 Y48.424010 Z-0.125000
G00 Z5.000000

(End cutting path id: path281698)


(Start cutting path id: path281734)
(Change tool to Default tool)

G00 Z5.000000
G00 X101.285820 Y40.100700

G01 Z-0.125000 F100.0(Penetrate)
G01 X101.237020 Y40.019400 Z-0.125000 F400.000000
G01 X101.134040 Y39.992300 Z-0.125000
G01 X101.020220 Y40.236200 Z-0.125000
G01 X100.949720 Y41.141350 Z-0.125000
G01 X100.911820 Y41.997720 Z-0.125000
G01 X100.890120 Y42.648120 Z-0.125000
G01 X100.906420 Y42.734820 Z-0.125000
G01 X100.982320 Y42.767320 Z-0.125000
G01 X101.139500 Y42.664330 Z-0.125000
G01 X101.172000 Y42.268670 Z-0.125000
G01 X101.167000 Y41.629100 Z-0.125000
G01 X101.199500 Y40.751050 Z-0.125000
G01 X101.248300 Y40.404170 Z-0.125000
G01 X101.286200 Y40.100650 Z-0.125000
G01 X101.285820 Y40.100700 Z-0.125000
G00 Z5.000000

(End cutting path id: path281734)


(Start cutting path id: path281732)
(Change tool to Default tool)

G00 Z5.000000
G00 X100.128130 Y40.041080

G01 Z-0.125000 F100.0(Penetrate)
G01 X100.084730 Y39.932680 Z-0.125000 F400.000000
G01 X99.970911 Y39.883880 Z-0.125000
G01 X99.878771 Y39.910980 Z-0.125000
G01 X99.840831 Y39.975980 Z-0.125000
G01 X99.851671 Y40.349960 Z-0.125000
G01 X99.878771 Y41.439390 Z-0.125000
G01 X99.792051 Y42.301180 Z-0.125000
G01 X99.591509 Y42.550500 Z-0.125000
G01 X99.304246 Y42.352670 Z-0.125000
G01 X98.951942 Y41.759180 Z-0.125000
G01 X98.209394 Y40.041020 Z-0.125000
G01 X98.133514 Y39.894680 Z-0.125000
G01 X98.041374 Y39.824180 Z-0.125000
G01 X97.922132 Y39.900080 Z-0.125000
G01 X97.895032 Y41.135850 Z-0.125000
G01 X97.851672 Y42.333680 Z-0.125000
G01 X97.759532 Y43.531510 Z-0.125000
G01 X97.716172 Y43.775420 Z-0.125000
G01 X97.775792 Y43.856720 Z-0.125000
G01 X97.927554 Y43.883820 Z-0.125000
G01 X98.035955 Y43.536930 Z-0.125000
G01 X98.090155 Y42.658880 Z-0.125000
G01 X98.095555 Y42.507120 Z-0.125000
G01 X98.111815 Y41.542350 Z-0.125000
G01 X98.117215 Y40.377040 Z-0.125000
G01 X98.583339 Y41.488150 Z-0.125000
G01 X99.092825 Y42.398720 Z-0.125000
G01 X99.369248 Y42.719862 Z-0.125000
G01 X99.623990 Y42.826910 Z-0.125000
G01 X99.970874 Y42.480020 Z-0.125000
G01 X100.111790 Y41.455630 Z-0.125000
G01 X100.122590 Y40.610100 Z-0.125000
G01 X100.128130 Y40.041080 Z-0.125000
G00 Z5.000000

(End cutting path id: path281732)


(Start cutting path id: path281730)
(Change tool to Default tool)

G00 Z5.000000
G00 X97.630418 Y41.087150

G01 Z-0.125000 F100.0(Penetrate)
G01 X97.532858 Y40.892030 Z-0.125000 F400.000000
G01 X96.920392 Y40.290400 Z-0.125000
G01 X96.074863 Y40.003140 Z-0.125000
G01 X95.631773 Y40.072245 Z-0.125000
G01 X95.278114 Y40.279560 Z-0.125000
G01 X95.046407 Y40.627797 Z-0.125000
G01 X94.969171 Y41.108830 Z-0.125000
G01 X95.099253 Y41.954360 Z-0.125000
G01 X95.402776 Y42.772790 Z-0.125000
G01 X95.814700 Y43.358150 Z-0.125000
G01 X96.291665 Y43.591210 Z-0.125000
G01 X96.649389 Y43.423190 Z-0.125000
G01 X96.779470 Y43.005850 Z-0.125000
G01 X96.741530 Y42.816150 Z-0.125000
G01 X96.665650 Y42.658960 Z-0.125000
G01 X96.600610 Y42.593960 Z-0.125000
G01 X96.557250 Y42.642760 Z-0.125000
G01 X96.573510 Y42.713260 Z-0.125000
G01 X96.595190 Y42.810860 Z-0.125000
G01 X96.562670 Y43.065600 Z-0.125000
G01 X96.454269 Y43.233620 Z-0.125000
G01 X96.275407 Y43.304120 Z-0.125000
G01 X95.897358 Y43.115772 Z-0.125000
G01 X95.543699 Y42.550730 Z-0.125000
G01 X95.316057 Y41.867810 Z-0.125000
G01 X95.223917 Y41.136100 Z-0.125000
G01 X95.321477 Y40.691650 Z-0.125000
G01 X95.608740 Y40.371870 Z-0.125000
G01 X96.047764 Y40.252630 Z-0.125000
G01 X96.763212 Y40.442330 Z-0.125000
G01 X97.402779 Y40.930140 Z-0.125000
G01 X97.478659 Y41.049380 Z-0.125000
G01 X97.576219 Y41.163200 Z-0.125000
G01 X97.619579 Y41.146900 Z-0.125000
G01 X97.630419 Y41.087300 Z-0.125000
G01 X97.630418 Y41.087150 Z-0.125000
G00 Z5.000000

(End cutting path id: path281730)


(Start cutting path id: path281517)
(Change tool to Default tool)

G00 Z5.000000
G00 X77.120484 Y47.308200

G01 Z-0.125000 F100.0(Penetrate)
G01 X76.925362 Y46.847500 Z-0.125000 F400.000000
G01 X76.421297 Y46.500620 Z-0.125000
G01 X75.765470 Y46.365110 Z-0.125000
G01 X75.451107 Y46.408510 Z-0.125000
G01 X75.369807 Y46.527760 Z-0.125000
G01 X75.494469 Y46.695780 Z-0.125000
G01 X75.662490 Y46.820440 Z-0.125000
G01 X75.727530 Y46.793340 Z-0.125000
G01 X75.700430 Y46.749940 Z-0.125000
G01 X75.673330 Y46.712040 Z-0.125000
G01 X75.738370 Y46.668640 Z-0.125000
G01 X75.906392 Y46.646940 Z-0.125000
G01 X76.361677 Y46.728240 Z-0.125000
G01 X76.741081 Y46.950460 Z-0.125000
G01 X76.887422 Y47.237720 Z-0.125000
G01 X76.795282 Y47.470790 Z-0.125000
G01 X76.562220 Y47.595450 Z-0.125000
G01 X76.101515 Y47.714690 Z-0.125000
G01 X75.543249 Y47.855610 Z-0.125000
G01 X75.228886 Y48.012790 Z-0.125000
G01 X75.109645 Y48.256690 Z-0.125000
G01 X75.364387 Y48.733660 Z-0.125000
G01 X75.949753 Y49.075120 Z-0.125000
G01 X76.459239 Y49.199780 Z-0.125000
G01 X76.643521 Y49.091380 Z-0.125000
G01 X76.600161 Y48.945040 Z-0.125000
G01 X76.470080 Y48.869140 Z-0.125000
G01 X76.399620 Y48.890840 Z-0.125000
G01 X76.323740 Y48.917940 Z-0.125000
G01 X75.982277 Y48.847440 Z-0.125000
G01 X75.559512 Y48.636060 Z-0.125000
G01 X75.369810 Y48.294590 Z-0.125000
G01 X75.516152 Y48.099470 Z-0.125000
G01 X76.074418 Y47.947710 Z-0.125000
G01 X76.171978 Y47.920610 Z-0.125000
G01 X76.258698 Y47.904310 Z-0.125000
G01 X76.898264 Y47.682090 Z-0.125000
G01 X77.120486 Y47.308100 Z-0.125000
G01 X77.120484 Y47.308200 Z-0.125000
G00 Z5.000000

(End cutting path id: path281517)


(Start cutting path id: path281515)
(Change tool to Default tool)

G00 Z5.000000
G00 X74.729988 Y46.641540

G01 Z-0.125000 F100.0(Penetrate)
G01 X74.681208 Y46.506040 Z-0.125000 F400.000000
G01 X74.545707 Y46.457240 Z-0.125000
G01 X74.345165 Y46.684890 Z-0.125000
G01 X74.236764 Y47.156430 Z-0.125000
G01 X74.204244 Y48.099520 Z-0.125000
G01 X74.198844 Y48.327160 Z-0.125000
G01 X74.193444 Y48.527710 Z-0.125000
G01 X73.765260 Y47.676760 Z-0.125000
G01 X73.217834 Y46.858330 Z-0.125000
G01 X72.773389 Y46.516870 Z-0.125000
G01 X72.534907 Y46.706570 Z-0.125000
G01 X72.480707 Y47.308190 Z-0.125000
G01 X72.578267 Y48.180820 Z-0.125000
G01 X72.811330 Y48.923370 Z-0.125000
G01 X72.903470 Y49.075130 Z-0.125000
G01 X72.990190 Y49.118530 Z-0.125000
G01 X73.125691 Y49.064330 Z-0.125000
G01 X73.071491 Y48.939670 Z-0.125000
G01 X72.816749 Y48.289260 Z-0.125000
G01 X72.708348 Y47.270290 Z-0.125000
G01 X72.827589 Y46.842110 Z-0.125000
G01 X73.206993 Y47.151050 Z-0.125000
G01 X73.689378 Y47.899020 Z-0.125000
G01 X74.052522 Y48.652410 Z-0.125000
G01 X74.150082 Y48.988450 Z-0.125000
G01 X74.182602 Y49.118530 Z-0.125000
G01 X74.220542 Y49.161930 Z-0.125000
G01 X74.350624 Y49.113130 Z-0.125000
G01 X74.421084 Y49.010150 Z-0.125000
G01 X74.437344 Y48.115840 Z-0.125000
G01 X74.486124 Y47.243210 Z-0.125000
G01 X74.562004 Y46.912590 Z-0.125000
G01 X74.675825 Y46.722890 Z-0.125000
G01 X74.730025 Y46.641590 Z-0.125000
G01 X74.729988 Y46.641540 Z-0.125000
G00 Z5.000000

(End cutting path id: path281515)


(Start cutting path id: path281513)
(Change tool to Default tool)

G00 Z5.000000
G00 X70.359644 Y46.695740

G01 Z-0.125000 F100.0(Penetrate)
G01 X70.289184 Y46.609040 Z-0.125000 F400.000000
G01 X70.132002 Y46.576540 Z-0.125000
G01 X70.007341 Y46.728300 Z-0.125000
G01 X69.953141 Y47.199840 Z-0.125000
G01 X69.969401 Y48.679520 Z-0.125000
G01 X69.996501 Y49.985750 Z-0.125000
G01 X70.050701 Y50.278430 Z-0.125000
G01 X70.234983 Y50.413940 Z-0.125000
G01 X70.289183 Y50.365140 Z-0.125000
G01 X70.305443 Y50.191690 Z-0.125000
G01 X70.300043 Y50.153790 Z-0.125000
G01 X70.300043 Y50.050810 Z-0.125000
G01 X70.202483 Y47.270320 Z-0.125000
G01 X70.278363 Y46.901760 Z-0.125000
G01 X70.359663 Y46.695800 Z-0.125000
G01 X70.359644 Y46.695740 Z-0.125000
G00 Z5.000000

(End cutting path id: path281513)


(Start cutting path id: path281511)
(Change tool to Default tool)

G00 Z5.000000
G00 X69.141486 Y46.533140

G01 Z-0.125000 F100.0(Penetrate)
G01 X69.092706 Y46.451840 Z-0.125000 F400.000000
G01 X68.989725 Y46.424740 Z-0.125000
G01 X68.875904 Y46.668650 Z-0.125000
G01 X68.805444 Y47.573800 Z-0.125000
G01 X68.767504 Y48.430170 Z-0.125000
G01 X68.745824 Y49.080570 Z-0.125000
G01 X68.762084 Y49.167270 Z-0.125000
G01 X68.837964 Y49.199770 Z-0.125000
G01 X68.995146 Y49.096790 Z-0.125000
G01 X69.027666 Y48.701130 Z-0.125000
G01 X69.022266 Y48.061560 Z-0.125000
G01 X69.054786 Y47.183510 Z-0.125000
G01 X69.103566 Y46.836630 Z-0.125000
G01 X69.141506 Y46.533110 Z-0.125000
G01 X69.141486 Y46.533140 Z-0.125000
G00 Z5.000000

(End cutting path id: path281511)


(Start cutting path id: path281509)
(Change tool to Default tool)

G00 Z5.000000
G00 X68.023344 Y46.896280

G01 Z-0.125000 F100.0(Penetrate)
G01 X68.066704 Y46.814980 Z-0.125000 F400.000000
G01 X68.104644 Y46.749980 Z-0.125000
G01 X68.050444 Y46.598220 Z-0.125000
G01 X67.942043 Y46.516920 Z-0.125000
G01 X67.801121 Y46.630740 Z-0.125000
G01 X67.752341 Y46.896320 Z-0.125000
G01 X67.768601 Y47.676810 Z-0.125000
G01 X67.774001 Y47.882770 Z-0.125000
G01 X67.708961 Y48.061630 Z-0.125000
G01 X67.253677 Y47.346180 Z-0.125000
G01 X66.717091 Y46.771660 Z-0.125000
G01 X66.034164 Y46.506080 Z-0.125000
G01 X65.763161 Y46.614480 Z-0.125000
G01 X65.671021 Y46.896320 Z-0.125000
G01 X65.866143 Y47.487110 Z-0.125000
G01 X66.364788 Y48.251330 Z-0.125000
G01 X66.971835 Y48.890900 Z-0.125000
G01 X67.291618 Y49.107700 Z-0.125000
G01 X67.503000 Y49.167300 Z-0.125000
G01 X67.681862 Y49.113100 Z-0.125000
G01 X67.839044 Y48.961340 Z-0.125000
G01 X67.904084 Y48.739120 Z-0.125000
G01 X67.811944 Y48.419340 Z-0.125000
G01 X67.904084 Y48.446440 Z-0.125000
G01 X67.974544 Y48.300090 Z-0.125000
G01 X67.985384 Y47.947790 Z-0.125000
G01 X68.001644 Y47.508770 Z-0.125000
G01 X68.012484 Y47.161880 Z-0.125000
G01 X68.023324 Y46.896300 Z-0.125000
G01 X68.023344 Y46.896280 Z-0.125000
G00 Z5.000000

(End cutting path id: path281509)


(Start cutting path id: path281509)
(Change tool to Default tool)

G00 Z5.000000
G00 X66.110064 Y46.798680

G01 Z-0.125000 F100.0(Penetrate)
G01 X66.673750 Y47.015480 Z-0.125000 F400.000000
G01 X67.156135 Y47.530390 Z-0.125000
G01 X67.633100 Y48.272930 Z-0.125000
G01 X67.698140 Y48.625240 Z-0.125000
G01 X67.627680 Y48.820360 Z-0.125000
G01 X67.448818 Y48.907060 Z-0.125000
G01 X67.101934 Y48.722780 Z-0.125000
G01 X66.587029 Y48.169930 Z-0.125000
G01 X66.137164 Y47.492430 Z-0.125000
G01 X65.958302 Y46.961260 Z-0.125000
G01 X66.110064 Y46.798660 Z-0.125000
G01 X66.110064 Y46.798680 Z-0.125000
G00 Z5.000000

(End cutting path id: path281509)


(Start cutting path id: path281507)
(Change tool to Default tool)

G00 Z5.000000
G00 X65.145041 Y46.603600

G01 Z-0.125000 F100.0(Penetrate)
G01 X65.101681 Y46.495200 Z-0.125000 F400.000000
G01 X64.987859 Y46.446400 Z-0.125000
G01 X64.890299 Y46.544000 Z-0.125000
G01 X64.819839 Y48.218790 Z-0.125000
G01 X64.723633 Y48.657817 Z-0.125000
G01 X64.575936 Y48.804160 Z-0.125000
G01 X64.215502 Y48.293320 Z-0.125000
G01 X63.719567 Y46.760800 Z-0.125000
G01 X63.719567 Y46.755800 Z-0.125000
G01 X63.676207 Y46.641980 Z-0.125000
G01 X63.562386 Y46.598580 Z-0.125000
G01 X63.464826 Y46.696180 Z-0.125000
G01 X63.486506 Y47.368260 Z-0.125000
G01 X63.508186 Y48.170430 Z-0.125000
G01 X63.481086 Y48.744960 Z-0.125000
G01 X63.378105 Y48.918400 Z-0.125000
G01 X63.169433 Y48.749022 Z-0.125000
G01 X62.911980 Y48.240890 Z-0.125000
G01 X62.321194 Y46.652820 Z-0.125000
G01 X62.272414 Y46.511900 Z-0.125000
G01 X62.207374 Y46.419700 Z-0.125000
G01 X62.120654 Y46.381800 Z-0.125000
G01 X62.033934 Y46.392600 Z-0.125000
G01 X62.006834 Y46.457600 Z-0.125000
G01 X61.963474 Y47.167630 Z-0.125000
G01 X61.941794 Y47.541620 Z-0.125000
G01 X61.844234 Y48.777390 Z-0.125000
G01 X61.800874 Y49.140530 Z-0.125000
G01 X61.844234 Y49.243510 Z-0.125000
G01 X61.925534 Y49.303110 Z-0.125000
G01 X62.066455 Y49.178450 Z-0.125000
G01 X62.126075 Y48.701490 Z-0.125000
G01 X62.180275 Y47.666260 Z-0.125000
G01 X62.207375 Y46.836990 Z-0.125000
G01 X62.825261 Y48.506370 Z-0.125000
G01 X63.131494 Y49.071405 Z-0.125000
G01 X63.410627 Y49.259750 Z-0.125000
G01 X63.654530 Y48.999590 Z-0.125000
G01 X63.719570 Y48.246200 Z-0.125000
G01 X63.708730 Y47.498240 Z-0.125000
G01 X63.703330 Y47.248910 Z-0.125000
G01 X64.142355 Y48.549730 Z-0.125000
G01 X64.364577 Y48.944035 Z-0.125000
G01 X64.586799 Y49.075470 Z-0.125000
G01 X64.831040 Y48.920999 Z-0.125000
G01 X65.005499 Y48.457585 Z-0.125000
G01 X65.145065 Y46.603930 Z-0.125000
G01 X65.145041 Y46.603600 Z-0.125000
G00 Z5.000000

(End cutting path id: path281507)


(Start cutting path id: path281505)
(Change tool to Default tool)

G00 Z5.000000
G00 X61.254289 Y47.931510

G01 Z-0.125000 F100.0(Penetrate)
G01 X61.292229 Y47.850210 Z-0.125000 F400.000000
G01 X61.145888 Y47.422020 Z-0.125000
G01 X60.712283 Y46.809560 Z-0.125000
G01 X60.391145 Y46.598180 Z-0.125000
G01 X60.002256 Y46.527720 Z-0.125000
G01 X59.422310 Y46.744520 Z-0.125000
G01 X59.189247 Y47.411180 Z-0.125000
G01 X59.384370 Y48.245870 Z-0.125000
G01 X59.893855 Y48.923380 Z-0.125000
G01 X60.544262 Y49.188960 Z-0.125000
G01 X60.880305 Y49.096860 Z-0.125000
G01 X61.021227 Y48.842120 Z-0.125000
G01 X60.804424 Y48.473560 Z-0.125000
G01 X60.251579 Y48.159190 Z-0.125000
G01 X59.546971 Y47.964070 Z-0.125000
G01 X59.481931 Y47.476270 Z-0.125000
G01 X59.628272 Y46.988460 Z-0.125000
G01 X60.056456 Y46.815020 Z-0.125000
G01 X60.434506 Y46.889545 Z-0.125000
G01 X60.733964 Y47.113120 Z-0.125000
G01 X61.167568 Y47.785210 Z-0.125000
G01 X61.205508 Y47.866510 Z-0.125000
G01 X61.254288 Y47.931510 Z-0.125000
G01 X61.254289 Y47.931510 Z-0.125000
G00 Z5.000000

(End cutting path id: path281505)


(Start cutting path id: path281505)
(Change tool to Default tool)

G00 Z5.000000
G00 X60.777324 Y48.782460

G01 Z-0.125000 F100.0(Penetrate)
G01 X60.685184 Y48.917960 Z-0.125000 F400.000000
G01 X60.479222 Y48.966760 Z-0.125000
G01 X60.083558 Y48.831260 Z-0.125000
G01 X59.763774 Y48.506060 Z-0.125000
G01 X59.601173 Y48.170010 Z-0.125000
G01 X60.126918 Y48.310930 Z-0.125000
G01 X60.587623 Y48.560260 Z-0.125000
G01 X60.777325 Y48.782480 Z-0.125000
G01 X60.777324 Y48.782460 Z-0.125000
G00 Z5.000000

(End cutting path id: path281505)


(Start cutting path id: path281503)
(Change tool to Default tool)

G00 Z5.000000
G00 X57.264195 Y48.831240

G01 Z-0.125000 F100.0(Penetrate)
G01 X57.193735 Y48.717420 Z-0.125000 F400.000000
G01 X57.079914 Y48.657820 Z-0.125000
G01 X57.004034 Y48.690320 Z-0.125000
G01 X56.928154 Y48.782420 Z-0.125000
G01 X56.825173 Y48.874520 Z-0.125000
G01 X56.700512 Y48.912420 Z-0.125000
G01 X56.277748 Y48.495080 Z-0.125000
G01 X55.757422 Y47.454430 Z-0.125000
G01 X55.773682 Y47.140060 Z-0.125000
G01 X55.795362 Y46.858220 Z-0.125000
G01 X55.811622 Y46.641420 Z-0.125000
G01 X55.779102 Y46.511340 Z-0.125000
G01 X55.659861 Y46.451740 Z-0.125000
G01 X55.540620 Y46.695650 Z-0.125000
G01 X55.508100 Y47.416510 Z-0.125000
G01 X55.497260 Y47.757980 Z-0.125000
G01 X55.486420 Y48.289140 Z-0.125000
G01 X55.470160 Y48.955810 Z-0.125000
G01 X55.621922 Y49.080470 Z-0.125000
G01 X55.730323 Y48.999170 Z-0.125000
G01 X55.752003 Y48.701070 Z-0.125000
G01 X55.752003 Y47.839280 Z-0.125000
G01 X56.104307 Y48.560150 Z-0.125000
G01 X56.472871 Y49.020850 Z-0.125000
G01 X56.798074 Y49.183450 Z-0.125000
G01 X57.025716 Y49.129250 Z-0.125000
G01 X57.199158 Y48.988330 Z-0.125000
G01 X57.264198 Y48.831150 Z-0.125000
G01 X57.264195 Y48.831240 Z-0.125000
G00 Z5.000000

(End cutting path id: path281503)


(Start cutting path id: path281501)
(Change tool to Default tool)

G00 Z5.000000
G00 X54.826271 Y48.771620

G01 Z-0.125000 F100.0(Penetrate)
G01 X54.747680 Y48.225547 Z-0.125000 F400.000000
G01 X54.511908 Y47.703870 Z-0.125000
G01 X53.704320 Y46.880020 Z-0.125000
G01 X53.208385 Y46.644250 Z-0.125000
G01 X52.707029 Y46.565660 Z-0.125000
G01 X52.154184 Y46.684900 Z-0.125000
G01 X51.731419 Y47.048040 Z-0.125000
G01 X51.568818 Y47.622570 Z-0.125000
G01 X51.866921 Y48.809560 Z-0.125000
G01 X52.696189 Y49.969450 Z-0.125000
G01 X52.799170 Y50.034450 Z-0.125000
G01 X52.912992 Y50.050750 Z-0.125000
G01 X53.015973 Y50.023650 Z-0.125000
G01 X53.070173 Y49.958650 Z-0.125000
G01 X53.048493 Y49.893650 Z-0.125000
G01 X53.026813 Y49.844850 Z-0.125000
G01 X53.102693 Y49.849850 Z-0.125000
G01 X53.286974 Y49.860650 Z-0.125000
G01 X53.709739 Y49.806450 Z-0.125000
G01 X54.105403 Y49.703470 Z-0.125000
G01 X54.641989 Y49.296960 Z-0.125000
G01 X54.826270 Y48.771220 Z-0.125000
G01 X54.826271 Y48.771620 Z-0.125000
G00 Z5.000000

(End cutting path id: path281501)


(Start cutting path id: path281501)
(Change tool to Default tool)

G00 Z5.000000
G00 X54.593209 Y48.657800

G01 Z-0.125000 F100.0(Penetrate)
G01 X54.446867 Y49.167280 Z-0.125000 F400.000000
G01 X54.013263 Y49.497910 Z-0.125000
G01 X53.617599 Y49.568410 Z-0.125000
G01 X53.411637 Y49.557610 Z-0.125000
G01 X53.211095 Y49.552610 Z-0.125000
G01 X52.950932 Y49.661010 Z-0.125000
G01 X52.956332 Y49.731510 Z-0.125000
G01 X52.967172 Y49.774910 Z-0.125000
G01 X52.782890 Y49.709910 Z-0.125000
G01 X52.094543 Y48.728880 Z-0.125000
G01 X51.856061 Y47.715330 Z-0.125000
G01 X52.083703 Y47.043240 Z-0.125000
G01 X52.717850 Y46.837280 Z-0.125000
G01 X53.606739 Y47.097440 Z-0.125000
G01 X54.316766 Y47.780370 Z-0.125000
G01 X54.593189 Y48.658420 Z-0.125000
G01 X54.593209 Y48.657800 Z-0.125000
G00 Z5.000000

(End cutting path id: path281501)


(Start cutting path id: path281499)
(Change tool to Default tool)

G00 Z5.000000
G00 X49.524608 Y49.454550

G01 Z-0.125000 F100.0(Penetrate)
G01 X49.399947 Y49.085980 Z-0.125000 F400.000000
G01 X49.058483 Y48.722840 Z-0.125000
G01 X48.901302 Y48.581920 Z-0.125000
G01 X48.733280 Y48.435580 Z-0.125000
G01 X48.505638 Y48.186250 Z-0.125000
G01 X48.413498 Y47.915250 Z-0.125000
G01 X48.473118 Y47.633410 Z-0.125000
G01 X48.500218 Y47.568410 Z-0.125000
G01 X48.521898 Y47.497910 Z-0.125000
G01 X48.478538 Y47.394920 Z-0.125000
G01 X48.380978 Y47.357020 Z-0.125000
G01 X48.223797 Y47.497950 Z-0.125000
G01 X48.115396 Y47.915290 Z-0.125000
G01 X48.202116 Y48.207970 Z-0.125000
G01 X48.380978 Y48.430200 Z-0.125000
G01 X48.668241 Y48.684940 Z-0.125000
G01 X48.863363 Y48.852960 Z-0.125000
G01 X49.107266 Y49.129380 Z-0.125000
G01 X49.193986 Y49.400390 Z-0.125000
G01 X49.115395 Y49.591445 Z-0.125000
G01 X48.879623 Y49.655130 Z-0.125000
G01 X48.391817 Y49.557530 Z-0.125000
G01 X47.866072 Y49.324460 Z-0.125000
G01 X47.513768 Y49.069720 Z-0.125000
G01 X47.405367 Y48.983020 Z-0.125000
G01 X47.324067 Y48.945120 Z-0.125000
G01 X47.183146 Y48.999320 Z-0.125000
G01 X47.112686 Y49.129400 Z-0.125000
G01 X47.145206 Y49.183600 Z-0.125000
G01 X47.215666 Y49.232400 Z-0.125000
G01 X47.296966 Y49.286600 Z-0.125000
G01 X48.099134 Y49.731050 Z-0.125000
G01 X48.917563 Y49.937010 Z-0.125000
G01 X49.356587 Y49.806930 Z-0.125000
G01 X49.524609 Y49.454630 Z-0.125000
G01 X49.524608 Y49.454550 Z-0.125000
G00 Z5.000000

(End cutting path id: path281499)


(Start cutting path id: path281499)
(Change tool to Default tool)

G00 Z5.000000
G00 X48.814581 Y46.880020

G01 Z-0.125000 F100.0(Penetrate)
G01 X48.760381 Y46.722840 Z-0.125000 F400.000000
G01 X48.624880 Y46.560240 Z-0.125000
G01 X48.467698 Y46.495240 Z-0.125000
G01 X48.305096 Y46.548085 Z-0.125000
G01 X48.250896 Y46.706620 Z-0.125000
G01 X48.364717 Y46.918000 Z-0.125000
G01 X48.603200 Y47.031820 Z-0.125000
G01 X48.814582 Y46.880060 Z-0.125000
G01 X48.814581 Y46.880020 Z-0.125000
G00 Z5.000000

(End cutting path id: path281499)


(Start cutting path id: path281497)
(Change tool to Default tool)

G00 Z5.000000
G00 X46.635464 Y49.394930

G01 Z-0.125000 F100.0(Penetrate)
G01 X46.516223 Y49.151020 Z-0.125000 F400.000000
G01 X46.440343 Y49.010100 Z-0.125000
G01 X46.478283 Y47.465390 Z-0.125000
G01 X46.510803 Y46.321750 Z-0.125000
G01 X46.440343 Y46.159150 Z-0.125000
G01 X46.310262 Y46.083250 Z-0.125000
G01 X46.201860 Y46.110350 Z-0.125000
G01 X46.169340 Y46.186250 Z-0.125000
G01 X46.180180 Y46.348850 Z-0.125000
G01 X46.212700 Y46.880020 Z-0.125000
G01 X46.196440 Y48.137470 Z-0.125000
G01 X46.191040 Y48.614440 Z-0.125000
G01 X45.676135 Y47.888150 Z-0.125000
G01 X45.144969 Y47.400340 Z-0.125000
G01 X44.505403 Y47.205220 Z-0.125000
G01 X44.001338 Y47.405760 Z-0.125000
G01 X43.827896 Y47.942350 Z-0.125000
G01 X44.125999 Y48.934220 Z-0.125000
G01 X44.895647 Y49.774330 Z-0.125000
G01 X45.368547 Y50.022295 Z-0.125000
G01 X45.844157 Y50.104950 Z-0.125000
G01 X46.250661 Y49.947770 Z-0.125000
G01 X46.467463 Y49.562950 Z-0.125000
G01 X46.581284 Y49.508750 Z-0.125000
G01 X46.635484 Y49.394930 Z-0.125000
G01 X46.635464 Y49.394930 Z-0.125000
G00 Z5.000000

(End cutting path id: path281497)


(Start cutting path id: path281497)
(Change tool to Default tool)

G00 Z5.000000
G00 X44.565002 Y47.503330

G01 Z-0.125000 F100.0(Penetrate)
G01 X45.090748 Y47.703870 Z-0.125000 F400.000000
G01 X45.573133 Y48.202510 Z-0.125000
G01 X46.098878 Y48.972160 Z-0.125000
G01 X46.218120 Y49.151020 Z-0.125000
G01 X46.218120 Y49.156020 Z-0.125000
G01 X46.234380 Y49.296940 Z-0.125000
G01 X46.098878 Y49.676350 Z-0.125000
G01 X45.708634 Y49.822690 Z-0.125000
G01 X44.998607 Y49.530010 Z-0.125000
G01 X44.369880 Y48.798300 Z-0.125000
G01 X44.115138 Y47.936510 Z-0.125000
G01 X44.234379 Y47.632990 Z-0.125000
G01 X44.565002 Y47.502910 Z-0.125000
G01 X44.565002 Y47.503330 Z-0.125000
G00 Z5.000000

(End cutting path id: path281497)


(Start cutting path id: path281495)
(Change tool to Default tool)

G00 Z5.000000
G00 X43.559583 Y46.614440

G01 Z-0.125000 F100.0(Penetrate)
G01 X43.489123 Y46.495200 Z-0.125000 F400.000000
G01 X43.310261 Y46.413900 Z-0.125000
G01 X42.659855 Y46.327200 Z-0.125000
G01 X42.128689 Y46.251300 Z-0.125000
G01 X41.700505 Y46.186300 Z-0.125000
G01 X41.142239 Y46.110400 Z-0.125000
G01 X40.676114 Y46.083300 Z-0.125000
G01 X40.502672 Y46.148300 Z-0.125000
G01 X40.426792 Y46.332580 Z-0.125000
G01 X40.448472 Y46.435560 Z-0.125000
G01 X40.518932 Y46.527660 Z-0.125000
G01 X41.055518 Y47.091340 Z-0.125000
G01 X41.613784 Y47.736330 Z-0.125000
G01 X42.112429 Y48.430100 Z-0.125000
G01 X42.280451 Y49.026300 Z-0.125000
G01 X42.112429 Y49.459910 Z-0.125000
G01 X41.684244 Y49.617090 Z-0.125000
G01 X41.331941 Y49.557490 Z-0.125000
G01 X40.909176 Y49.346100 Z-0.125000
G01 X40.768255 Y49.248500 Z-0.125000
G01 X40.670695 Y49.172600 Z-0.125000
G01 X40.518933 Y49.058780 Z-0.125000
G01 X40.410532 Y49.009980 Z-0.125000
G01 X40.280451 Y49.156320 Z-0.125000
