%
(Header)
(Generated by gcodetools from Inkscape.)
(Using default header. To add your own header create file "header" in the output dir.)
M3
(Header end.)
G21 (All units in mm)

(Start cutting path id: path3643)
(Change tool to Default tool)

G00 Z5.000000
G00 X143.755330 Y12.742912

G01 Z-0.125000 F100.0(Penetrate)
G01 X143.918313 Y12.776250 Z-0.125000 F400.000000
G00 Z5.000000

(End cutting path id: path3643)


(Start cutting path id: path3642)
(Change tool to Default tool)

G00 Z5.000000
G00 X138.552646 Y17.606468

G01 Z-0.125000 F100.0(Penetrate)
G01 X138.425646 Y12.810116 Z-0.125000 F400.000000
G01 X138.753728 Y15.510974 Z-0.125000
G01 X139.558059 Y16.548138 Z-0.125000
G01 X140.584639 Y17.140803 Z-0.125000
G01 X141.420720 Y17.479468 Z-0.125000
G01 X141.791136 Y17.511218 Z-0.125000
G01 X142.891799 Y17.405385 Z-0.125000
G01 X143.018798 Y17.310135 Z-0.125000
G00 Z5.000000

(End cutting path id: path3642)


(Start cutting path id: path3641)
(Change tool to Default tool)

G00 Z5.000000
G00 X137.144548 Y19.543212

G01 Z-0.125000 F100.0(Penetrate)
G01 X136.985799 Y16.738637 Z-0.125000 F400.000000
G01 X136.911716 Y14.939476 Z-0.125000
G01 X136.985799 Y13.476864 Z-0.125000
G01 X137.017549 Y12.842924 Z-0.125000
G01 X136.954049 Y14.579644 Z-0.125000
G01 X135.980385 Y13.543539 Z-0.125000
G01 X134.414057 Y12.842924 Z-0.125000
G01 X133.313394 Y12.776250 Z-0.125000
G01 X132.551396 Y13.210165 Z-0.125000
G01 X132.314330 Y14.346811 Z-0.125000
G01 X132.879478 Y15.447474 Z-0.125000
G01 X134.244724 Y16.378805 Z-0.125000
G01 X135.482970 Y16.579888 Z-0.125000
G01 X136.414301 Y16.442305 Z-0.125000
G01 X137.017549 Y15.807307 Z-0.125000
G00 Z5.000000

(End cutting path id: path3641)


(Start cutting path id: path3640)
(Change tool to Default tool)

G00 Z5.000000
G00 X129.513714 Y19.479712

G01 Z-0.125000 F100.0(Penetrate)
G01 X129.111549 Y19.839544 Z-0.125000 F400.000000
G01 X128.106135 Y19.977127 Z-0.125000
G01 X126.846722 Y19.574961 Z-0.125000
G01 X125.703726 Y18.781214 Z-0.125000
G01 X125.005228 Y17.775801 Z-0.125000
G01 X124.645396 Y16.907970 Z-0.125000
G01 X124.476063 Y15.944890 Z-0.125000
G01 X124.444313 Y14.939476 Z-0.125000
G01 X124.973478 Y14.008146 Z-0.125000
G01 X125.640226 Y13.309648 Z-0.125000
G01 X126.444557 Y12.943466 Z-0.125000
G01 X127.513470 Y12.810116 Z-0.125000
G01 X128.804633 Y13.009082 Z-0.125000
G01 X129.841796 Y13.543539 Z-0.125000
G01 X130.741377 Y14.240978 Z-0.125000
G01 X131.376375 Y14.780727 Z-0.125000
G00 Z5.000000

(End cutting path id: path3640)


(Start cutting path id: path3639)
(Change tool to Default tool)

G00 Z5.000000
G00 X115.216479 Y15.775557

G01 Z-0.125000 F100.0(Penetrate)
G01 X116.549975 Y15.807307 Z-0.125000 F400.000000
G01 X118.084553 Y15.839057 Z-0.125000
G01 X119.079383 Y16.008389 Z-0.125000
G01 X119.248716 Y16.378805 Z-0.125000
G01 X119.111133 Y16.738637 Z-0.125000
G01 X118.243302 Y17.511218 Z-0.125000
G01 X117.142639 Y17.511218 Z-0.125000
G01 X116.147809 Y17.140803 Z-0.125000
G01 X115.449311 Y16.505805 Z-0.125000
G01 X114.941313 Y15.214642 Z-0.125000
G01 X114.778330 Y14.442061 Z-0.125000
G01 X114.745522 Y13.912896 Z-0.125000
G01 X115.311728 Y13.176298 Z-0.125000
G01 X116.243059 Y12.709575 Z-0.125000
G01 X117.311972 Y12.776250 Z-0.125000
G01 X118.444385 Y13.042949 Z-0.125000
G01 X119.248716 Y13.442997 Z-0.125000
G01 X119.545048 Y13.807063 Z-0.125000
G00 Z5.000000

(End cutting path id: path3639)


(Start cutting path id: path3638)
(Change tool to Default tool)

G00 Z5.000000
G00 X113.046549 Y17.045553

G01 Z-0.125000 F100.0(Penetrate)
G01 X112.707883 Y17.341885 Z-0.125000 F400.000000
G01 X111.713053 Y17.447718 Z-0.125000
G01 X110.644140 Y17.045553 Z-0.125000
G01 X109.744559 Y16.378805 Z-0.125000
G01 X108.770896 Y15.108809 Z-0.125000
G01 X108.474563 Y13.775313 Z-0.125000
G01 X109.109561 Y13.009082 Z-0.125000
G01 X110.411307 Y12.609563 Z-0.125000
G01 X111.808303 Y12.676237 Z-0.125000
G01 X112.803133 Y12.909599 Z-0.125000
G01 X113.872046 Y13.476864 Z-0.125000
G00 Z5.000000

(End cutting path id: path3638)


(Start cutting path id: path3637)
(Change tool to Default tool)

G00 Z5.000000
G00 X106.876477 Y17.373635

G01 Z-0.125000 F100.0(Penetrate)
G01 X106.971726 Y13.109624 Z-0.125000 F400.000000
G01 X107.172809 Y12.909599 Z-0.125000
G00 Z5.000000

(End cutting path id: path3637)


(Start cutting path id: path3637)
(Change tool to Default tool)

G00 Z5.000000
G00 X106.611894 Y19.373879

G01 Z-0.125000 F100.0(Penetrate)
G01 X106.802393 Y19.373879 Z-0.125000 F400.000000
G00 Z5.000000

(End cutting path id: path3637)


(Start cutting path id: path3636)
(Change tool to Default tool)

G00 Z5.000000
G00 X98.907280 Y19.649045

G01 Z-0.125000 F100.0(Penetrate)
G01 X101.870604 Y13.109624 Z-0.125000 F400.000000
G01 X102.272770 Y13.042949 Z-0.125000
G01 X103.574516 Y16.347055 Z-0.125000
G01 X105.077344 Y19.744294 Z-0.125000
G00 Z5.000000

(End cutting path id: path3636)


(Start cutting path id: path3612)
(Change tool to Default tool)

G00 Z5.000000
G00 X106.876546 Y30.741218

G01 Z-0.125000 F100.0(Penetrate)
G01 X106.611963 Y29.206639 Z-0.125000 F400.000000
G01 X106.516713 Y27.439228 Z-0.125000
G01 X106.918879 Y26.406298 Z-0.125000
G01 X107.744376 Y25.972912 Z-0.125000
G01 X109.151955 Y26.072924 Z-0.125000
G01 X109.945702 Y26.572456 Z-0.125000
G01 X110.379618 Y26.773539 Z-0.125000
G01 X110.813533 Y27.375729 Z-0.125000
G01 X111.120449 Y28.010727 Z-0.125000
G01 X110.877033 Y30.868218 Z-0.125000
G01 X111.215699 Y26.006250 Z-0.125000
G00 Z5.000000

(End cutting path id: path3612)


(Start cutting path id: path3614)
(Change tool to Default tool)

G00 Z5.000000
G00 X113.617646 Y30.836468

G01 Z-0.125000 F100.0(Penetrate)
G01 X113.490646 Y26.040116 Z-0.125000 F400.000000
G01 X113.818728 Y28.740974 Z-0.125000
G01 X114.623059 Y29.778138 Z-0.125000
G01 X115.649639 Y30.370803 Z-0.125000
G01 X116.485720 Y30.709468 Z-0.125000
G01 X116.856135 Y30.741218 Z-0.125000
G01 X117.956799 Y30.635385 Z-0.125000
G01 X118.083798 Y30.540135 Z-0.125000
G00 Z5.000000

(End cutting path id: path3614)


(Start cutting path id: path3615)
(Change tool to Default tool)

G00 Z5.000000
G00 X119.258479 Y29.005557

G01 Z-0.125000 F100.0(Penetrate)
G01 X120.591975 Y29.037307 Z-0.125000 F400.000000
G01 X122.126553 Y29.069057 Z-0.125000
G01 X123.121383 Y29.238389 Z-0.125000
G01 X123.290716 Y29.608805 Z-0.125000
G01 X123.153133 Y29.968637 Z-0.125000
G01 X122.285303 Y30.741218 Z-0.125000
G01 X121.184639 Y30.741218 Z-0.125000
G01 X120.189809 Y30.370803 Z-0.125000
G01 X119.491311 Y29.735805 Z-0.125000
G01 X118.983313 Y28.444642 Z-0.125000
G01 X118.820330 Y27.672061 Z-0.125000
G01 X118.787522 Y27.142896 Z-0.125000
G01 X119.353728 Y26.406298 Z-0.125000
G01 X120.285059 Y25.939575 Z-0.125000
G01 X121.353972 Y26.006250 Z-0.125000
G01 X122.486385 Y26.272949 Z-0.125000
G01 X123.290716 Y26.672997 Z-0.125000
G01 X123.587048 Y27.037063 Z-0.125000
G00 Z5.000000

(End cutting path id: path3615)


(Start cutting path id: path3616)
(Change tool to Default tool)

G00 Z5.000000
G00 X133.281548 Y32.773212

G01 Z-0.125000 F100.0(Penetrate)
G01 X133.122799 Y29.968637 Z-0.125000 F400.000000
G01 X133.048716 Y28.169476 Z-0.125000
G01 X133.122799 Y26.706864 Z-0.125000
G01 X133.154549 Y26.072924 Z-0.125000
G01 X133.091049 Y27.809644 Z-0.125000
G01 X132.117385 Y26.773539 Z-0.125000
G01 X130.551057 Y26.072924 Z-0.125000
G01 X129.450394 Y26.006250 Z-0.125000
G01 X128.688396 Y26.440165 Z-0.125000
G01 X128.451330 Y27.576811 Z-0.125000
G01 X129.016478 Y28.677475 Z-0.125000
G01 X130.381724 Y29.608805 Z-0.125000
G01 X131.619970 Y29.809888 Z-0.125000
G01 X132.551300 Y29.672305 Z-0.125000
G01 X133.154549 Y29.037307 Z-0.125000
G00 Z5.000000

(End cutting path id: path3616)


(Start cutting path id: path3617)
(Change tool to Default tool)

G00 Z5.000000
G00 X136.986222 Y30.836468

G01 Z-0.125000 F100.0(Penetrate)
G01 X135.652726 Y30.243803 Z-0.125000 F400.000000
G01 X134.954228 Y29.238389 Z-0.125000
G01 X134.488563 Y28.243559 Z-0.125000
G01 X134.721396 Y26.906888 Z-0.125000
G01 X135.155311 Y26.173466 Z-0.125000
G01 X136.562890 Y25.939575 Z-0.125000
G01 X137.727053 Y26.239082 Z-0.125000
G01 X138.922966 Y27.005313 Z-0.125000
G01 X139.589714 Y28.243559 Z-0.125000
G01 X139.356881 Y29.778138 Z-0.125000
G01 X138.827716 Y30.370803 Z-0.125000
G01 X138.224468 Y30.741218 Z-0.125000
G01 X136.986222 Y30.836468 Z-0.125000
G00 Z5.000000

(End cutting path id: path3617)


(Start cutting path id: path3618)
(Change tool to Default tool)

G00 Z5.000000
G00 X141.356977 Y30.603635

G01 Z-0.125000 F100.0(Penetrate)
G01 X141.452226 Y26.339624 Z-0.125000 F400.000000
G01 X141.653309 Y26.139599 Z-0.125000
G00 Z5.000000

(End cutting path id: path3618)


(Start cutting path id: path3619)
(Change tool to Default tool)

G00 Z5.000000
G00 X142.821714 Y30.635385

G01 Z-0.125000 F100.0(Penetrate)
G01 X142.854522 Y26.072924 Z-0.125000 F400.000000
G01 X142.821714 Y29.301889 Z-0.125000
G01 X144.055726 Y30.106220 Z-0.125000
G01 X145.251639 Y30.677718 Z-0.125000
G01 X146.024220 Y30.741218 Z-0.125000
G01 X146.585135 Y30.677718 Z-0.125000
G01 X146.955551 Y30.275553 Z-0.125000
G01 X147.220133 Y29.111390 Z-0.125000
G01 X147.188383 Y25.972912 Z-0.125000
G00 Z5.000000

(End cutting path id: path3619)


(Start cutting path id: path3620)
(Change tool to Default tool)

G00 Z5.000000
G00 X152.850548 Y28.635141

G01 Z-0.125000 F100.0(Penetrate)
G01 X152.152050 Y27.439228 Z-0.125000 F400.000000
G01 X150.892638 Y26.440165 Z-0.125000
G01 X149.516809 Y25.939575 Z-0.125000
G01 X148.553728 Y25.939575 Z-0.125000
G01 X148.257396 Y26.440165 Z-0.125000
G01 X148.659561 Y27.703811 Z-0.125000
G01 X149.654392 Y29.206639 Z-0.125000
G01 X150.786805 Y30.137970 Z-0.125000
G01 X151.517052 Y30.508385 Z-0.125000
G01 X152.257883 Y30.402552 Z-0.125000
G01 X152.850548 Y29.936887 Z-0.125000
G01 X153.019881 Y25.206152 Z-0.125000
G01 X152.892881 Y23.608074 Z-0.125000
G01 X152.522466 Y22.602660 Z-0.125000
G01 X152.056801 Y21.935912 Z-0.125000
G01 X151.622885 Y21.576080 Z-0.125000
G01 X151.051387 Y21.470247 Z-0.125000
G01 X150.617472 Y21.438497 Z-0.125000
G01 X149.421559 Y21.470247 Z-0.125000
G00 Z5.000000

(End cutting path id: path3620)


(Start cutting path id: path3621)
(Change tool to Default tool)

G00 Z5.000000
G00 X156.215639 Y26.072924

G01 Z-0.125000 F100.0(Penetrate)
G01 X156.480222 Y26.072924 Z-0.125000 F400.000000
G00 Z5.000000

(End cutting path id: path3621)


(Start cutting path id: path3621)
(Change tool to Default tool)

G00 Z5.000000
G00 X153.818522 Y32.709712

G01 Z-0.125000 F100.0(Penetrate)
G01 X154.882144 Y32.942544 Z-0.125000 F400.000000
G01 X156.056890 Y33.069544 Z-0.125000
G01 X156.882387 Y33.069544 Z-0.125000
G01 X157.750218 Y32.804961 Z-0.125000
G01 X158.321716 Y32.445129 Z-0.125000
G01 X158.491049 Y31.968881 Z-0.125000
G01 X158.416966 Y31.439716 Z-0.125000
G01 X157.951301 Y30.974051 Z-0.125000
G01 X157.348052 Y30.508385 Z-0.125000
G01 X156.215639 Y29.735805 Z-0.125000
G01 X155.083226 Y29.206639 Z-0.125000
G01 X155.316059 Y28.942057 Z-0.125000
G01 X155.982807 Y28.804474 Z-0.125000
G01 X156.554305 Y28.804474 Z-0.125000
G00 Z5.000000

(End cutting path id: path3621)


(Start cutting path id: path3618)
(Change tool to Default tool)

G00 Z5.000000
G00 X141.092394 Y32.603879

G01 Z-0.125000 F100.0(Penetrate)
G01 X141.282893 Y32.603879 Z-0.125000 F400.000000
G00 Z5.000000

(End cutting path id: path3618)


(Start cutting path id: path3595)
(Change tool to Default tool)

G00 Z5.000000
G00 X133.855049 Y42.033474

G01 Z-0.125000 F100.0(Penetrate)
G01 X133.251801 Y40.699978 Z-0.125000 F400.000000
G01 X132.278137 Y39.801456 Z-0.125000
G01 X131.579639 Y39.402466 Z-0.125000
G01 X130.912891 Y39.168575 Z-0.125000
G01 X129.981561 Y39.269116 Z-0.125000
G01 X129.484146 Y39.601432 Z-0.125000
G01 X129.346563 Y40.636479 Z-0.125000
G01 X129.854561 Y41.673642 Z-0.125000
G01 X130.510726 Y42.668472 Z-0.125000
G01 X131.579639 Y43.398720 Z-0.125000
G01 X132.383970 Y43.769135 Z-0.125000
G01 X132.987218 Y43.769135 Z-0.125000
G01 X133.717466 Y43.631552 Z-0.125000
G01 X133.855049 Y43.134137 Z-0.125000
G01 X133.982048 Y39.135237 Z-0.125000
G00 Z5.000000

(End cutting path id: path3595)


(Start cutting path id: path3596)
(Change tool to Default tool)

G00 Z5.000000
G00 X134.780714 Y43.864385

G01 Z-0.125000 F100.0(Penetrate)
G01 X134.813522 Y39.301924 Z-0.125000 F400.000000
G01 X134.780714 Y42.530889 Z-0.125000
G01 X136.014726 Y43.335220 Z-0.125000
G01 X137.210639 Y43.906718 Z-0.125000
G01 X137.983220 Y43.970218 Z-0.125000
G01 X138.544135 Y43.906718 Z-0.125000
G01 X138.914551 Y43.504553 Z-0.125000
G01 X139.179133 Y42.340390 Z-0.125000
G01 X139.147383 Y39.201912 Z-0.125000
G00 Z5.000000

(End cutting path id: path3596)


(Start cutting path id: path3597)
(Change tool to Default tool)

G00 Z5.000000
G00 X144.809548 Y46.002212

G01 Z-0.125000 F100.0(Penetrate)
G01 X144.650799 Y43.197637 Z-0.125000 F400.000000
G01 X144.576716 Y41.398476 Z-0.125000
G01 X144.650799 Y39.935864 Z-0.125000
G01 X144.682549 Y39.301924 Z-0.125000
G01 X144.619049 Y41.038644 Z-0.125000
G01 X143.645385 Y40.002539 Z-0.125000
G01 X142.079057 Y39.301924 Z-0.125000
G01 X140.978394 Y39.235250 Z-0.125000
G01 X140.216396 Y39.669165 Z-0.125000
G01 X139.979330 Y40.805811 Z-0.125000
G01 X140.544478 Y41.906475 Z-0.125000
G01 X141.909724 Y42.837805 Z-0.125000
G01 X143.147970 Y43.038888 Z-0.125000
G01 X144.079301 Y42.901305 Z-0.125000
G01 X144.682549 Y42.266307 Z-0.125000
G00 Z5.000000

(End cutting path id: path3597)


(Start cutting path id: path3573)
(Change tool to Default tool)

G00 Z5.000000
G00 X143.441633 Y56.860552

G01 Z-0.125000 F100.0(Penetrate)
G01 X143.102968 Y57.199218 Z-0.125000 F400.000000
G01 X142.108138 Y57.199218 Z-0.125000
G01 X140.975724 Y56.966385 Z-0.125000
G01 X139.938561 Y56.426637 Z-0.125000
G01 X139.504646 Y55.728139 Z-0.125000
G01 X139.504646 Y54.966142 Z-0.125000
G01 X139.938561 Y54.627476 Z-0.125000
G01 X140.901641 Y54.627476 Z-0.125000
G01 X141.938805 Y54.828559 Z-0.125000
G01 X142.605553 Y54.796809 Z-0.125000
G01 X143.134718 Y54.595726 Z-0.125000
G01 X143.473383 Y54.299394 Z-0.125000
G01 X143.378134 Y53.801979 Z-0.125000
G01 X142.340970 Y52.997648 Z-0.125000
G01 X141.007474 Y52.631466 Z-0.125000
G01 X140.234893 Y52.330900 Z-0.125000
G01 X139.906811 Y52.364237 Z-0.125000
G00 Z5.000000

(End cutting path id: path3573)


(Start cutting path id: path3572)
(Change tool to Default tool)

G00 Z5.000000
G00 X134.266145 Y57.199218

G01 Z-0.125000 F100.0(Penetrate)
G01 X134.001563 Y55.664640 Z-0.125000 F400.000000
G01 X133.906313 Y53.897228 Z-0.125000
G01 X134.308479 Y52.864298 Z-0.125000
G01 X135.133976 Y52.430912 Z-0.125000
G01 X136.541555 Y52.530924 Z-0.125000
G01 X137.335303 Y53.030456 Z-0.125000
G01 X137.769218 Y53.231539 Z-0.125000
G01 X138.203133 Y53.833729 Z-0.125000
G01 X138.510049 Y54.468727 Z-0.125000
G01 X138.266633 Y57.326218 Z-0.125000
G01 X138.605299 Y52.464250 Z-0.125000
G00 Z5.000000

(End cutting path id: path3572)


(Start cutting path id: path3571)
(Change tool to Default tool)

G00 Z5.000000
G00 X128.466811 Y59.633377

G01 Z-0.125000 F100.0(Penetrate)
G01 X128.562061 Y54.966142 Z-0.125000 F400.000000
G01 X128.636144 Y52.763757 Z-0.125000
G00 Z5.000000

(End cutting path id: path3571)


(Start cutting path id: path3570)
(Change tool to Default tool)

G00 Z5.000000
G00 X126.201976 Y57.061635

G01 Z-0.125000 F100.0(Penetrate)
G01 X126.297226 Y52.797624 Z-0.125000 F400.000000
G01 X126.498309 Y52.597599 Z-0.125000
G00 Z5.000000

(End cutting path id: path3570)


(Start cutting path id: path3569)
(Change tool to Default tool)

G00 Z5.000000
G00 X124.074049 Y55.262474

G01 Z-0.125000 F100.0(Penetrate)
G01 X123.470801 Y53.928978 Z-0.125000 F400.000000
G01 X122.497137 Y53.030456 Z-0.125000
G01 X121.798639 Y52.631466 Z-0.125000
G01 X121.131891 Y52.397575 Z-0.125000
G01 X120.200561 Y52.498116 Z-0.125000
G01 X119.703146 Y52.830432 Z-0.125000
G01 X119.565563 Y53.865479 Z-0.125000
G01 X120.073561 Y54.902642 Z-0.125000
G01 X120.729726 Y55.897472 Z-0.125000
G01 X121.798639 Y56.627720 Z-0.125000
G01 X122.602970 Y56.998135 Z-0.125000
G01 X123.206218 Y56.998135 Z-0.125000
G01 X123.936466 Y56.860552 Z-0.125000
G01 X124.074049 Y56.363137 Z-0.125000
G01 X124.201048 Y52.364237 Z-0.125000
G00 Z5.000000

(End cutting path id: path3569)


(Start cutting path id: path3570)
(Change tool to Default tool)

G00 Z5.000000
G00 X125.937394 Y59.061879

G01 Z-0.125000 F100.0(Penetrate)
G01 X126.127893 Y59.061879 Z-0.125000 F400.000000
G00 Z5.000000

(End cutting path id: path3570)


(Start cutting path id: path3568)
(Change tool to Default tool)

G00 Z5.000000
G00 X110.739446 Y57.230968

G01 Z-0.125000 F100.0(Penetrate)
G01 X110.802946 Y52.364237 Z-0.125000 F400.000000
G01 X111.205111 Y55.696389 Z-0.125000
G01 X111.871859 Y56.701803 Z-0.125000
G01 X113.036022 Y57.199218 Z-0.125000
G01 X113.734520 Y57.230968 Z-0.125000
G01 X114.200185 Y56.934636 Z-0.125000
G01 X114.570600 Y56.035055 Z-0.125000
G01 X114.433018 Y52.364237 Z-0.125000
G01 X114.803433 Y55.759889 Z-0.125000
G01 X115.607764 Y56.670053 Z-0.125000
G01 X116.740177 Y57.199218 Z-0.125000
G01 X117.703257 Y57.199218 Z-0.125000
G01 X118.306505 Y56.934636 Z-0.125000
G01 X118.433505 Y56.098555 Z-0.125000
G01 X118.475838 Y54.532226 Z-0.125000
G01 X118.539338 Y52.464250 Z-0.125000
G00 Z5.000000

(End cutting path id: path3568)


(Start cutting path id: path3594)
(Change tool to Default tool)

G00 Z5.000000
G00 X116.520146 Y44.001968

G01 Z-0.125000 F100.0(Penetrate)
G01 X116.583646 Y39.135237 Z-0.125000 F400.000000
G01 X116.985811 Y42.467389 Z-0.125000
G01 X117.652559 Y43.472803 Z-0.125000
G01 X118.816722 Y43.970218 Z-0.125000
G01 X119.515220 Y44.001968 Z-0.125000
G01 X119.980885 Y43.705635 Z-0.125000
G01 X120.351301 Y42.806055 Z-0.125000
G01 X120.213718 Y39.135237 Z-0.125000
G01 X120.584133 Y42.530889 Z-0.125000
G01 X121.388464 Y43.441053 Z-0.125000
G01 X122.520877 Y43.970218 Z-0.125000
G01 X123.483957 Y43.970218 Z-0.125000
G01 X124.087205 Y43.705635 Z-0.125000
G01 X124.214205 Y42.869555 Z-0.125000
G01 X124.256538 Y41.303226 Z-0.125000
G01 X124.320038 Y39.235250 Z-0.125000
G00 Z5.000000

(End cutting path id: path3594)


(Start cutting path id: path3593)
(Change tool to Default tool)

G00 Z5.000000
G00 X113.016922 Y44.065468

G01 Z-0.125000 F100.0(Penetrate)
G01 X111.683426 Y43.472803 Z-0.125000 F400.000000
G01 X110.984928 Y42.467389 Z-0.125000
G01 X110.519263 Y41.472559 Z-0.125000
G01 X110.752096 Y40.135888 Z-0.125000
G01 X111.186011 Y39.402466 Z-0.125000
G01 X112.593590 Y39.168575 Z-0.125000
G01 X113.757753 Y39.468082 Z-0.125000
G01 X114.953666 Y40.234313 Z-0.125000
G01 X115.620414 Y41.472559 Z-0.125000
G01 X115.387581 Y43.007138 Z-0.125000
G01 X114.858416 Y43.599803 Z-0.125000
G01 X114.255168 Y43.970218 Z-0.125000
G01 X113.016922 Y44.065468 Z-0.125000
G00 Z5.000000

(End cutting path id: path3593)


(Start cutting path id: path3592)
(Change tool to Default tool)

G00 Z5.000000
G00 X108.656649 Y43.504553

G01 Z-0.125000 F100.0(Penetrate)
G01 X108.317983 Y43.800885 Z-0.125000 F400.000000
G01 X107.323153 Y43.906718 Z-0.125000
G01 X106.254240 Y43.504553 Z-0.125000
G01 X105.354659 Y42.837805 Z-0.125000
G01 X104.380996 Y41.567809 Z-0.125000
G01 X104.084663 Y40.234313 Z-0.125000
G01 X104.719661 Y39.468082 Z-0.125000
G01 X106.021407 Y39.068563 Z-0.125000
G01 X107.418403 Y39.135237 Z-0.125000
G01 X108.413233 Y39.368599 Z-0.125000
G01 X109.482146 Y39.935864 Z-0.125000
G00 Z5.000000

(End cutting path id: path3592)


(Start cutting path id: path3591)
(Change tool to Default tool)

G00 Z5.000000
G00 X102.852730 Y39.201912

G01 Z-0.125000 F100.0(Penetrate)
G01 X103.015713 Y39.235250 Z-0.125000 F400.000000
G00 Z5.000000

(End cutting path id: path3591)


(Start cutting path id: path3589)
(Change tool to Default tool)

G00 Z5.000000
G00 X99.184577 Y43.832635

G01 Z-0.125000 F100.0(Penetrate)
G01 X99.279826 Y39.568624 Z-0.125000 F400.000000
G01 X99.480909 Y39.368599 Z-0.125000
G00 Z5.000000

(End cutting path id: path3589)


(Start cutting path id: path3588)
(Change tool to Default tool)

G00 Z5.000000
G00 X97.057349 Y42.033474

G01 Z-0.125000 F100.0(Penetrate)
G01 X96.454101 Y40.699978 Z-0.125000 F400.000000
G01 X95.480437 Y39.801456 Z-0.125000
G01 X94.781939 Y39.402466 Z-0.125000
G01 X94.115191 Y39.168575 Z-0.125000
G01 X93.183861 Y39.269116 Z-0.125000
G01 X92.686446 Y39.601432 Z-0.125000
G01 X92.548863 Y40.636479 Z-0.125000
G01 X93.056861 Y41.673642 Z-0.125000
G01 X93.713026 Y42.668472 Z-0.125000
G01 X94.781939 Y43.398720 Z-0.125000
G01 X95.586270 Y43.769135 Z-0.125000
G01 X96.189518 Y43.769135 Z-0.125000
G01 X96.919766 Y43.631552 Z-0.125000
G01 X97.057349 Y43.134137 Z-0.125000
G01 X97.184348 Y39.135237 Z-0.125000
G00 Z5.000000

(End cutting path id: path3588)


(Start cutting path id: path3589)
(Change tool to Default tool)

G00 Z5.000000
G00 X98.919994 Y45.832879

G01 Z-0.125000 F100.0(Penetrate)
G01 X99.110493 Y45.832879 Z-0.125000 F400.000000
G00 Z5.000000

(End cutting path id: path3589)


(Start cutting path id: path3590)
(Change tool to Default tool)

G00 Z5.000000
G00 X101.449411 Y46.404377

G01 Z-0.125000 F100.0(Penetrate)
G01 X101.544661 Y41.737142 Z-0.125000 F400.000000
G01 X101.618744 Y39.534757 Z-0.125000
G00 Z5.000000

(End cutting path id: path3590)


(Start cutting path id: path3611)
(Change tool to Default tool)

G00 Z5.000000
G00 X103.246422 Y30.836468

G01 Z-0.125000 F100.0(Penetrate)
G01 X101.912926 Y30.243803 Z-0.125000 F400.000000
G01 X101.214428 Y29.238389 Z-0.125000
G01 X100.748763 Y28.243559 Z-0.125000
G01 X100.981596 Y26.906888 Z-0.125000
G01 X101.415511 Y26.173466 Z-0.125000
G01 X102.823090 Y25.939575 Z-0.125000
G01 X103.987253 Y26.239082 Z-0.125000
G01 X105.183166 Y27.005313 Z-0.125000
G01 X105.849914 Y28.243559 Z-0.125000
G01 X105.617081 Y29.778138 Z-0.125000
G01 X105.087916 Y30.370803 Z-0.125000
G01 X104.484668 Y30.741218 Z-0.125000
G01 X103.246422 Y30.836468 Z-0.125000
G00 Z5.000000

(End cutting path id: path3611)


(Start cutting path id: path3610)
(Change tool to Default tool)

G00 Z5.000000
G00 X94.547013 Y30.370803

G01 Z-0.125000 F100.0(Penetrate)
G01 X97.986585 Y25.472851 Z-0.125000 F400.000000
G01 X99.880996 Y30.476636 Z-0.125000
G01 X96.420257 Y21.374998 Z-0.125000
G00 Z5.000000

(End cutting path id: path3610)


(Start cutting path id: path3635)
(Change tool to Default tool)

G00 Z5.000000
G00 X93.911961 Y13.176298

G01 Z-0.125000 F100.0(Penetrate)
G01 X93.435713 Y12.109502 Z-0.125000 F400.000000
G01 X93.139381 Y11.709453 Z-0.125000
G00 Z5.000000

(End cutting path id: path3635)


(Start cutting path id: path3634)
(Change tool to Default tool)

G00 Z5.000000
G00 X88.069946 Y17.606468

G01 Z-0.125000 F100.0(Penetrate)
G01 X87.942946 Y12.810116 Z-0.125000 F400.000000
G01 X88.271028 Y15.510974 Z-0.125000
G01 X89.075359 Y16.548138 Z-0.125000
G01 X90.101939 Y17.140803 Z-0.125000
G01 X90.938020 Y17.479468 Z-0.125000
G01 X91.308436 Y17.511218 Z-0.125000
G01 X92.409099 Y17.405385 Z-0.125000
G01 X92.536098 Y17.310135 Z-0.125000
G00 Z5.000000

(End cutting path id: path3634)


(Start cutting path id: path3633)
(Change tool to Default tool)

G00 Z5.000000
G00 X86.239079 Y19.680794

G01 Z-0.125000 F100.0(Penetrate)
G01 X84.873833 Y19.447962 Z-0.125000 F400.000000
G01 X83.476838 Y19.077546 Z-0.125000
G01 X82.206842 Y18.707131 Z-0.125000
G01 X81.667093 Y18.273216 Z-0.125000
G01 X81.402511 Y17.945133 Z-0.125000
G01 X81.307261 Y17.638218 Z-0.125000
G01 X81.571844 Y17.172552 Z-0.125000
G01 X82.968839 Y16.706887 Z-0.125000
G01 X84.270585 Y16.241222 Z-0.125000
G01 X85.604081 Y15.712057 Z-0.125000
G01 X86.334329 Y15.309892 Z-0.125000
G01 X86.768244 Y14.939476 Z-0.125000
G01 X86.736494 Y14.579644 Z-0.125000
G01 X86.175579 Y13.912896 Z-0.125000
G01 X84.873833 Y13.242973 Z-0.125000
G01 X83.339255 Y12.742912 Z-0.125000
G01 X82.206842 Y12.676237 Z-0.125000
G01 X81.402511 Y12.776250 Z-0.125000
G01 X80.936846 Y13.009082 Z-0.125000
G01 X80.767513 Y13.342456 Z-0.125000
G00 Z5.000000

(End cutting path id: path3633)


(Start cutting path id: path3632)
(Change tool to Default tool)

G00 Z5.000000
G00 X75.475861 Y13.176298

G01 Z-0.125000 F100.0(Penetrate)
G01 X74.999613 Y12.109502 Z-0.125000 F400.000000
G01 X74.703281 Y11.709453 Z-0.125000
G00 Z5.000000

(End cutting path id: path3632)


(Start cutting path id: path3631)
(Change tool to Default tool)

G00 Z5.000000
G00 X69.638114 Y17.405385

G01 Z-0.125000 F100.0(Penetrate)
G01 X69.670922 Y12.842924 Z-0.125000 F400.000000
G01 X69.638114 Y16.071889 Z-0.125000
G01 X70.872126 Y16.876220 Z-0.125000
G01 X72.068039 Y17.447718 Z-0.125000
G01 X72.840620 Y17.511218 Z-0.125000
G01 X73.401535 Y17.447718 Z-0.125000
G01 X73.771951 Y17.045553 Z-0.125000
G01 X74.036533 Y15.881390 Z-0.125000
G01 X74.004783 Y12.742912 Z-0.125000
G00 Z5.000000

(End cutting path id: path3631)


(Start cutting path id: path3630)
(Change tool to Default tool)

G00 Z5.000000
G00 X64.511579 Y15.775557

G01 Z-0.125000 F100.0(Penetrate)
G01 X65.845074 Y15.807307 Z-0.125000 F400.000000
G01 X67.379653 Y15.839057 Z-0.125000
G01 X68.374483 Y16.008389 Z-0.125000
G01 X68.543816 Y16.378805 Z-0.125000
G01 X68.406233 Y16.738637 Z-0.125000
G01 X67.538402 Y17.511218 Z-0.125000
G01 X66.437739 Y17.511218 Z-0.125000
G01 X65.442909 Y17.140803 Z-0.125000
G01 X64.744411 Y16.505805 Z-0.125000
G01 X64.236413 Y15.214642 Z-0.125000
G01 X64.073430 Y14.442061 Z-0.125000
G01 X64.040622 Y13.912896 Z-0.125000
G01 X64.606828 Y13.176298 Z-0.125000
G01 X65.538159 Y12.709575 Z-0.125000
G01 X66.607072 Y12.776250 Z-0.125000
G01 X67.739485 Y13.042949 Z-0.125000
G01 X68.543816 Y13.442997 Z-0.125000
G01 X68.840148 Y13.807063 Z-0.125000
G00 Z5.000000

(End cutting path id: path3630)


(Start cutting path id: path3629)
(Change tool to Default tool)

G00 Z5.000000
G00 X63.410933 Y17.172552

G01 Z-0.125000 F100.0(Penetrate)
G01 X63.072268 Y17.511218 Z-0.125000 F400.000000
G01 X62.077438 Y17.511218 Z-0.125000
G01 X60.945024 Y17.278385 Z-0.125000
G01 X59.907861 Y16.738637 Z-0.125000
G01 X59.473946 Y16.040139 Z-0.125000
G01 X59.473946 Y15.278142 Z-0.125000
G01 X59.907861 Y14.939476 Z-0.125000
G01 X60.870941 Y14.939476 Z-0.125000
G01 X61.908105 Y15.140559 Z-0.125000
G01 X62.574853 Y15.108809 Z-0.125000
G01 X63.104018 Y14.907726 Z-0.125000
G01 X63.442683 Y14.611394 Z-0.125000
G01 X63.347434 Y14.113979 Z-0.125000
G01 X62.310270 Y13.309648 Z-0.125000
G01 X60.976774 Y12.943466 Z-0.125000
G01 X60.204193 Y12.642900 Z-0.125000
G01 X59.876111 Y12.676237 Z-0.125000
G00 Z5.000000

(End cutting path id: path3629)


(Start cutting path id: path3628)
(Change tool to Default tool)

G00 Z5.000000
G00 X53.773714 Y19.776044

G01 Z-0.125000 F100.0(Penetrate)
G01 X53.970563 Y15.743807 Z-0.125000 F400.000000
G01 X53.970563 Y12.776250 Z-0.125000
G01 X54.044646 Y15.246392 Z-0.125000
G01 X54.975976 Y16.040139 Z-0.125000
G01 X57.378386 Y17.638218 Z-0.125000
G01 X54.139896 Y15.373391 Z-0.125000
G01 X55.409892 Y14.442061 Z-0.125000
G01 X58.277966 Y12.876791 Z-0.125000
G00 Z5.000000

(End cutting path id: path3628)


(Start cutting path id: path3627)
(Change tool to Default tool)

G00 Z5.000000
G00 X48.647179 Y15.775557

G01 Z-0.125000 F100.0(Penetrate)
G01 X49.980674 Y15.807307 Z-0.125000 F400.000000
G01 X51.515253 Y15.839057 Z-0.125000
G01 X52.510083 Y16.008389 Z-0.125000
G01 X52.679416 Y16.378805 Z-0.125000
G01 X52.541833 Y16.738637 Z-0.125000
G01 X51.674003 Y17.511218 Z-0.125000
G01 X50.573339 Y17.511218 Z-0.125000
G01 X49.578509 Y17.140803 Z-0.125000
G01 X48.880011 Y16.505805 Z-0.125000
G01 X48.372013 Y15.214642 Z-0.125000
G01 X48.209030 Y14.442061 Z-0.125000
G01 X48.176222 Y13.912896 Z-0.125000
G01 X48.742428 Y13.176298 Z-0.125000
G01 X49.673759 Y12.709575 Z-0.125000
G01 X50.742672 Y12.776250 Z-0.125000
G01 X51.875085 Y13.042949 Z-0.125000
G01 X52.679416 Y13.442997 Z-0.125000
G01 X52.975748 Y13.807063 Z-0.125000
G00 Z5.000000

(End cutting path id: path3627)


(Start cutting path id: path3626)
(Change tool to Default tool)

G00 Z5.000000
G00 X44.974822 Y17.606468

G01 Z-0.125000 F100.0(Penetrate)
G01 X43.641326 Y17.013803 Z-0.125000 F400.000000
G01 X42.942828 Y16.008389 Z-0.125000
G01 X42.477163 Y15.013559 Z-0.125000
G01 X42.709996 Y13.676888 Z-0.125000
G01 X43.143911 Y12.943466 Z-0.125000
G01 X44.551490 Y12.709575 Z-0.125000
G01 X45.715653 Y13.009082 Z-0.125000
G01 X46.911566 Y13.775313 Z-0.125000
G01 X47.578314 Y15.013559 Z-0.125000
G01 X47.345481 Y16.548138 Z-0.125000
G01 X46.816316 Y17.140803 Z-0.125000
G01 X46.213068 Y17.511218 Z-0.125000
G01 X44.974822 Y17.606468 Z-0.125000
G00 Z5.000000

(End cutting path id: path3626)


(Start cutting path id: path3625)
(Change tool to Default tool)

G00 Z5.000000
G00 X35.375746 Y19.776044

G01 Z-0.125000 F100.0(Penetrate)
G01 X35.407496 Y12.642900 Z-0.125000 F400.000000
G01 X36.370576 Y12.776250 Z-0.125000
G01 X37.545322 Y13.142432 Z-0.125000
G01 X38.772985 Y13.775313 Z-0.125000
G01 X39.778399 Y14.473811 Z-0.125000
G01 X40.572146 Y15.278142 Z-0.125000
G01 X41.207144 Y16.209472 Z-0.125000
G01 X41.408227 Y16.982053 Z-0.125000
G01 X41.312977 Y17.839300 Z-0.125000
G01 X40.603896 Y18.675381 Z-0.125000
G01 X39.439733 Y19.310379 Z-0.125000
G01 X38.307320 Y19.606711 Z-0.125000
G01 X37.143157 Y19.680794 Z-0.125000
G01 X36.275326 Y19.574961 Z-0.125000
G01 X35.407496 Y19.373879 Z-0.125000
G00 Z5.000000

(End cutting path id: path3625)


(Start cutting path id: path3624)
(Change tool to Default tool)

G00 Z5.000000
G00 X25.035813 Y17.140803

G01 Z-0.125000 F100.0(Penetrate)
G01 X28.475385 Y12.242851 Z-0.125000 F400.000000
G01 X30.369796 Y17.246636 Z-0.125000
G01 X26.909057 Y8.144997 Z-0.125000
G00 Z5.000000

(End cutting path id: path3624)


(Start cutting path id: path3623)
(Change tool to Default tool)

G00 Z5.000000
G00 X23.882279 Y15.574474

G01 Z-0.125000 F100.0(Penetrate)
G01 X23.279031 Y14.240978 Z-0.125000 F400.000000
G01 X22.305367 Y13.342456 Z-0.125000
G01 X21.606869 Y12.943466 Z-0.125000
G01 X20.940121 Y12.709575 Z-0.125000
G01 X20.008791 Y12.810116 Z-0.125000
G01 X19.511376 Y13.142432 Z-0.125000
G01 X19.373793 Y14.177479 Z-0.125000
G01 X19.881791 Y15.214642 Z-0.125000
G01 X20.537956 Y16.209472 Z-0.125000
G01 X21.606869 Y16.939720 Z-0.125000
G01 X22.411200 Y17.310135 Z-0.125000
G01 X23.014448 Y17.310135 Z-0.125000
G01 X23.744696 Y17.172552 Z-0.125000
G01 X23.882279 Y16.675137 Z-0.125000
G01 X24.009278 Y12.676237 Z-0.125000
G00 Z5.000000

(End cutting path id: path3623)


(Start cutting path id: path3622)
(Change tool to Default tool)

G00 Z5.000000
G00 X12.177146 Y19.680794

G01 Z-0.125000 F100.0(Penetrate)
G01 X12.272396 Y16.378805 Z-0.125000 F400.000000
G01 X12.346479 Y12.876791 Z-0.125000
G01 X12.441728 Y17.109053 Z-0.125000
G01 X12.240646 Y19.045796 Z-0.125000
G01 X13.309559 Y19.680794 Z-0.125000
G01 X14.579555 Y19.881877 Z-0.125000
G01 X15.606135 Y19.744294 Z-0.125000
G01 X16.410466 Y19.712544 Z-0.125000
G01 X17.013714 Y19.574961 Z-0.125000
G01 X17.373546 Y19.215129 Z-0.125000
G01 X17.479379 Y18.781214 Z-0.125000
G01 X16.939631 Y18.347299 Z-0.125000
G01 X15.976551 Y17.976883 Z-0.125000
G01 X15.076970 Y17.574718 Z-0.125000
G01 X14.071557 Y17.246636 Z-0.125000
G01 X12.409979 Y16.738637 Z-0.125000
G01 X12.346479 Y16.474055 Z-0.125000
G01 X13.574142 Y15.807307 Z-0.125000
G01 X14.537222 Y15.140559 Z-0.125000
G01 X16.008301 Y14.272728 Z-0.125000
G01 X18.273127 Y12.776250 Z-0.125000
G01 X18.505959 Y12.742912 Z-0.125000
G00 Z5.000000

(End cutting path id: path3622)


(Start cutting path id: path3599)
(Change tool to Default tool)

G00 Z5.000000
G00 X14.484309 Y29.005557

G01 Z-0.125000 F100.0(Penetrate)
G01 X15.817805 Y29.037307 Z-0.125000 F400.000000
G01 X17.352383 Y29.069057 Z-0.125000
G01 X18.347213 Y29.238389 Z-0.125000
G01 X18.516546 Y29.608805 Z-0.125000
G01 X18.378963 Y29.968637 Z-0.125000
G01 X17.511133 Y30.741218 Z-0.125000
G01 X16.410469 Y30.741218 Z-0.125000
G01 X15.415639 Y30.370803 Z-0.125000
G01 X14.717141 Y29.735805 Z-0.125000
G01 X14.209143 Y28.444642 Z-0.125000
G01 X14.046160 Y27.672061 Z-0.125000
G01 X14.013352 Y27.142896 Z-0.125000
G01 X14.579558 Y26.406298 Z-0.125000
G01 X15.510889 Y25.939575 Z-0.125000
G01 X16.579802 Y26.006250 Z-0.125000
G01 X17.712215 Y26.272949 Z-0.125000
G01 X18.516546 Y26.672997 Z-0.125000
G01 X18.812878 Y27.037063 Z-0.125000
G00 Z5.000000

(End cutting path id: path3599)


(Start cutting path id: path3600)
(Change tool to Default tool)

G00 Z5.000000
G00 X21.575114 Y32.974294

G01 Z-0.125000 F100.0(Penetrate)
G01 X21.744447 Y25.939575 Z-0.125000 F400.000000
G01 X21.649197 Y29.873387 Z-0.125000
G01 X19.610854 Y29.873387 Z-0.125000
G01 X23.406025 Y29.905137 Z-0.125000
G00 Z5.000000

(End cutting path id: path3600)


(Start cutting path id: path3601)
(Change tool to Default tool)

G00 Z5.000000
G00 X28.507146 Y30.741218

G01 Z-0.125000 F100.0(Penetrate)
G01 X28.242563 Y29.206639 Z-0.125000 F400.000000
G01 X28.147313 Y27.439228 Z-0.125000
G01 X28.549479 Y26.406298 Z-0.125000
G01 X29.374976 Y25.972912 Z-0.125000
G01 X30.782555 Y26.072924 Z-0.125000
G01 X31.576303 Y26.572456 Z-0.125000
G01 X32.010218 Y26.773539 Z-0.125000
G01 X32.444133 Y27.375729 Z-0.125000
G01 X32.751049 Y28.010727 Z-0.125000
G01 X32.507633 Y30.868218 Z-0.125000
G01 X32.846299 Y26.006250 Z-0.125000
G00 Z5.000000

(End cutting path id: path3601)


(Start cutting path id: path3602)
(Change tool to Default tool)

G00 Z5.000000
G00 X37.682933 Y30.402552

G01 Z-0.125000 F100.0(Penetrate)
G01 X37.344268 Y30.741218 Z-0.125000 F400.000000
G01 X36.349438 Y30.741218 Z-0.125000
G01 X35.217024 Y30.508385 Z-0.125000
G01 X34.179861 Y29.968637 Z-0.125000
G01 X33.745946 Y29.270139 Z-0.125000
G01 X33.745946 Y28.508142 Z-0.125000
G01 X34.179861 Y28.169476 Z-0.125000
G01 X35.142941 Y28.169476 Z-0.125000
G01 X36.180105 Y28.370559 Z-0.125000
G01 X36.846853 Y28.338809 Z-0.125000
G01 X37.376018 Y28.137726 Z-0.125000
G01 X37.714683 Y27.841394 Z-0.125000
G01 X37.619433 Y27.343979 Z-0.125000
G01 X36.582270 Y26.539648 Z-0.125000
G01 X35.248774 Y26.173466 Z-0.125000
G01 X34.476193 Y25.872900 Z-0.125000
G01 X34.148111 Y25.906237 Z-0.125000
G00 Z5.000000

(End cutting path id: path3602)


(Start cutting path id: path3603)
(Change tool to Default tool)

G00 Z5.000000
G00 X42.280314 Y33.006044

G01 Z-0.125000 F100.0(Penetrate)
G01 X42.477163 Y28.973807 Z-0.125000 F400.000000
G01 X42.477163 Y26.006250 Z-0.125000
G01 X42.551246 Y28.476392 Z-0.125000
G01 X43.482577 Y29.270139 Z-0.125000
G01 X45.884986 Y30.868218 Z-0.125000
G01 X42.646496 Y28.603391 Z-0.125000
G01 X43.916492 Y27.672061 Z-0.125000
G01 X46.784566 Y26.106791 Z-0.125000
G00 Z5.000000

(End cutting path id: path3603)


(Start cutting path id: path3604)
(Change tool to Default tool)

G00 Z5.000000
G00 X47.582514 Y30.635385

G01 Z-0.125000 F100.0(Penetrate)
G01 X47.615322 Y26.072924 Z-0.125000 F400.000000
G01 X47.582514 Y29.301889 Z-0.125000
G01 X48.816526 Y30.106220 Z-0.125000
G01 X50.012439 Y30.677718 Z-0.125000
G01 X50.785020 Y30.741218 Z-0.125000
G01 X51.345935 Y30.677718 Z-0.125000
G01 X51.716351 Y30.275553 Z-0.125000
G01 X51.980933 Y29.111390 Z-0.125000
G01 X51.949183 Y25.972912 Z-0.125000
G00 Z5.000000

(End cutting path id: path3604)


(Start cutting path id: path3605)
(Change tool to Default tool)

G00 Z5.000000
G00 X55.409922 Y30.836468

G01 Z-0.125000 F100.0(Penetrate)
G01 X54.076426 Y30.243803 Z-0.125000 F400.000000
G01 X53.377928 Y29.238389 Z-0.125000
G01 X52.912263 Y28.243559 Z-0.125000
G01 X53.145096 Y26.906888 Z-0.125000
G01 X53.579011 Y26.173466 Z-0.125000
G01 X54.986590 Y25.939575 Z-0.125000
G01 X56.150753 Y26.239082 Z-0.125000
G01 X57.346666 Y27.005313 Z-0.125000
G01 X58.013414 Y28.243559 Z-0.125000
G01 X57.780581 Y29.778138 Z-0.125000
G01 X57.251416 Y30.370803 Z-0.125000
G01 X56.648168 Y30.741218 Z-0.125000
G01 X55.409922 Y30.836468 Z-0.125000
G00 Z5.000000

(End cutting path id: path3605)


(Start cutting path id: path3606)
(Change tool to Default tool)

G00 Z5.000000
G00 X58.775463 Y30.741218

G01 Z-0.125000 F100.0(Penetrate)
G01 X59.516294 Y28.370559 Z-0.125000 F400.000000
G01 X60.246542 Y26.906888 Z-0.125000
G01 X60.743957 Y26.139599 Z-0.125000
G01 X60.945040 Y26.272949 Z-0.125000
G01 X61.876370 Y29.174890 Z-0.125000
G01 X62.045703 Y29.809888 Z-0.125000
G01 X62.479618 Y29.502972 Z-0.125000
G01 X64.183529 Y26.372432 Z-0.125000
G01 X64.617445 Y26.106791 Z-0.125000
G01 X66.141440 Y30.709468 Z-0.125000
G00 Z5.000000

(End cutting path id: path3606)


(Start cutting path id: path3607)
(Change tool to Default tool)

G00 Z5.000000
G00 X71.284879 Y32.942544

G01 Z-0.125000 F100.0(Penetrate)
G01 X71.179046 Y29.640555 Z-0.125000 F400.000000
G01 X71.284879 Y25.939575 Z-0.125000
G01 X71.549461 Y28.740974 Z-0.125000
G01 X72.385542 Y29.809888 Z-0.125000
G01 X73.348622 Y30.402552 Z-0.125000
G01 X74.216453 Y30.370803 Z-0.125000
G01 X74.809118 Y29.873387 Z-0.125000
G01 X75.412366 Y28.740974 Z-0.125000
G01 X75.518199 Y27.640311 Z-0.125000
G01 X75.549949 Y26.173466 Z-0.125000
G00 Z5.000000

(End cutting path id: path3607)


(Start cutting path id: path3608)
(Change tool to Default tool)

G00 Z5.000000
G00 X78.947222 Y30.836468

G01 Z-0.125000 F100.0(Penetrate)
G01 X77.613726 Y30.243803 Z-0.125000 F400.000000
G01 X76.915228 Y29.238389 Z-0.125000
G01 X76.449563 Y28.243559 Z-0.125000
G01 X76.682396 Y26.906888 Z-0.125000
G01 X77.116311 Y26.173466 Z-0.125000
G01 X78.523890 Y25.939575 Z-0.125000
G01 X79.688053 Y26.239082 Z-0.125000
G01 X80.883966 Y27.005313 Z-0.125000
G01 X81.550714 Y28.243559 Z-0.125000
G01 X81.317881 Y29.778138 Z-0.125000
G01 X80.788716 Y30.370803 Z-0.125000
G01 X80.185468 Y30.741218 Z-0.125000
G01 X78.947222 Y30.836468 Z-0.125000
G00 Z5.000000

(End cutting path id: path3608)


(Start cutting path id: path3609)
(Change tool to Default tool)

G00 Z5.000000
G00 X82.312663 Y30.741218

G01 Z-0.125000 F100.0(Penetrate)
G01 X83.053494 Y28.370559 Z-0.125000 F400.000000
G01 X83.783742 Y26.906888 Z-0.125000
G01 X84.281157 Y26.139599 Z-0.125000
G01 X84.482239 Y26.272949 Z-0.125000
G01 X85.413570 Y29.174890 Z-0.125000
G01 X85.582903 Y29.809888 Z-0.125000
G01 X86.016818 Y29.502972 Z-0.125000
G01 X87.720729 Y26.372432 Z-0.125000
G01 X88.154645 Y26.106791 Z-0.125000
G01 X89.678640 Y30.709468 Z-0.125000
G00 Z5.000000

(End cutting path id: path3609)


(Start cutting path id: path3586)
(Change tool to Default tool)

G00 Z5.000000
G00 X82.452348 Y41.864141

G01 Z-0.125000 F100.0(Penetrate)
G01 X81.753850 Y40.668228 Z-0.125000 F400.000000
G01 X80.494438 Y39.669165 Z-0.125000
G01 X79.118609 Y39.168575 Z-0.125000
G01 X78.155528 Y39.168575 Z-0.125000
G01 X77.859196 Y39.669165 Z-0.125000
G01 X78.261361 Y40.932811 Z-0.125000
G01 X79.256192 Y42.435640 Z-0.125000
G01 X80.388605 Y43.366970 Z-0.125000
G01 X81.118852 Y43.737385 Z-0.125000
G01 X81.859683 Y43.631552 Z-0.125000
G01 X82.452348 Y43.165887 Z-0.125000
G01 X82.621681 Y38.435152 Z-0.125000
G01 X82.494681 Y36.837074 Z-0.125000
G01 X82.124266 Y35.831660 Z-0.125000
G01 X81.658601 Y35.164912 Z-0.125000
G01 X81.224685 Y34.805080 Z-0.125000
G01 X80.653187 Y34.699247 Z-0.125000
G01 X80.219272 Y34.667497 Z-0.125000
G01 X79.023359 Y34.699247 Z-0.125000
G00 Z5.000000

(End cutting path id: path3586)


(Start cutting path id: path3587)
(Change tool to Default tool)

G00 Z5.000000
G00 X83.722346 Y44.001968

G01 Z-0.125000 F100.0(Penetrate)
G01 X83.785846 Y39.135237 Z-0.125000 F400.000000
G01 X84.188011 Y42.467389 Z-0.125000
G01 X84.854759 Y43.472803 Z-0.125000
G01 X86.018922 Y43.970218 Z-0.125000
G01 X86.717420 Y44.001968 Z-0.125000
G01 X87.183085 Y43.705635 Z-0.125000
G01 X87.553500 Y42.806055 Z-0.125000
G01 X87.415918 Y39.135237 Z-0.125000
G01 X87.786333 Y42.530889 Z-0.125000
G01 X88.590664 Y43.441053 Z-0.125000
G01 X89.723077 Y43.970218 Z-0.125000
G01 X90.686157 Y43.970218 Z-0.125000
G01 X91.289405 Y43.705635 Z-0.125000
G01 X91.416405 Y42.869555 Z-0.125000
G01 X91.458738 Y41.303226 Z-0.125000
G01 X91.522238 Y39.235250 Z-0.125000
G00 Z5.000000

(End cutting path id: path3587)


(Start cutting path id: path3564)
(Change tool to Default tool)

G00 Z5.000000
G00 X80.862739 Y52.530924

G01 Z-0.125000 F100.0(Penetrate)
G01 X81.127322 Y52.530924 Z-0.125000 F400.000000
G00 Z5.000000

(End cutting path id: path3564)


(Start cutting path id: path3563)
(Change tool to Default tool)

G00 Z5.000000
G00 X77.931181 Y57.135718

G01 Z-0.125000 F100.0(Penetrate)
G01 X76.640018 Y56.797053 Z-0.125000 F400.000000
G01 X75.571105 Y56.627720 Z-0.125000
G01 X74.470442 Y56.564220 Z-0.125000
G01 X73.602611 Y56.733553 Z-0.125000
G01 X73.105196 Y57.061635 Z-0.125000
G01 X73.073446 Y57.601383 Z-0.125000
G01 X73.369778 Y58.236381 Z-0.125000
G01 X74.364609 Y58.998379 Z-0.125000
G01 X75.433522 Y59.337045 Z-0.125000
G01 X76.438935 Y59.432294 Z-0.125000
G01 X77.073933 Y59.135962 Z-0.125000
G01 X77.571349 Y58.627964 Z-0.125000
G01 X77.899431 Y57.865966 Z-0.125000
G01 X77.867681 Y56.564220 Z-0.125000
G01 X77.603099 Y55.527057 Z-0.125000
G01 X77.169183 Y54.500477 Z-0.125000
G01 X76.534185 Y53.463313 Z-0.125000
G01 X75.803938 Y52.830432 Z-0.125000
G01 X75.200689 Y52.530924 Z-0.125000
G00 Z5.000000

(End cutting path id: path3563)


(Start cutting path id: path3564)
(Change tool to Default tool)

G00 Z5.000000
G00 X78.465622 Y59.167712

G01 Z-0.125000 F100.0(Penetrate)
G01 X79.529244 Y59.400544 Z-0.125000 F400.000000
G01 X80.703990 Y59.527544 Z-0.125000
G01 X81.529487 Y59.527544 Z-0.125000
G01 X82.397318 Y59.262962 Z-0.125000
G01 X82.968816 Y58.903129 Z-0.125000
G01 X83.138149 Y58.426881 Z-0.125000
G01 X83.064066 Y57.897716 Z-0.125000
G01 X82.598401 Y57.432051 Z-0.125000
G01 X81.995152 Y56.966385 Z-0.125000
G01 X80.862739 Y56.193805 Z-0.125000
G01 X79.730326 Y55.664640 Z-0.125000
G01 X79.963159 Y55.400057 Z-0.125000
G01 X80.629907 Y55.262474 Z-0.125000
G01 X81.201405 Y55.262474 Z-0.125000
G00 Z5.000000

(End cutting path id: path3564)


(Start cutting path id: path3565)
(Change tool to Default tool)

G00 Z5.000000
G00 X91.202670 Y59.495794

G01 Z-0.125000 F100.0(Penetrate)
G01 X90.334839 Y59.337045 Z-0.125000 F400.000000
G01 X89.403509 Y58.733797 Z-0.125000
G01 X88.673261 Y57.834216 Z-0.125000
G01 X88.101763 Y56.670053 Z-0.125000
G01 X88.038263 Y55.294224 Z-0.125000
G01 X88.503928 Y53.865479 Z-0.125000
G01 X89.234176 Y53.164864 Z-0.125000
G01 X90.038507 Y52.730949 Z-0.125000
G01 X91.170920 Y52.631466 Z-0.125000
G01 X92.567916 Y52.763757 Z-0.125000
G01 X93.700329 Y53.526813 Z-0.125000
G01 X94.409410 Y54.765059 Z-0.125000
G01 X94.441160 Y56.035055 Z-0.125000
G01 X94.271827 Y57.262718 Z-0.125000
G01 X93.605079 Y58.299881 Z-0.125000
G01 X93.202914 Y58.860796 Z-0.125000
G01 X92.567916 Y59.231212 Z-0.125000
G01 X91.805918 Y59.495794 Z-0.125000
G01 X91.202670 Y59.495794 Z-0.125000
G00 Z5.000000

(End cutting path id: path3565)


(Start cutting path id: path3566)
(Change tool to Default tool)

G00 Z5.000000
G00 X95.637046 Y57.294468

G01 Z-0.125000 F100.0(Penetrate)
G01 X95.510046 Y52.498116 Z-0.125000 F400.000000
G01 X95.838128 Y55.198974 Z-0.125000
G01 X96.642459 Y56.236138 Z-0.125000
G01 X97.669039 Y56.828803 Z-0.125000
G01 X98.505120 Y57.167468 Z-0.125000
G01 X98.875535 Y57.199218 Z-0.125000
G01 X99.976199 Y57.093385 Z-0.125000
G01 X100.103198 Y56.998135 Z-0.125000
G00 Z5.000000

(End cutting path id: path3566)


(Start cutting path id: path3567)
(Change tool to Default tool)

G00 Z5.000000
G00 X105.278479 Y55.463557

G01 Z-0.125000 F100.0(Penetrate)
G01 X106.611975 Y55.495307 Z-0.125000 F400.000000
G01 X108.146553 Y55.527057 Z-0.125000
G01 X109.141383 Y55.696389 Z-0.125000
G01 X109.310716 Y56.066805 Z-0.125000
G01 X109.173133 Y56.426637 Z-0.125000
G01 X108.305302 Y57.199218 Z-0.125000
G01 X107.204639 Y57.199218 Z-0.125000
G01 X106.209809 Y56.828803 Z-0.125000
G01 X105.511311 Y56.193805 Z-0.125000
G01 X105.003313 Y54.902642 Z-0.125000
G01 X104.840330 Y54.130061 Z-0.125000
G01 X104.807522 Y53.600896 Z-0.125000
G01 X105.373728 Y52.864298 Z-0.125000
G01 X106.305059 Y52.397575 Z-0.125000
G01 X107.373972 Y52.464250 Z-0.125000
G01 X108.506385 Y52.730949 Z-0.125000
G01 X109.310716 Y53.130997 Z-0.125000
G01 X109.607048 Y53.495063 Z-0.125000
G00 Z5.000000

(End cutting path id: path3567)


(Start cutting path id: path3549)
(Change tool to Default tool)

G00 Z5.000000
G00 X103.574549 Y68.491474

G01 Z-0.125000 F100.0(Penetrate)
G01 X102.971301 Y67.157978 Z-0.125000 F400.000000
G01 X101.997637 Y66.259456 Z-0.125000
G01 X101.299139 Y65.860466 Z-0.125000
G01 X100.632391 Y65.626575 Z-0.125000
G01 X99.701061 Y65.727116 Z-0.125000
G01 X99.203646 Y66.059432 Z-0.125000
G01 X99.066063 Y67.094479 Z-0.125000
G01 X99.574061 Y68.131642 Z-0.125000
G01 X100.230226 Y69.126472 Z-0.125000
G01 X101.299139 Y69.856720 Z-0.125000
G01 X102.103470 Y70.227135 Z-0.125000
G01 X102.706718 Y70.227135 Z-0.125000
G01 X103.436966 Y70.089552 Z-0.125000
G01 X103.574549 Y69.592137 Z-0.125000
G01 X103.701548 Y65.593237 Z-0.125000
G00 Z5.000000

(End cutting path id: path3549)


(Start cutting path id: path3550)
(Change tool to Default tool)

G00 Z5.000000
G00 X106.463774 Y72.661294

G01 Z-0.125000 F100.0(Penetrate)
G01 X106.633107 Y65.626575 Z-0.125000 F400.000000
G01 X106.537857 Y69.560387 Z-0.125000
G01 X104.499514 Y69.560387 Z-0.125000
G01 X108.294685 Y69.592137 Z-0.125000
G00 Z5.000000

(End cutting path id: path3550)


(Start cutting path id: path3548)
(Change tool to Default tool)

G00 Z5.000000
G00 X94.271833 Y70.089552

G01 Z-0.125000 F100.0(Penetrate)
G01 X93.933168 Y70.428218 Z-0.125000 F400.000000
G01 X92.938338 Y70.428218 Z-0.125000
G01 X91.805924 Y70.195385 Z-0.125000
G01 X90.768761 Y69.655637 Z-0.125000
G01 X90.334846 Y68.957139 Z-0.125000
G01 X90.334846 Y68.195142 Z-0.125000
G01 X90.768761 Y67.856476 Z-0.125000
G01 X91.731841 Y67.856476 Z-0.125000
G01 X92.769005 Y68.057559 Z-0.125000
G01 X93.435753 Y68.025809 Z-0.125000
G01 X93.964918 Y67.824726 Z-0.125000
G01 X94.303583 Y67.528394 Z-0.125000
G01 X94.208333 Y67.030979 Z-0.125000
G01 X93.171170 Y66.226648 Z-0.125000
G01 X91.837674 Y65.860466 Z-0.125000
G01 X91.065093 Y65.559900 Z-0.125000
G01 X90.737011 Y65.593237 Z-0.125000
G00 Z5.000000

(End cutting path id: path3548)


(Start cutting path id: path3547)
(Change tool to Default tool)

G00 Z5.000000
G00 X85.096046 Y70.428218

G01 Z-0.125000 F100.0(Penetrate)
G01 X84.831463 Y68.893640 Z-0.125000 F400.000000
G01 X84.736213 Y67.126228 Z-0.125000
G01 X85.138379 Y66.093298 Z-0.125000
G01 X85.963876 Y65.659912 Z-0.125000
G01 X87.371455 Y65.759924 Z-0.125000
G01 X88.165202 Y66.259456 Z-0.125000
G01 X88.599118 Y66.460539 Z-0.125000
G01 X89.033033 Y67.062729 Z-0.125000
G01 X89.339949 Y67.697727 Z-0.125000
G01 X89.096533 Y70.555218 Z-0.125000
G01 X89.435198 Y65.693250 Z-0.125000
G00 Z5.000000

(End cutting path id: path3547)


(Start cutting path id: path3546)
(Change tool to Default tool)

G00 Z5.000000
G00 X79.296411 Y72.862377

G01 Z-0.125000 F100.0(Penetrate)
G01 X79.391661 Y68.195142 Z-0.125000 F400.000000
G01 X79.465744 Y65.992757 Z-0.125000
G00 Z5.000000

(End cutting path id: path3546)


(Start cutting path id: path3544)
(Change tool to Default tool)

G00 Z5.000000
G00 X75.433549 Y68.491474

G01 Z-0.125000 F100.0(Penetrate)
G01 X74.830301 Y67.157978 Z-0.125000 F400.000000
G01 X73.856637 Y66.259456 Z-0.125000
G01 X73.158139 Y65.860466 Z-0.125000
G01 X72.491391 Y65.626575 Z-0.125000
G01 X71.560061 Y65.727116 Z-0.125000
G01 X71.062646 Y66.059432 Z-0.125000
G01 X70.925063 Y67.094479 Z-0.125000
G01 X71.433061 Y68.131642 Z-0.125000
G01 X72.089226 Y69.126472 Z-0.125000
G01 X73.158139 Y69.856720 Z-0.125000
G01 X73.962470 Y70.227135 Z-0.125000
G01 X74.565718 Y70.227135 Z-0.125000
G01 X75.295966 Y70.089552 Z-0.125000
G01 X75.433549 Y69.592137 Z-0.125000
G01 X75.560548 Y65.593237 Z-0.125000
G00 Z5.000000

(End cutting path id: path3544)


(Start cutting path id: path3545)
(Change tool to Default tool)

G00 Z5.000000
G00 X77.158611 Y72.862377

G01 Z-0.125000 F100.0(Penetrate)
G01 X77.253861 Y68.195142 Z-0.125000 F400.000000
G01 X77.327944 Y65.992757 Z-0.125000
G00 Z5.000000

(End cutting path id: path3545)


(Start cutting path id: path3543)
(Change tool to Default tool)

G00 Z5.000000
G00 X69.062349 Y69.962553

G01 Z-0.125000 F100.0(Penetrate)
G01 X68.723683 Y70.258885 Z-0.125000 F400.000000
G01 X67.728853 Y70.364718 Z-0.125000
G01 X66.659940 Y69.962553 Z-0.125000
G01 X65.760359 Y69.295805 Z-0.125000
G01 X64.786696 Y68.025809 Z-0.125000
G01 X64.490363 Y66.692313 Z-0.125000
G01 X65.125361 Y65.926082 Z-0.125000
G01 X66.427107 Y65.526563 Z-0.125000
G01 X67.824103 Y65.593237 Z-0.125000
G01 X68.818933 Y65.826599 Z-0.125000
G01 X69.887846 Y66.393864 Z-0.125000
G00 Z5.000000

(End cutting path id: path3543)


(Start cutting path id: path3561)
(Change tool to Default tool)

G00 Z5.000000
G00 X65.305311 Y59.432294

G01 Z-0.125000 F100.0(Penetrate)
G01 X65.104228 Y52.498116 Z-0.125000 F400.000000
G00 Z5.000000

(End cutting path id: path3561)


(Start cutting path id: path3562)
(Change tool to Default tool)

G00 Z5.000000
G00 X67.242046 Y58.236381

G01 Z-0.125000 F100.0(Penetrate)
G01 X67.972294 Y58.860796 Z-0.125000 F400.000000
G01 X68.734291 Y59.294711 Z-0.125000
G01 X69.665622 Y59.527544 Z-0.125000
G01 X70.205370 Y59.527544 Z-0.125000
G01 X70.734535 Y59.167712 Z-0.125000
G01 X70.935618 Y58.627964 Z-0.125000
G01 X70.840368 Y57.865966 Z-0.125000
G01 X70.575786 Y57.093385 Z-0.125000
G01 X69.972538 Y55.929222 Z-0.125000
G01 X69.168207 Y54.627476 Z-0.125000
G01 X68.205126 Y53.463313 Z-0.125000
G01 X67.369046 Y52.530924 Z-0.125000
G01 X68.437959 Y52.530924 Z-0.125000
G01 X69.771455 Y52.664274 Z-0.125000
G01 X70.903868 Y52.898165 Z-0.125000
G01 X71.941031 Y53.164864 Z-0.125000
G00 Z5.000000

(End cutting path id: path3562)


(Start cutting path id: path3585)
(Change tool to Default tool)

G00 Z5.000000
G00 X72.152709 Y44.097218

G01 Z-0.125000 F100.0(Penetrate)
G01 X71.316629 Y44.234801 Z-0.125000 F400.000000
G01 X69.983133 Y43.832635 Z-0.125000
G01 X69.390468 Y43.239970 Z-0.125000
G01 X69.221135 Y42.763722 Z-0.125000
G01 X69.284635 Y42.234557 Z-0.125000
G01 X69.750300 Y41.969974 Z-0.125000
G01 X70.554631 Y42.202807 Z-0.125000
G01 X71.390712 Y42.763722 Z-0.125000
G01 X71.856377 Y43.197637 Z-0.125000
G01 X72.152709 Y43.705635 Z-0.125000
G01 X72.554875 Y43.102387 Z-0.125000
G01 X73.126373 Y42.763722 Z-0.125000
G01 X73.856621 Y42.869555 Z-0.125000
G01 X74.459869 Y43.197637 Z-0.125000
G01 X74.618618 Y43.599803 Z-0.125000
G01 X74.555118 Y44.404133 Z-0.125000
G01 X74.089453 Y45.240214 Z-0.125000
G01 X73.422705 Y45.769379 Z-0.125000
G01 X72.025710 Y46.298544 Z-0.125000
G01 X70.385298 Y46.340877 Z-0.125000
G01 X68.988303 Y45.938712 Z-0.125000
G01 X67.951139 Y45.335464 Z-0.125000
G01 X67.189142 Y44.636966 Z-0.125000
G01 X66.554144 Y43.673886 Z-0.125000
G01 X66.056729 Y42.668472 Z-0.125000
G01 X65.887396 Y41.472559 Z-0.125000
G01 X66.321311 Y40.340146 Z-0.125000
G01 X67.358474 Y39.601432 Z-0.125000
G01 X68.649637 Y39.235250 Z-0.125000
G01 X69.983133 Y39.068563 Z-0.125000
G01 X71.560045 Y39.201912 Z-0.125000
G01 X73.285122 Y39.501949 Z-0.125000
G01 X74.692701 Y39.935864 Z-0.125000
G01 X75.789131 Y40.530645 Z-0.125000
G01 X76.589229 Y41.271477 Z-0.125000
G00 Z5.000000

(End cutting path id: path3585)


(Start cutting path id: path3584)
(Change tool to Default tool)

G00 Z5.000000
G00 X64.183511 Y46.404377

G01 Z-0.125000 F100.0(Penetrate)
G01 X64.278761 Y41.737142 Z-0.125000 F400.000000
G01 X64.352844 Y39.534757 Z-0.125000
G00 Z5.000000

(End cutting path id: path3584)


(Start cutting path id: path3583)
(Change tool to Default tool)

G00 Z5.000000
G00 X61.918676 Y43.832635

G01 Z-0.125000 F100.0(Penetrate)
G01 X62.013926 Y39.568624 Z-0.125000 F400.000000
G01 X62.215009 Y39.368599 Z-0.125000
G00 Z5.000000

(End cutting path id: path3583)


(Start cutting path id: path3583)
(Change tool to Default tool)

G00 Z5.000000
G00 X61.654094 Y45.832879

G01 Z-0.125000 F100.0(Penetrate)
G01 X61.844593 Y45.832879 Z-0.125000 F400.000000
G00 Z5.000000

(End cutting path id: path3583)


(Start cutting path id: path3582)
(Change tool to Default tool)

G00 Z5.000000
G00 X58.246274 Y46.203294

G01 Z-0.125000 F100.0(Penetrate)
G01 X58.415607 Y39.168575 Z-0.125000 F400.000000
G01 X58.320357 Y43.102387 Z-0.125000
G01 X56.282014 Y43.102387 Z-0.125000
G01 X60.077185 Y43.134137 Z-0.125000
G00 Z5.000000

(End cutting path id: path3582)


(Start cutting path id: path3581)
(Change tool to Default tool)

G00 Z5.000000
G00 X55.685133 Y43.631552

G01 Z-0.125000 F100.0(Penetrate)
G01 X55.346468 Y43.970218 Z-0.125000 F400.000000
G01 X54.351637 Y43.970218 Z-0.125000
G01 X53.219224 Y43.737385 Z-0.125000
G01 X52.182061 Y43.197637 Z-0.125000
G01 X51.748146 Y42.499139 Z-0.125000
G01 X51.748146 Y41.737142 Z-0.125000
G01 X52.182061 Y41.398476 Z-0.125000
G01 X53.145141 Y41.398476 Z-0.125000
G01 X54.182305 Y41.599559 Z-0.125000
G01 X54.849053 Y41.567809 Z-0.125000
G01 X55.378218 Y41.366726 Z-0.125000
G01 X55.716883 Y41.070394 Z-0.125000
G01 X55.621633 Y40.572979 Z-0.125000
G01 X54.584470 Y39.768648 Z-0.125000
G01 X53.250974 Y39.402466 Z-0.125000
G01 X52.478393 Y39.101900 Z-0.125000
G01 X52.150311 Y39.135237 Z-0.125000
G00 Z5.000000

(End cutting path id: path3581)


(Start cutting path id: path3580)
(Change tool to Default tool)

G00 Z5.000000
G00 X49.885476 Y43.832635

G01 Z-0.125000 F100.0(Penetrate)
G01 X49.980726 Y39.568624 Z-0.125000 F400.000000
G01 X50.181809 Y39.368599 Z-0.125000
G00 Z5.000000

(End cutting path id: path3580)


(Start cutting path id: path3580)
(Change tool to Default tool)

G00 Z5.000000
G00 X49.620894 Y45.832879

G01 Z-0.125000 F100.0(Penetrate)
G01 X49.811393 Y45.832879 Z-0.125000 F400.000000
G00 Z5.000000

(End cutting path id: path3580)


(Start cutting path id: path3579)
(Change tool to Default tool)

G00 Z5.000000
G00 X47.673548 Y46.002212

G01 Z-0.125000 F100.0(Penetrate)
G01 X47.514799 Y43.197637 Z-0.125000 F400.000000
G01 X47.440716 Y41.398476 Z-0.125000
G01 X47.514799 Y39.935864 Z-0.125000
G01 X47.546549 Y39.301924 Z-0.125000
G01 X47.483049 Y41.038644 Z-0.125000
G01 X46.509385 Y40.002539 Z-0.125000
G01 X44.943057 Y39.301924 Z-0.125000
G01 X43.842394 Y39.235250 Z-0.125000
G01 X43.080396 Y39.669165 Z-0.125000
G01 X42.843330 Y40.805811 Z-0.125000
G01 X43.408478 Y41.906475 Z-0.125000
G01 X44.773724 Y42.837805 Z-0.125000
G01 X46.011970 Y43.038888 Z-0.125000
G01 X46.943300 Y42.901305 Z-0.125000
G01 X47.546549 Y42.266307 Z-0.125000
G00 Z5.000000

(End cutting path id: path3579)


(Start cutting path id: path3578)
(Change tool to Default tool)

G00 Z5.000000
G00 X41.768048 Y46.002212

G01 Z-0.125000 F100.0(Penetrate)
G01 X41.609299 Y43.197637 Z-0.125000 F400.000000
G01 X41.535216 Y41.398476 Z-0.125000
G01 X41.609299 Y39.935864 Z-0.125000
G01 X41.641049 Y39.301924 Z-0.125000
G01 X41.577549 Y41.038644 Z-0.125000
G01 X40.603885 Y40.002539 Z-0.125000
G01 X39.037557 Y39.301924 Z-0.125000
G01 X37.936894 Y39.235250 Z-0.125000
G01 X37.174896 Y39.669165 Z-0.125000
G01 X36.937830 Y40.805811 Z-0.125000
G01 X37.502978 Y41.906475 Z-0.125000
G01 X38.868224 Y42.837805 Z-0.125000
G01 X40.106470 Y43.038888 Z-0.125000
G01 X41.037800 Y42.901305 Z-0.125000
G01 X41.641049 Y42.266307 Z-0.125000
G00 Z5.000000

(End cutting path id: path3578)


(Start cutting path id: path3577)
(Change tool to Default tool)

G00 Z5.000000
G00 X31.739314 Y43.864385

G01 Z-0.125000 F100.0(Penetrate)
G01 X31.772122 Y39.301924 Z-0.125000 F400.000000
G01 X31.739314 Y42.530889 Z-0.125000
G01 X32.973326 Y43.335220 Z-0.125000
G01 X34.169239 Y43.906718 Z-0.125000
G01 X34.941820 Y43.970218 Z-0.125000
G01 X35.502735 Y43.906718 Z-0.125000
G01 X35.873151 Y43.504553 Z-0.125000
G01 X36.137733 Y42.340390 Z-0.125000
G01 X36.105983 Y39.201912 Z-0.125000
G00 Z5.000000

(End cutting path id: path3577)


(Start cutting path id: path3576)
(Change tool to Default tool)

G00 Z5.000000
G00 X26.178846 Y45.007381

G01 Z-0.125000 F100.0(Penetrate)
G01 X26.909094 Y45.631796 Z-0.125000 F400.000000
G01 X27.671091 Y46.065711 Z-0.125000
G01 X28.602422 Y46.298544 Z-0.125000
G01 X29.142170 Y46.298544 Z-0.125000
G01 X29.671335 Y45.938712 Z-0.125000
G01 X29.872418 Y45.398964 Z-0.125000
G01 X29.777168 Y44.636966 Z-0.125000
G01 X29.512586 Y43.864385 Z-0.125000
G01 X28.909338 Y42.700222 Z-0.125000
G01 X28.105007 Y41.398476 Z-0.125000
G01 X27.141926 Y40.234313 Z-0.125000
G01 X26.305846 Y39.301924 Z-0.125000
G01 X27.374759 Y39.301924 Z-0.125000
G01 X28.708255 Y39.435274 Z-0.125000
G01 X29.840668 Y39.669165 Z-0.125000
G01 X30.877831 Y39.935864 Z-0.125000
G00 Z5.000000

(End cutting path id: path3576)


(Start cutting path id: path3575)
(Change tool to Default tool)

G00 Z5.000000
G00 X19.437294 Y46.203294

G01 Z-0.125000 F100.0(Penetrate)
G01 X19.606627 Y39.168575 Z-0.125000 F400.000000
G01 X19.511377 Y43.102387 Z-0.125000
G01 X17.473034 Y43.102387 Z-0.125000
G01 X21.268205 Y43.134137 Z-0.125000
G00 Z5.000000

(End cutting path id: path3575)


(Start cutting path id: path3574)
(Change tool to Default tool)

G00 Z5.000000
G00 X16.548049 Y42.033474

G01 Z-0.125000 F100.0(Penetrate)
G01 X15.944801 Y40.699978 Z-0.125000 F400.000000
G01 X14.971137 Y39.801456 Z-0.125000
G01 X14.272639 Y39.402466 Z-0.125000
G01 X13.605891 Y39.168575 Z-0.125000
G01 X12.674561 Y39.269116 Z-0.125000
G01 X12.177146 Y39.601432 Z-0.125000
G01 X12.039563 Y40.636479 Z-0.125000
G01 X12.547561 Y41.673642 Z-0.125000
G01 X13.203726 Y42.668472 Z-0.125000
G01 X14.272639 Y43.398720 Z-0.125000
G01 X15.076970 Y43.769135 Z-0.125000
G01 X15.680218 Y43.769135 Z-0.125000
G01 X16.410466 Y43.631552 Z-0.125000
G01 X16.548049 Y43.134137 Z-0.125000
G01 X16.675048 Y39.135237 Z-0.125000
G00 Z5.000000

(End cutting path id: path3574)


(Start cutting path id: path3598)
(Change tool to Default tool)

G00 Z5.000000
G00 X12.642811 Y33.175377

G01 Z-0.125000 F100.0(Penetrate)
G01 X12.738061 Y28.508142 Z-0.125000 F400.000000
G01 X12.812144 Y26.305757 Z-0.125000
G00 Z5.000000

(End cutting path id: path3598)


(Start cutting path id: path3552)
(Change tool to Default tool)

G00 Z5.000000
G00 X15.108723 Y58.765546

G01 Z-0.125000 F100.0(Penetrate)
G01 X15.510889 Y58.829046 Z-0.125000 F400.000000
G01 X16.876134 Y59.294711 Z-0.125000
G01 X17.870965 Y59.464044 Z-0.125000
G01 X18.707045 Y59.495794 Z-0.125000
G01 X19.204460 Y59.400544 Z-0.125000
G01 X19.469043 Y59.030129 Z-0.125000
G01 X19.437293 Y58.469214 Z-0.125000
G01 X19.109211 Y57.929466 Z-0.125000
G01 X18.177880 Y57.135718 Z-0.125000
G01 X17.003134 Y56.331387 Z-0.125000
G01 X16.008304 Y55.802222 Z-0.125000
G01 X17.310050 Y56.331387 Z-0.125000
G01 X18.442463 Y56.500720 Z-0.125000
G01 X19.172711 Y56.236138 Z-0.125000
G01 X19.469043 Y55.802222 Z-0.125000
G01 X19.437293 Y55.135475 Z-0.125000
G01 X18.876378 Y54.267644 Z-0.125000
G01 X17.976798 Y53.431563 Z-0.125000
G01 X17.045467 Y52.830432 Z-0.125000
G01 X15.902471 Y52.430912 Z-0.125000
G01 X15.510889 Y52.364237 Z-0.125000
G00 Z5.000000

(End cutting path id: path3552)


(Start cutting path id: path3551)
(Change tool to Default tool)

G00 Z5.000000
G00 X14.039807 Y60.935123

G01 Z-0.125000 F100.0(Penetrate)
G01 X13.309559 Y60.099042 Z-0.125000 F400.000000
G01 X12.706311 Y58.934879 Z-0.125000
G01 X12.304146 Y57.802466 Z-0.125000
G01 X12.071313 Y56.564220 Z-0.125000
G01 X11.976063 Y55.495307 Z-0.125000
G01 X12.177146 Y54.362894 Z-0.125000
G01 X12.579311 Y53.030456 Z-0.125000
G01 X13.171976 Y51.964718 Z-0.125000
G00 Z5.000000

(End cutting path id: path3551)


(Start cutting path id: path3553)
(Change tool to Default tool)

G00 Z5.000000
G00 X21.405781 Y59.432294

G01 Z-0.125000 F100.0(Penetrate)
G01 X21.204698 Y52.498116 Z-0.125000 F400.000000
G00 Z5.000000

(End cutting path id: path3553)


(Start cutting path id: path3554)
(Change tool to Default tool)

G00 Z5.000000
G00 X23.342546 Y58.236381

G01 Z-0.125000 F100.0(Penetrate)
G01 X24.072794 Y58.860796 Z-0.125000 F400.000000
G01 X24.834791 Y59.294711 Z-0.125000
G01 X25.766122 Y59.527544 Z-0.125000
G01 X26.305870 Y59.527544 Z-0.125000
G01 X26.835035 Y59.167712 Z-0.125000
G01 X27.036118 Y58.627964 Z-0.125000
G01 X26.940868 Y57.865966 Z-0.125000
G01 X26.676286 Y57.093385 Z-0.125000
G01 X26.073037 Y55.929222 Z-0.125000
G01 X25.268707 Y54.627476 Z-0.125000
G01 X24.305626 Y53.463313 Z-0.125000
G01 X23.469546 Y52.530924 Z-0.125000
G01 X24.538459 Y52.530924 Z-0.125000
G01 X25.871955 Y52.664274 Z-0.125000
G01 X27.004368 Y52.898165 Z-0.125000
G01 X28.041531 Y53.164864 Z-0.125000
G00 Z5.000000

(End cutting path id: path3554)


(Start cutting path id: path3555)
(Change tool to Default tool)

G00 Z5.000000
G00 X29.131613 Y60.670540

G01 Z-0.125000 F100.0(Penetrate)
G01 X30.137026 Y59.834460 Z-0.125000 F400.000000
G01 X30.772024 Y58.797296 Z-0.125000
G01 X31.332939 Y57.463801 Z-0.125000
G01 X31.565772 Y56.363137 Z-0.125000
G01 X31.597522 Y55.368307 Z-0.125000
G01 X31.438772 Y54.394644 Z-0.125000
G01 X31.036607 Y53.526813 Z-0.125000
G01 X30.740274 Y52.964840 Z-0.125000
G01 X29.999443 Y52.130876 Z-0.125000
G00 Z5.000000

(End cutting path id: path3555)


(Start cutting path id: path3556)
(Change tool to Default tool)

G00 Z5.000000
G00 X41.810414 Y59.400544

G01 Z-0.125000 F100.0(Penetrate)
G01 X40.402835 Y58.966629 Z-0.125000 F400.000000
G01 X39.037589 Y58.596214 Z-0.125000
G01 X38.106259 Y58.500964 Z-0.125000
G01 X37.005596 Y58.395131 Z-0.125000
G01 X37.069096 Y59.495794 Z-0.125000
G01 X36.836263 Y55.833972 Z-0.125000
G01 X37.577094 Y55.897472 Z-0.125000
G01 X38.836507 Y56.130305 Z-0.125000
G01 X40.043003 Y56.162055 Z-0.125000
G01 X40.910834 Y56.066805 Z-0.125000
G01 X41.535248 Y55.431807 Z-0.125000
G01 X41.641081 Y54.627476 Z-0.125000
G01 X41.439999 Y53.928978 Z-0.125000
G01 X40.635668 Y53.298214 Z-0.125000
G01 X39.609088 Y52.830432 Z-0.125000
G01 X38.434341 Y52.564791 Z-0.125000
G01 X36.868013 Y52.430912 Z-0.125000
G01 X36.868013 Y52.730949 Z-0.125000
G00 Z5.000000

(End cutting path id: path3556)


(Start cutting path id: path3557)
(Change tool to Default tool)

G00 Z5.000000
G00 X42.540613 Y58.765546

G01 Z-0.125000 F100.0(Penetrate)
G01 X42.942779 Y58.829046 Z-0.125000 F400.000000
G01 X44.308024 Y59.294711 Z-0.125000
G01 X45.302855 Y59.464044 Z-0.125000
G01 X46.138935 Y59.495794 Z-0.125000
G01 X46.636350 Y59.400544 Z-0.125000
G01 X46.900933 Y59.030129 Z-0.125000
G01 X46.869183 Y58.469214 Z-0.125000
G01 X46.541101 Y57.929466 Z-0.125000
G01 X45.609770 Y57.135718 Z-0.125000
G01 X44.435024 Y56.331387 Z-0.125000
G01 X43.440194 Y55.802222 Z-0.125000
G01 X44.741940 Y56.331387 Z-0.125000
G01 X45.874353 Y56.500720 Z-0.125000
G01 X46.604600 Y56.236138 Z-0.125000
G01 X46.900933 Y55.802222 Z-0.125000
G01 X46.869183 Y55.135475 Z-0.125000
G01 X46.308268 Y54.267644 Z-0.125000
G01 X45.408688 Y53.431563 Z-0.125000
G01 X44.477357 Y52.830432 Z-0.125000
G01 X43.334361 Y52.430912 Z-0.125000
G01 X42.942779 Y52.364237 Z-0.125000
G00 Z5.000000

(End cutting path id: path3557)


(Start cutting path id: path3558)
(Change tool to Default tool)

G00 Z5.000000
G00 X51.642285 Y59.400544

G01 Z-0.125000 F100.0(Penetrate)
G01 X50.774455 Y59.135962 Z-0.125000 F400.000000
G01 X49.970124 Y58.532714 Z-0.125000
G01 X49.239876 Y57.664883 Z-0.125000
G01 X48.710711 Y56.902886 Z-0.125000
G01 X48.340296 Y55.865722 Z-0.125000
G01 X48.308546 Y54.796809 Z-0.125000
G01 X48.477879 Y54.034811 Z-0.125000
G01 X49.070543 Y53.197672 Z-0.125000
G01 X49.938374 Y52.631466 Z-0.125000
G01 X50.573372 Y52.430912 Z-0.125000
G01 X51.303620 Y52.397575 Z-0.125000
G01 X52.277283 Y52.498116 Z-0.125000
G01 X53.303863 Y53.030456 Z-0.125000
G01 X54.012945 Y53.865479 Z-0.125000
G01 X54.203444 Y54.362894 Z-0.125000
G01 X54.171694 Y54.966142 Z-0.125000
G01 X53.907112 Y55.368307 Z-0.125000
G01 X53.335613 Y55.400057 Z-0.125000
G01 X52.436033 Y55.029642 Z-0.125000
G01 X51.504703 Y54.299394 Z-0.125000
G01 X50.912038 Y53.801979 Z-0.125000
G01 X50.372289 Y53.264347 Z-0.125000
G01 X50.012457 Y52.830432 Z-0.125000
G00 Z5.000000

(End cutting path id: path3558)


(Start cutting path id: path3559)
(Change tool to Default tool)

G00 Z5.000000
G00 X55.272363 Y54.796809

G01 Z-0.125000 F100.0(Penetrate)
G01 X56.510609 Y54.997892 Z-0.125000 F400.000000
G01 X57.378440 Y55.093141 Z-0.125000
G00 Z5.000000

(End cutting path id: path3559)


(Start cutting path id: path3560)
(Change tool to Default tool)

G00 Z5.000000
G00 X58.506630 Y59.061879

G01 Z-0.125000 F100.0(Penetrate)
G01 X60.077192 Y59.093629 Z-0.125000 F400.000000
G01 X61.939853 Y59.432294 Z-0.125000
G01 X63.569681 Y59.601627 Z-0.125000
G01 X62.977016 Y58.903129 Z-0.125000
G01 X62.172685 Y57.326218 Z-0.125000
G01 X61.537687 Y55.929222 Z-0.125000
G01 X61.209605 Y54.532226 Z-0.125000
G01 X61.040272 Y53.727896 Z-0.125000
G01 X60.976772 Y52.830432 Z-0.125000
G00 Z5.000000

(End cutting path id: path3560)


(Start cutting path id: path3542)
(Change tool to Default tool)

G00 Z5.000000
G00 X55.515746 Y70.428218

G01 Z-0.125000 F100.0(Penetrate)
G01 X55.251163 Y68.893640 Z-0.125000 F400.000000
G01 X55.155913 Y67.126228 Z-0.125000
G01 X55.558079 Y66.093298 Z-0.125000
G01 X56.383576 Y65.659912 Z-0.125000
G01 X57.791155 Y65.759924 Z-0.125000
G01 X58.584903 Y66.259456 Z-0.125000
G01 X59.018818 Y66.460539 Z-0.125000
G01 X59.452733 Y67.062729 Z-0.125000
G01 X59.759649 Y67.697727 Z-0.125000
G01 X59.516233 Y70.555218 Z-0.125000
G01 X59.854899 Y65.693250 Z-0.125000
G00 Z5.000000

(End cutting path id: path3542)


(Start cutting path id: path3541)
(Change tool to Default tool)

G00 Z5.000000
G00 X51.885722 Y70.523468

G01 Z-0.125000 F100.0(Penetrate)
G01 X50.552226 Y69.930803 Z-0.125000 F400.000000
G01 X49.853728 Y68.925389 Z-0.125000
G01 X49.388063 Y67.930559 Z-0.125000
G01 X49.620896 Y66.593888 Z-0.125000
G01 X50.054811 Y65.860466 Z-0.125000
G01 X51.462390 Y65.626575 Z-0.125000
G01 X52.626553 Y65.926082 Z-0.125000
G01 X53.822466 Y66.692313 Z-0.125000
G01 X54.489214 Y67.930559 Z-0.125000
G01 X54.256381 Y69.465138 Z-0.125000
G01 X53.727216 Y70.057803 Z-0.125000
G01 X53.123968 Y70.428218 Z-0.125000
G01 X51.885722 Y70.523468 Z-0.125000
G00 Z5.000000

(End cutting path id: path3541)


(Start cutting path id: path3540)
(Change tool to Default tool)

G00 Z5.000000
G00 X43.186213 Y70.057803

G01 Z-0.125000 F100.0(Penetrate)
G01 X46.625785 Y65.159851 Z-0.125000 F400.000000
G01 X48.520196 Y70.163635 Z-0.125000
G01 X45.059457 Y61.061997 Z-0.125000
G00 Z5.000000

(End cutting path id: path3540)


(Start cutting path id: path3539)
(Change tool to Default tool)

G00 Z5.000000
G00 X37.947448 Y72.460212

G01 Z-0.125000 F100.0(Penetrate)
G01 X37.788699 Y69.655637 Z-0.125000 F400.000000
G01 X37.714616 Y67.856476 Z-0.125000
G01 X37.788699 Y66.393864 Z-0.125000
G01 X37.820449 Y65.759924 Z-0.125000
G01 X37.756949 Y67.496644 Z-0.125000
G01 X36.783285 Y66.460539 Z-0.125000
G01 X35.216957 Y65.759924 Z-0.125000
G01 X34.116294 Y65.693250 Z-0.125000
G01 X33.354296 Y66.127165 Z-0.125000
G01 X33.117230 Y67.263811 Z-0.125000
G01 X33.682378 Y68.364475 Z-0.125000
G01 X35.047624 Y69.295805 Z-0.125000
G01 X36.285870 Y69.496888 Z-0.125000
G01 X37.217200 Y69.359305 Z-0.125000
G01 X37.820449 Y68.724307 Z-0.125000
G00 Z5.000000

(End cutting path id: path3539)


(Start cutting path id: path3538)
(Change tool to Default tool)

G00 Z5.000000
G00 X31.713911 Y72.862377

G01 Z-0.125000 F100.0(Penetrate)
G01 X31.809161 Y68.195142 Z-0.125000 F400.000000
G01 X31.883244 Y65.992757 Z-0.125000
G00 Z5.000000

(End cutting path id: path3538)


(Start cutting path id: path3537)
(Change tool to Default tool)

G00 Z5.000000
G00 X26.073046 Y70.428218

G01 Z-0.125000 F100.0(Penetrate)
G01 X25.808463 Y68.893640 Z-0.125000 F400.000000
G01 X25.713213 Y67.126228 Z-0.125000
G01 X26.115379 Y66.093298 Z-0.125000
G01 X26.940876 Y65.659912 Z-0.125000
G01 X28.348455 Y65.759924 Z-0.125000
G01 X29.142203 Y66.259456 Z-0.125000
G01 X29.576118 Y66.460539 Z-0.125000
G01 X30.010033 Y67.062729 Z-0.125000
G01 X30.316949 Y67.697727 Z-0.125000
G01 X30.073533 Y70.555218 Z-0.125000
G01 X30.412199 Y65.693250 Z-0.125000
G00 Z5.000000

(End cutting path id: path3537)


(Start cutting path id: path3536)
(Change tool to Default tool)

G00 Z5.000000
G00 X22.442952 Y70.523468

G01 Z-0.125000 F100.0(Penetrate)
G01 X21.109456 Y69.930803 Z-0.125000 F400.000000
G01 X20.410958 Y68.925389 Z-0.125000
G01 X19.945293 Y67.930559 Z-0.125000
G01 X20.178126 Y66.593888 Z-0.125000
G01 X20.612041 Y65.860466 Z-0.125000
G01 X22.019620 Y65.626575 Z-0.125000
G01 X23.183783 Y65.926082 Z-0.125000
G01 X24.379696 Y66.692313 Z-0.125000
G01 X25.046444 Y67.930559 Z-0.125000
G01 X24.813611 Y69.465138 Z-0.125000
G01 X24.284446 Y70.057803 Z-0.125000
G01 X23.681198 Y70.428218 Z-0.125000
G01 X22.442952 Y70.523468 Z-0.125000
G00 Z5.000000

(End cutting path id: path3536)


(Start cutting path id: path3535)
(Change tool to Default tool)

G00 Z5.000000
G00 X17.013714 Y72.396712

G01 Z-0.125000 F100.0(Penetrate)
G01 X16.611549 Y72.756544 Z-0.125000 F400.000000
G01 X15.606135 Y72.894127 Z-0.125000
G01 X14.346722 Y72.491962 Z-0.125000
G01 X13.203726 Y71.698214 Z-0.125000
G01 X12.505228 Y70.692801 Z-0.125000
G01 X12.145396 Y69.824970 Z-0.125000
G01 X11.976063 Y68.861890 Z-0.125000
G01 X11.944313 Y67.856476 Z-0.125000
G01 X12.473478 Y66.925146 Z-0.125000
G01 X13.140226 Y66.226648 Z-0.125000
G01 X13.944557 Y65.860466 Z-0.125000
G01 X15.013470 Y65.727116 Z-0.125000
G01 X16.304633 Y65.926082 Z-0.125000
G01 X17.341796 Y66.460539 Z-0.125000
G01 X18.241377 Y67.157978 Z-0.125000
G01 X18.876375 Y67.697727 Z-0.125000
G00 Z5.000000

(End cutting path id: path3535)


(Start cutting path id: path3526)
(Change tool to Default tool)

G00 Z5.000000
G00 X19.585459 Y81.921557

G01 Z-0.125000 F100.0(Penetrate)
G01 X20.918954 Y81.953307 Z-0.125000 F400.000000
G01 X22.453533 Y81.985057 Z-0.125000
G01 X23.448363 Y82.154389 Z-0.125000
G01 X23.617696 Y82.524805 Z-0.125000
G01 X23.480113 Y82.884637 Z-0.125000
G01 X22.612282 Y83.657218 Z-0.125000
G01 X21.511619 Y83.657218 Z-0.125000
G01 X20.516789 Y83.286803 Z-0.125000
G01 X19.818291 Y82.651805 Z-0.125000
G01 X19.310293 Y81.360642 Z-0.125000
G01 X19.147310 Y80.588061 Z-0.125000
G01 X19.114502 Y80.058896 Z-0.125000
G01 X19.680708 Y79.322298 Z-0.125000
G01 X20.612039 Y78.855575 Z-0.125000
G01 X21.680952 Y78.922250 Z-0.125000
G01 X22.813365 Y79.188949 Z-0.125000
G01 X23.617696 Y79.588997 Z-0.125000
G01 X23.914028 Y79.953063 Z-0.125000
G00 Z5.000000

(End cutting path id: path3526)


(Start cutting path id: path3527)
(Change tool to Default tool)

G00 Z5.000000
G00 X29.417349 Y81.720474

G01 Z-0.125000 F100.0(Penetrate)
G01 X28.814101 Y80.386978 Z-0.125000 F400.000000
G01 X27.840437 Y79.488456 Z-0.125000
G01 X27.141939 Y79.089466 Z-0.125000
G01 X26.475191 Y78.855575 Z-0.125000
G01 X25.543861 Y78.956116 Z-0.125000
G01 X25.046446 Y79.288432 Z-0.125000
G01 X24.908863 Y80.323479 Z-0.125000
G01 X25.416861 Y81.360642 Z-0.125000
G01 X26.073026 Y82.355472 Z-0.125000
G01 X27.141939 Y83.085720 Z-0.125000
G01 X27.946270 Y83.456135 Z-0.125000
G01 X28.549518 Y83.456135 Z-0.125000
G01 X29.279766 Y83.318552 Z-0.125000
G01 X29.417349 Y82.821137 Z-0.125000
G01 X29.544348 Y78.822237 Z-0.125000
G00 Z5.000000

(End cutting path id: path3527)


(Start cutting path id: path3528)
(Change tool to Default tool)

G00 Z5.000000
G00 X30.740246 Y83.752468

G01 Z-0.125000 F100.0(Penetrate)
G01 X30.613246 Y78.956116 Z-0.125000 F400.000000
G01 X30.941328 Y81.656974 Z-0.125000
G01 X31.745659 Y82.694138 Z-0.125000
G01 X32.772239 Y83.286803 Z-0.125000
G01 X33.608320 Y83.625468 Z-0.125000
G01 X33.978735 Y83.657218 Z-0.125000
G01 X35.079399 Y83.551385 Z-0.125000
G01 X35.206398 Y83.456135 Z-0.125000
G00 Z5.000000

(End cutting path id: path3528)


(Start cutting path id: path3529)
(Change tool to Default tool)

G00 Z5.000000
G00 X39.710697 Y85.890294

G01 Z-0.125000 F100.0(Penetrate)
G01 X41.746924 Y85.795045 Z-0.125000 F400.000000
G01 X43.546085 Y85.689212 Z-0.125000
G01 X45.313496 Y85.689212 Z-0.125000
G01 X46.149577 Y85.890294 Z-0.125000
G00 Z5.000000

(End cutting path id: path3529)


(Start cutting path id: path3529)
(Change tool to Default tool)

G00 Z5.000000
G00 X42.413672 Y85.689212

G01 Z-0.125000 F100.0(Penetrate)
G01 X42.180840 Y82.355472 Z-0.125000 F400.000000
G01 X42.075007 Y80.588061 Z-0.125000
G01 X42.075007 Y79.089466 Z-0.125000
G00 Z5.000000

(End cutting path id: path3529)


(Start cutting path id: path3530)
(Change tool to Default tool)

G00 Z5.000000
G00 X47.281979 Y81.921557

G01 Z-0.125000 F100.0(Penetrate)
G01 X48.615474 Y81.953307 Z-0.125000 F400.000000
G01 X50.150053 Y81.985057 Z-0.125000
G01 X51.144883 Y82.154389 Z-0.125000
G01 X51.314216 Y82.524805 Z-0.125000
G01 X51.176633 Y82.884637 Z-0.125000
G01 X50.308802 Y83.657218 Z-0.125000
G01 X49.208139 Y83.657218 Z-0.125000
G01 X48.213309 Y83.286803 Z-0.125000
G01 X47.514811 Y82.651805 Z-0.125000
G01 X47.006813 Y81.360642 Z-0.125000
G01 X46.843830 Y80.588061 Z-0.125000
G01 X46.811022 Y80.058896 Z-0.125000
G01 X47.377228 Y79.322298 Z-0.125000
G01 X48.308559 Y78.855575 Z-0.125000
G01 X49.377472 Y78.922250 Z-0.125000
G01 X50.509885 Y79.188949 Z-0.125000
G01 X51.314216 Y79.588997 Z-0.125000
G01 X51.610548 Y79.953063 Z-0.125000
G00 Z5.000000

(End cutting path id: path3530)


(Start cutting path id: path3531)
(Change tool to Default tool)

G00 Z5.000000
G00 X56.743433 Y83.318552

G01 Z-0.125000 F100.0(Penetrate)
G01 X56.404768 Y83.657218 Z-0.125000 F400.000000
G01 X55.409937 Y83.657218 Z-0.125000
G01 X54.277524 Y83.424385 Z-0.125000
G01 X53.240361 Y82.884637 Z-0.125000
G01 X52.806446 Y82.186139 Z-0.125000
G01 X52.806446 Y81.424142 Z-0.125000
G01 X53.240361 Y81.085476 Z-0.125000
G01 X54.203441 Y81.085476 Z-0.125000
G01 X55.240605 Y81.286559 Z-0.125000
G01 X55.907353 Y81.254809 Z-0.125000
G01 X56.436518 Y81.053726 Z-0.125000
G01 X56.775183 Y80.757394 Z-0.125000
G01 X56.679933 Y80.259979 Z-0.125000
G01 X55.642770 Y79.455648 Z-0.125000
G01 X54.309274 Y79.089466 Z-0.125000
G01 X53.536693 Y78.788900 Z-0.125000
G01 X53.208611 Y78.822237 Z-0.125000
G00 Z5.000000

(End cutting path id: path3531)


(Start cutting path id: path3532)
(Change tool to Default tool)

G00 Z5.000000
G00 X59.304574 Y85.890294

G01 Z-0.125000 F100.0(Penetrate)
G01 X59.473907 Y78.855575 Z-0.125000 F400.000000
G01 X59.378657 Y82.789387 Z-0.125000
G01 X57.340314 Y82.789387 Z-0.125000
G01 X61.135485 Y82.821137 Z-0.125000
G00 Z5.000000

(End cutting path id: path3532)


(Start cutting path id: path3533)
(Change tool to Default tool)

G00 Z5.000000
G00 X62.003313 Y83.286803

G01 Z-0.125000 F100.0(Penetrate)
G01 X65.442885 Y78.388851 Z-0.125000 F400.000000
G01 X67.337296 Y83.392636 Z-0.125000
G01 X63.876557 Y74.290998 Z-0.125000
G00 Z5.000000

(End cutting path id: path3533)


(Start cutting path id: path3534)
(Change tool to Default tool)

G00 Z5.000000
G00 X68.713161 Y79.322298

G01 Z-0.125000 F100.0(Penetrate)
G01 X68.236913 Y78.255502 Z-0.125000 F400.000000
G01 X67.940580 Y77.855453 Z-0.125000
G00 Z5.000000

(End cutting path id: path3534)


(Start cutting path id: path3525)
(Change tool to Default tool)

G00 Z5.000000
G00 X12.177146 Y85.922044

G01 Z-0.125000 F100.0(Penetrate)
G01 X12.208896 Y78.788900 Z-0.125000 F400.000000
G01 X13.171976 Y78.922250 Z-0.125000
G01 X14.346722 Y79.288432 Z-0.125000
G01 X15.574385 Y79.921313 Z-0.125000
G01 X16.579799 Y80.619811 Z-0.125000
G01 X17.373546 Y81.424142 Z-0.125000
G01 X18.008544 Y82.355472 Z-0.125000
G01 X18.209627 Y83.128053 Z-0.125000
G01 X18.114377 Y83.985300 Z-0.125000
G01 X17.405296 Y84.821381 Z-0.125000
G01 X16.241133 Y85.456379 Z-0.125000
G01 X15.108720 Y85.752711 Z-0.125000
G01 X13.944557 Y85.826795 Z-0.125000
G01 X13.076726 Y85.720962 Z-0.125000
G01 X12.208896 Y85.519879 Z-0.125000
G00 Z5.000000

(End cutting path id: path3525)


(Start cutting path id: path3613)
(Change tool to Default tool)

G00 Z5.000000
G00 X112.316328 Y32.339296

G01 Z-0.125000 F100.0(Penetrate)
G01 X111.882413 Y30.942301 Z-0.125000 F400.000000
G00 Z5.000000

(End cutting path id: path3613)


(Footer)
M5
G00 X0.0000 Y0.0000
M2
(Using default footer. To add your own footer create file "footer" in the output dir.)
(end)
%